; G-Code generated by Simplify3D(R) Version 4.0.1
; Oct 7, 2018 at 8:48:24 AM
; Settings Summary
;   processName,Process1
;   applyToModels,Bottom
;   profileName,Anet A8-CommunauteFrancaise
;   profileVersion,2018-08-31 18:45:08
;   baseProfile,
;   printMaterial,ABS
;   printQuality,Medium
;   printExtruders,
;   extruderName,Primary Extruder
;   extruderToolheadNumber,0
;   extruderDiameter,0.4
;   extruderAutoWidth,0
;   extruderWidth,0.4
;   extrusionMultiplier,1
;   extruderUseRetract,1
;   extruderRetractionDistance,2
;   extruderExtraRestartDistance,-0.2
;   extruderRetractionZLift,0.2
;   extruderRetractionSpeed,3600
;   extruderUseCoasting,0
;   extruderCoastingDistance,0.2
;   extruderUseWipe,0
;   extruderWipeDistance,5
;   primaryExtruder,0
;   layerHeight,0.2
;   topSolidLayers,5
;   bottomSolidLayers,5
;   perimeterOutlines,4
;   printPerimetersInsideOut,1
;   startPointOption,2
;   startPointOriginX,0
;   startPointOriginY,500
;   sequentialIslands,0
;   spiralVaseMode,0
;   firstLayerHeightPercentage,100
;   firstLayerWidthPercentage,100
;   firstLayerUnderspeed,0.5
;   useRaft,0
;   raftExtruder,0
;   raftTopLayers,3
;   raftBaseLayers,2
;   raftOffset,3
;   raftSeparationDistance,0.14
;   raftTopInfill,100
;   aboveRaftSpeedMultiplier,0.3
;   useSkirt,1
;   skirtExtruder,0
;   skirtLayers,1
;   skirtOutlines,1
;   skirtOffset,2
;   usePrimePillar,0
;   primePillarExtruder,999
;   primePillarWidth,12
;   primePillarLocation,7
;   primePillarSpeedMultiplier,1
;   useOozeShield,0
;   oozeShieldExtruder,999
;   oozeShieldOffset,2
;   oozeShieldOutlines,1
;   oozeShieldSidewallShape,1
;   oozeShieldSidewallAngle,30
;   oozeShieldSpeedMultiplier,1
;   infillExtruder,0
;   internalInfillPattern,Rectilinear
;   externalInfillPattern,Rectilinear
;   infillPercentage,30
;   outlineOverlapPercentage,20
;   infillExtrusionWidthPercentage,100
;   minInfillLength,2
;   infillLayerInterval,1
;   internalInfillAngles,90,0
;   overlapInternalInfillAngles,0
;   externalInfillAngles,90,0
;   generateSupport,1
;   supportExtruder,0
;   supportInfillPercentage,30
;   supportExtraInflation,0
;   supportBaseLayers,0
;   denseSupportExtruder,0
;   denseSupportLayers,0
;   denseSupportInfillPercentage,60
;   supportLayerInterval,1
;   supportHorizontalPartOffset,0.3
;   supportUpperSeparationLayers,1
;   supportLowerSeparationLayers,1
;   supportType,0
;   supportGridSpacing,3
;   maxOverhangAngle,60
;   supportAngles,0
;   temperatureName,Primary Extruder,Heated Bed
;   temperatureNumber,0,0
;   temperatureSetpointCount,1,1
;   temperatureSetpointLayers,1,1
;   temperatureSetpointTemperatures,230,90
;   temperatureStabilizeAtStartup,1,1
;   temperatureHeatedBed,0,1
;   temperatureRelayBetweenLayers,0,0
;   temperatureRelayBetweenLoops,0,0
;   fanLayers,1
;   fanSpeeds,0
;   blipFanToFullPower,0
;   adjustSpeedForCooling,1
;   minSpeedLayerTime,15
;   minCoolingSpeedSlowdown,20
;   increaseFanForCooling,0
;   minFanLayerTime,45
;   maxCoolingFanSpeed,100
;   increaseFanForBridging,0
;   bridgingFanSpeed,100
;   use5D,1
;   relativeEdistances,0
;   allowEaxisZeroing,1
;   independentExtruderAxes,0
;   includeM10123,0
;   stickySupport,1
;   applyToolheadOffsets,0
;   gcodeXoffset,0
;   gcodeYoffset,0
;   gcodeZoffset,0
;   overrideMachineDefinition,1
;   machineTypeOverride,0
;   strokeXoverride,220
;   strokeYoverride,220
;   strokeZoverride,240
;   originOffsetXoverride,0
;   originOffsetYoverride,0
;   originOffsetZoverride,0
;   homeXdirOverride,-1
;   homeYdirOverride,-1
;   homeZdirOverride,-1
;   flipXoverride,1
;   flipYoverride,-1
;   flipZoverride,1
;   toolheadOffsets,0,0|0,0|0,0|0,0|0,0|0,0
;   overrideFirmwareConfiguration,1
;   firmwareTypeOverride,RepRap (Marlin/Repetier/Sprinter)
;   GPXconfigOverride,r2
;   baudRateOverride,115200
;   overridePrinterModels,1
;   printerModelsOverride
;   startingGcode,G28 ; home all axes,;G29,G1 X0 Y10 Z0.2 F3000 ; get ready to prime,G92 E0 ; reset extrusion distance,G1 X90 E20 Z-0.60 F600 ; prime nozzle,M117 Impression en cours  !!
;   layerChangeGcode,
;   retractionGcode,
;   toolChangeGcode,
;   endingGcode,M104 S0 ; turn off extruder,M140 S0 ; turn off bed,G1 X0 Y200 F1000 ; prepare for part removal,M84 ; disable motors,M117 c'est fini !!
;   exportFileFormat,gcode
;   celebration,0
;   celebrationSong,Star Wars
;   postProcessing,|;gcode:||; Use Simplify3D Gcode comments to display info for each layer||;{REPLACE "; layer" "M117 Layer"} ; Replace Simplify3D layer comments with display commands|;{REPLACE " Z = " " Z="} ; Delete spaces for more display space||; For filament change at the beginning of a particular layer:||; {REPLACE "\nM117 Layer <#>, Z=" "\nM600\nM117 Layer <#>, Z="}||; Forward toolpath file to Octoprint when saved:|;curl -k -H "X-Api-Key:95CF4E9979984CF1ACDD88DF2F202262" -F "select=true" -F "print=true" -F "file=@[output_filepath]" "http://192.168.1.126/api/files/local"
;   defaultSpeed,2400
;   outlineUnderspeed,0.5
;   solidInfillUnderspeed,0.8
;   supportUnderspeed,0.8
;   rapidXYspeed,3000
;   rapidZspeed,1002
;   minBridgingArea,50
;   bridgingExtraInflation,0
;   bridgingExtrusionMultiplier,1
;   bridgingSpeedMultiplier,1
;   useFixedBridgingAngle,0
;   fixedBridgingAngle,0
;   applyBridgingToPerimeters,0
;   filamentDiameters,1.75|1.75|1.75|1.75|1.75|1.75
;   filamentPricesPerKg,16|46|46|46|46|46
;   filamentDensities,1.25|1.25|1.25|1.25|1.25|1.25
;   useMinPrintHeight,0
;   minPrintHeight,0
;   useMaxPrintHeight,0
;   maxPrintHeight,0
;   useDiaphragm,0
;   diaphragmLayerInterval,20
;   robustSlicing,1
;   mergeAllIntoSolid,0
;   onlyRetractWhenCrossingOutline,1
;   retractBetweenLayers,1
;   useRetractionMinTravel,0
;   retractionMinTravel,3
;   retractWhileWiping,0
;   onlyWipeOutlines,1
;   avoidCrossingOutline,0
;   maxMovementDetourFactor,3
;   toolChangeRetractionDistance,12
;   toolChangeExtraRestartDistance,-0.5
;   toolChangeRetractionSpeed,600
;   externalThinWallType,0
;   internalThinWallType,2
;   thinWallAllowedOverlapPercentage,10
;   singleExtrusionMinLength,1
;   singleExtrusionMinPrintingWidthPercentage,50
;   singleExtrusionMaxPrintingWidthPercentage,200
;   singleExtrusionEndpointExtension,0.2
;   horizontalSizeCompensation,0
G90
M82
M106 S0
M140 S90
M190 S90
M104 S230 T0
M109 S230 T0
G28 ; home all axes
;G29
G1 X0 Y10 Z0.2 F3000 ; get ready to prime
G92 E0 ; reset extrusion distance
G1 X90 E20 Z-0.60 F600 ; prime nozzle
M117 Impression en cours  !!
G92 E0
G1 E-2.0000 F3600
G1 Z0.400 F1002
; process Process1
; layer 1, Z = 0.200
T0
; tool H0.200 W0.400
; skirt
G1 X60.829 Y77.901 F3000
G1 Z0.200 F1002
G1 E-0.2000 F1080
G92 E0
G1 X60.997 Y77.794 E0.0066 F1200
G1 X61.005 Y77.789 E0.0069
G1 X61.855 Y77.354 E0.0387
G1 X61.863 Y77.351 E0.0390
G1 X62.048 Y77.277 E0.0456
G1 X62.057 Y77.274 E0.0459
G1 X62.974 Y77.007 E0.0777
G1 X62.983 Y77.004 E0.0780
G1 X63.178 Y76.967 E0.0846
G1 X63.187 Y76.966 E0.0849
G1 X64.088 Y76.880 E0.1150
G1 X64.093 Y76.880 E0.1152
G1 X64.192 Y76.875 E0.1185
G1 X64.197 Y76.875 E0.1186
G1 X155.792 Y76.875 E3.1651
G1 X155.797 Y76.875 E3.1653
G1 X155.888 Y76.879 E3.1683
G1 X155.892 Y76.879 E3.1684
G1 X156.720 Y76.952 E3.1961
G1 X156.729 Y76.953 E3.1964
G1 X156.909 Y76.984 E3.2024
G1 X156.917 Y76.986 E3.2027
G1 X157.769 Y77.214 E3.2320
G1 X157.777 Y77.216 E3.2323
G1 X157.949 Y77.279 E3.2384
G1 X157.957 Y77.282 E3.2387
G1 X158.757 Y77.654 E3.2680
G1 X158.764 Y77.658 E3.2683
G1 X158.923 Y77.750 E3.2744
G1 X158.931 Y77.755 E3.2747
G1 X159.653 Y78.260 E3.3040
G1 X159.660 Y78.265 E3.3043
G1 X159.801 Y78.383 E3.3104
G1 X159.807 Y78.389 E3.3107
G1 X160.431 Y79.012 E3.3401
G1 X160.437 Y79.019 E3.3403
G1 X160.554 Y79.159 E3.3464
G1 X160.560 Y79.166 E3.3467
G1 X161.066 Y79.888 E3.3761
G1 X161.070 Y79.895 E3.3763
G1 X161.162 Y80.054 E3.3825
G1 X161.166 Y80.062 E3.3827
G1 X161.539 Y80.861 E3.4121
G1 X161.542 Y80.869 E3.4124
G1 X161.605 Y81.042 E3.4185
G1 X161.607 Y81.050 E3.4188
G1 X161.835 Y81.901 E3.4481
G1 X161.837 Y81.910 E3.4484
G1 X161.869 Y82.090 E3.4544
G1 X161.870 Y82.099 E3.4547
G1 X161.942 Y82.923 E3.4822
G1 X161.942 Y82.927 E3.4824
G1 X161.946 Y83.019 E3.4854
G1 X161.946 Y83.023 E3.4856
G1 X161.947 Y136.971 E5.2799
G1 X161.947 Y136.975 E5.2800
G1 X161.943 Y137.066 E5.2831
G1 X161.942 Y137.071 E5.2832
G1 X161.870 Y137.898 E5.3108
G1 X161.869 Y137.907 E5.3111
G1 X161.837 Y138.087 E5.3172
G1 X161.836 Y138.096 E5.3175
G1 X161.608 Y138.947 E5.3468
G1 X161.606 Y138.955 E5.3471
G1 X161.543 Y139.128 E5.3532
G1 X161.540 Y139.136 E5.3535
G1 X161.168 Y139.935 E5.3828
G1 X161.164 Y139.943 E5.3831
G1 X161.072 Y140.102 E5.3892
G1 X161.067 Y140.109 E5.3895
G1 X160.562 Y140.831 E5.4188
G1 X160.557 Y140.838 E5.4191
G1 X160.439 Y140.979 E5.4252
G1 X160.433 Y140.985 E5.4255
G1 X159.810 Y141.609 E5.4548
G1 X159.803 Y141.615 E5.4551
G1 X159.663 Y141.733 E5.4612
G1 X159.656 Y141.738 E5.4615
G1 X158.934 Y142.244 E5.4908
G1 X158.926 Y142.248 E5.4911
G1 X158.767 Y142.340 E5.4972
G1 X158.760 Y142.344 E5.4975
G1 X157.961 Y142.717 E5.5268
G1 X157.953 Y142.720 E5.5271
G1 X157.780 Y142.783 E5.5332
G1 X157.772 Y142.785 E5.5335
G1 X156.920 Y143.013 E5.5628
G1 X156.912 Y143.015 E5.5631
G1 X156.732 Y143.047 E5.5692
G1 X156.723 Y143.048 E5.5695
G1 X155.899 Y143.120 E5.5970
G1 X155.895 Y143.120 E5.5972
G1 X155.803 Y143.124 E5.6002
G1 X155.799 Y143.125 E5.6003
G1 X64.197 Y143.125 E8.6470
G1 X64.192 Y143.125 E8.6472
G1 X64.093 Y143.120 E8.6505
G1 X64.088 Y143.120 E8.6507
G1 X63.187 Y143.034 E8.6808
G1 X63.178 Y143.033 E8.6811
G1 X62.983 Y142.996 E8.6877
G1 X62.974 Y142.993 E8.6880
G1 X62.057 Y142.726 E8.7197
G1 X62.048 Y142.723 E8.7201
G1 X61.863 Y142.649 E8.7267
G1 X61.855 Y142.646 E8.7270
G1 X61.005 Y142.211 E8.7587
G1 X60.997 Y142.206 E8.7591
G1 X60.829 Y142.099 E8.7657
G1 X60.821 Y142.093 E8.7660
G1 X60.069 Y141.506 E8.7977
G1 X60.061 Y141.500 E8.7981
G1 X59.917 Y141.364 E8.8047
G1 X59.910 Y141.357 E8.8050
G1 X59.281 Y140.639 E8.8367
G1 X59.275 Y140.631 E8.8370
G1 X59.159 Y140.470 E8.8437
G1 X59.154 Y140.462 E8.8440
G1 X58.671 Y139.638 E8.8757
G1 X58.667 Y139.630 E8.8760
G1 X58.583 Y139.450 E8.8827
G1 X58.580 Y139.441 E8.8830
G1 X58.261 Y138.541 E8.9147
G1 X58.258 Y138.532 E8.9150
G1 X58.209 Y138.339 E8.9217
G1 X58.208 Y138.330 E8.9220
G1 X58.063 Y137.386 E8.9537
G1 X58.062 Y137.377 E8.9540
G1 X58.051 Y137.178 E8.9606
G1 X58.051 Y137.169 E8.9610
G1 X58.087 Y136.215 E8.9927
G1 X58.088 Y136.205 E8.9930
G1 X58.114 Y136.008 E8.9996
G1 X58.116 Y135.999 E9.0000
G1 X58.331 Y135.069 E9.0317
G1 X58.333 Y135.060 E9.0320
G1 X58.396 Y134.871 E9.0386
G1 X58.399 Y134.862 E9.0390
G1 X58.785 Y133.989 E9.0707
G1 X58.790 Y133.980 E9.0710
G1 X58.887 Y133.807 E9.0776
G1 X58.892 Y133.799 E9.0780
G1 X59.435 Y133.014 E9.1097
G1 X59.441 Y133.007 E9.1100
G1 X59.569 Y132.854 E9.1166
G1 X59.576 Y132.848 E9.1169
G1 X60.257 Y132.179 E9.1487
G1 X60.264 Y132.172 E9.1490
G1 X60.418 Y132.047 E9.1556
G1 X60.426 Y132.042 E9.1559
G1 X61.221 Y131.513 E9.1877
G1 X61.229 Y131.508 E9.1880
G1 X61.404 Y131.414 E9.1946
G1 X61.413 Y131.410 E9.1949
G1 X62.293 Y131.040 E9.2267
G1 X62.302 Y131.037 E9.2270
G1 X62.492 Y130.978 E9.2336
G1 X62.501 Y130.975 E9.2339
G1 X63.435 Y130.778 E9.2657
G1 X63.444 Y130.776 E9.2660
G1 X63.642 Y130.754 E9.2726
G1 X63.651 Y130.753 E9.2729
G1 X64.606 Y130.735 E9.3047
G1 X64.615 Y130.735 E9.3050
G1 X64.778 Y130.747 E9.3104
G1 X67.047 Y125.882 E9.4890
G1 X67.047 Y94.122 E10.5453
G1 X64.777 Y89.253 E10.7240
G1 X64.615 Y89.265 E10.7294
G1 X64.606 Y89.265 E10.7297
G1 X63.651 Y89.247 E10.7615
G1 X63.642 Y89.246 E10.7618
G1 X63.444 Y89.224 E10.7684
G1 X63.435 Y89.222 E10.7687
G1 X62.501 Y89.025 E10.8005
G1 X62.492 Y89.022 E10.8008
G1 X62.302 Y88.963 E10.8074
G1 X62.293 Y88.960 E10.8077
G1 X61.413 Y88.590 E10.8395
G1 X61.404 Y88.586 E10.8398
G1 X61.229 Y88.492 E10.8464
G1 X61.221 Y88.487 E10.8467
G1 X60.426 Y87.958 E10.8785
G1 X60.418 Y87.953 E10.8788
G1 X60.264 Y87.828 E10.8854
G1 X60.257 Y87.821 E10.8857
G1 X59.576 Y87.152 E10.9175
G1 X59.569 Y87.146 E10.9178
G1 X59.441 Y86.993 E10.9244
G1 X59.435 Y86.986 E10.9247
G1 X58.892 Y86.201 E10.9565
G1 X58.887 Y86.193 E10.9568
G1 X58.790 Y86.020 E10.9634
G1 X58.785 Y86.011 E10.9637
G1 X58.399 Y85.138 E10.9955
G1 X58.396 Y85.129 E10.9958
G1 X58.333 Y84.940 E11.0024
G1 X58.331 Y84.931 E11.0027
G1 X58.116 Y84.001 E11.0344
G1 X58.114 Y83.992 E11.0348
G1 X58.088 Y83.795 E11.0414
G1 X58.087 Y83.785 E11.0417
G1 X58.051 Y82.831 E11.0734
G1 X58.051 Y82.822 E11.0738
G1 X58.062 Y82.623 E11.0804
G1 X58.063 Y82.614 E11.0807
G1 X58.208 Y81.670 E11.1124
G1 X58.209 Y81.661 E11.1128
G1 X58.258 Y81.468 E11.1194
G1 X58.261 Y81.459 E11.1197
G1 X58.580 Y80.559 E11.1514
G1 X58.583 Y80.550 E11.1518
G1 X58.667 Y80.370 E11.1584
G1 X58.671 Y80.362 E11.1587
G1 X59.154 Y79.538 E11.1904
G1 X59.159 Y79.530 E11.1907
G1 X59.275 Y79.369 E11.1974
G1 X59.281 Y79.361 E11.1977
G1 X59.910 Y78.643 E11.2294
G1 X59.917 Y78.636 E11.2297
G1 X60.061 Y78.500 E11.2364
G1 X60.069 Y78.494 E11.2367
G1 X60.821 Y77.907 E11.2684
G1 X60.829 Y77.901 E11.2687
G92 E0
G1 E-2.0000 F3600
G1 Z0.400 F1002
; inner perimeter
G1 X66.992 Y80.692 F3000
G1 Z0.200 F1002
G1 E-0.2000 F3600
G92 E0
G1 X67.086 Y80.475 E0.0079 F900
G1 X155.686 Y80.475 E2.9547
G1 X156.195 Y80.519 E2.9717
G1 X156.633 Y80.636 E2.9868
G1 X157.043 Y80.827 E3.0018
G1 X157.414 Y81.087 E3.0169
G1 X157.734 Y81.407 E3.0320
G1 X157.994 Y81.778 E3.0470
G1 X158.185 Y82.188 E3.0621
G1 X158.302 Y82.626 E3.0771
G1 X158.346 Y83.130 E3.0940
G1 X158.347 Y136.864 E4.8812
G1 X158.302 Y137.373 E4.8982
G1 X158.185 Y137.811 E4.9132
G1 X157.994 Y138.221 E4.9283
G1 X157.735 Y138.592 E4.9434
G1 X157.415 Y138.912 E4.9584
G1 X157.044 Y139.172 E4.9735
G1 X156.634 Y139.363 E4.9885
G1 X156.196 Y139.480 E5.0036
G1 X155.692 Y139.525 E5.0204
G1 X67.086 Y139.525 E7.9675
G1 X66.992 Y139.308 E7.9753
G1 X67.209 Y139.077 E7.9859
G1 X67.651 Y138.273 E8.0164
G1 X67.879 Y137.384 E8.0469
G1 X67.879 Y136.466 E8.0775
G1 X67.651 Y135.577 E8.1080
G1 X67.209 Y134.773 E8.1385
G1 X66.984 Y134.534 E8.1494
G1 X70.647 Y126.680 E8.4377
G1 X70.647 Y93.324 E9.5471
G1 X66.984 Y85.466 E9.8354
G1 X67.209 Y85.227 E9.8463
G1 X67.651 Y84.423 E9.8768
G1 X67.879 Y83.534 E9.9074
G1 X67.879 Y82.616 E9.9379
G1 X67.651 Y81.727 E9.9684
G1 X67.209 Y80.923 E9.9989
G1 X66.992 Y80.692 E10.0095
G1 X66.882 Y81.160 F3000
G92 E0
G1 X66.323 Y80.565 E0.0272 F900
G1 X65.961 Y80.335 E0.0414
G1 X66.036 Y80.075 E0.0504
G1 X155.703 Y80.075 E3.0328
G1 X156.264 Y80.124 E3.0515
G1 X156.770 Y80.259 E3.0689
G1 X157.244 Y80.480 E3.0863
G1 X157.672 Y80.779 E3.1037
G1 X158.042 Y81.149 E3.1211
G1 X158.342 Y81.577 E3.1385
G1 X158.562 Y82.051 E3.1558
G1 X158.698 Y82.556 E3.1732
G1 X158.746 Y83.112 E3.1918
G1 X158.747 Y136.882 E4.9802
G1 X158.698 Y137.442 E4.9989
G1 X158.563 Y137.948 E5.0163
G1 X158.342 Y138.422 E5.0337
G1 X158.043 Y138.850 E5.0511
G1 X157.673 Y139.220 E5.0685
G1 X157.245 Y139.520 E5.0859
G1 X156.771 Y139.741 E5.1032
G1 X156.266 Y139.876 E5.1206
G1 X155.709 Y139.925 E5.1392
G1 X66.036 Y139.925 E8.1218
G1 X65.961 Y139.665 E8.1307
G1 X66.323 Y139.435 E8.1450
G1 X66.882 Y138.840 E8.1722
G1 X67.276 Y138.124 E8.1994
G1 X67.479 Y137.333 E8.2265
G1 X67.479 Y136.517 E8.2537
G1 X67.276 Y135.726 E8.2808
G1 X66.882 Y135.010 E8.3080
G1 X66.507 Y134.610 E8.3262
G1 X70.247 Y126.591 E8.6205
G1 X70.247 Y93.413 E9.7241
G1 X66.507 Y85.389 E10.0185
G1 X66.882 Y84.990 E10.0367
G1 X67.276 Y84.274 E10.0639
G1 X67.479 Y83.483 E10.0910
G1 X67.479 Y82.667 E10.1182
G1 X67.276 Y81.876 E10.1453
G1 X66.882 Y81.160 E10.1725
G1 X64.275 Y79.675 F3000
G92 E0
G1 X155.721 Y79.675 E3.0415 F900
G1 X156.334 Y79.728 E3.0620
G1 X156.907 Y79.882 E3.0817
G1 X157.444 Y80.132 E3.1014
G1 X157.930 Y80.471 E3.1211
G1 X158.349 Y80.891 E3.1408
G1 X158.689 Y81.376 E3.1606
G1 X158.940 Y81.913 E3.1803
G1 X159.093 Y82.486 E3.2000
G1 X159.146 Y83.095 E3.2203
G1 X159.147 Y136.899 E5.0098
G1 X159.093 Y137.512 E5.0303
G1 X158.940 Y138.085 E5.0500
G1 X158.690 Y138.622 E5.0697
G1 X158.350 Y139.108 E5.0895
G1 X157.931 Y139.527 E5.1092
G1 X157.446 Y139.867 E5.1289
G1 X156.908 Y140.118 E5.1486
G1 X156.335 Y140.271 E5.1683
