; G-Code generated by Simplify3D(R) Version 4.0.1
; Oct 6, 2018 at 4:32:36 PM
; Settings Summary
;   processName,Process1
;   applyToModels,krabicka_spodek
;   profileName,Anet A8-CommunauteFrancaise
;   profileVersion,2018-08-31 18:45:08
;   baseProfile,
;   printMaterial,ABS
;   printQuality,Medium
;   printExtruders,
;   extruderName,Primary Extruder
;   extruderToolheadNumber,0
;   extruderDiameter,0.4
;   extruderAutoWidth,0
;   extruderWidth,0.4
;   extrusionMultiplier,1
;   extruderUseRetract,1
;   extruderRetractionDistance,2
;   extruderExtraRestartDistance,-0.2
;   extruderRetractionZLift,0.2
;   extruderRetractionSpeed,3600
;   extruderUseCoasting,0
;   extruderCoastingDistance,0.2
;   extruderUseWipe,0
;   extruderWipeDistance,5
;   primaryExtruder,0
;   layerHeight,0.2
;   topSolidLayers,5
;   bottomSolidLayers,5
;   perimeterOutlines,4
;   printPerimetersInsideOut,1
;   startPointOption,2
;   startPointOriginX,0
;   startPointOriginY,500
;   sequentialIslands,0
;   spiralVaseMode,0
;   firstLayerHeightPercentage,100
;   firstLayerWidthPercentage,100
;   firstLayerUnderspeed,0.5
;   useRaft,0
;   raftExtruder,0
;   raftTopLayers,3
;   raftBaseLayers,2
;   raftOffset,3
;   raftSeparationDistance,0.14
;   raftTopInfill,100
;   aboveRaftSpeedMultiplier,0.3
;   useSkirt,1
;   skirtExtruder,0
;   skirtLayers,1
;   skirtOutlines,1
;   skirtOffset,2
;   usePrimePillar,0
;   primePillarExtruder,999
;   primePillarWidth,12
;   primePillarLocation,7
;   primePillarSpeedMultiplier,1
;   useOozeShield,0
;   oozeShieldExtruder,999
;   oozeShieldOffset,2
;   oozeShieldOutlines,1
;   oozeShieldSidewallShape,1
;   oozeShieldSidewallAngle,30
;   oozeShieldSpeedMultiplier,1
;   infillExtruder,0
;   internalInfillPattern,Rectilinear
;   externalInfillPattern,Rectilinear
;   infillPercentage,30
;   outlineOverlapPercentage,20
;   infillExtrusionWidthPercentage,100
;   minInfillLength,2
;   infillLayerInterval,1
;   internalInfillAngles,90,0
;   overlapInternalInfillAngles,0
;   externalInfillAngles,90,0
;   generateSupport,1
;   supportExtruder,0
;   supportInfillPercentage,30
;   supportExtraInflation,0
;   supportBaseLayers,0
;   denseSupportExtruder,0
;   denseSupportLayers,0
;   denseSupportInfillPercentage,60
;   supportLayerInterval,1
;   supportHorizontalPartOffset,0.3
;   supportUpperSeparationLayers,1
;   supportLowerSeparationLayers,1
;   supportType,0
;   supportGridSpacing,3
;   maxOverhangAngle,55
;   supportAngles,0
;   temperatureName,Primary Extruder,Heated Bed
;   temperatureNumber,0,0
;   temperatureSetpointCount,1,1
;   temperatureSetpointLayers,1,1
;   temperatureSetpointTemperatures,230,90
;   temperatureStabilizeAtStartup,1,1
;   temperatureHeatedBed,0,1
;   temperatureRelayBetweenLayers,0,0
;   temperatureRelayBetweenLoops,0,0
;   fanLayers,1
;   fanSpeeds,0
;   blipFanToFullPower,0
;   adjustSpeedForCooling,1
;   minSpeedLayerTime,15
;   minCoolingSpeedSlowdown,20
;   increaseFanForCooling,0
;   minFanLayerTime,45
;   maxCoolingFanSpeed,100
;   increaseFanForBridging,0
;   bridgingFanSpeed,100
;   use5D,1
;   relativeEdistances,0
;   allowEaxisZeroing,1
;   independentExtruderAxes,0
;   includeM10123,0
;   stickySupport,1
;   applyToolheadOffsets,0
;   gcodeXoffset,0
;   gcodeYoffset,0
;   gcodeZoffset,0
;   overrideMachineDefinition,1
;   machineTypeOverride,0
;   strokeXoverride,220
;   strokeYoverride,220
;   strokeZoverride,240
;   originOffsetXoverride,0
;   originOffsetYoverride,0
;   originOffsetZoverride,0
;   homeXdirOverride,-1
;   homeYdirOverride,-1
;   homeZdirOverride,-1
;   flipXoverride,1
;   flipYoverride,-1
;   flipZoverride,1
;   toolheadOffsets,0,0|0,0|0,0|0,0|0,0|0,0
;   overrideFirmwareConfiguration,1
;   firmwareTypeOverride,RepRap (Marlin/Repetier/Sprinter)
;   GPXconfigOverride,r2
;   baudRateOverride,115200
;   overridePrinterModels,1
;   printerModelsOverride
;   startingGcode,G28 ; home all axes,;G29,G1 X0 Y10 Z0.2 F3000 ; get ready to prime,G92 E0 ; reset extrusion distance,G1 X90 E20 Z-0.60 F600 ; prime nozzle,M117 Impression en cours  !!
;   layerChangeGcode,
;   retractionGcode,
;   toolChangeGcode,
;   endingGcode,M104 S0 ; turn off extruder,M140 S0 ; turn off bed,G1 X0 Y200 F1000 ; prepare for part removal,M84 ; disable motors,M117 c'est fini !!
;   exportFileFormat,gcode
;   celebration,0
;   celebrationSong,Star Wars
;   postProcessing,|;gcode:||; Use Simplify3D Gcode comments to display info for each layer||;{REPLACE "; layer" "M117 Layer"} ; Replace Simplify3D layer comments with display commands|;{REPLACE " Z = " " Z="} ; Delete spaces for more display space||; For filament change at the beginning of a particular layer:||; {REPLACE "\nM117 Layer <#>, Z=" "\nM600\nM117 Layer <#>, Z="}||; Forward toolpath file to Octoprint when saved:|;curl -k -H "X-Api-Key:95CF4E9979984CF1ACDD88DF2F202262" -F "select=true" -F "print=true" -F "file=@[output_filepath]" "http://192.168.1.126/api/files/local"
;   defaultSpeed,2100
;   outlineUnderspeed,0.5
;   solidInfillUnderspeed,0.8
;   supportUnderspeed,0.8
;   rapidXYspeed,3000
;   rapidZspeed,1002
;   minBridgingArea,50
;   bridgingExtraInflation,0
;   bridgingExtrusionMultiplier,1
;   bridgingSpeedMultiplier,1
;   useFixedBridgingAngle,0
;   fixedBridgingAngle,0
;   applyBridgingToPerimeters,0
;   filamentDiameters,1.75|1.75|1.75|1.75|1.75|1.75
;   filamentPricesPerKg,46|46|46|46|46|46
;   filamentDensities,1.25|1.25|1.25|1.25|1.25|1.25
;   useMinPrintHeight,0
;   minPrintHeight,0
;   useMaxPrintHeight,0
;   maxPrintHeight,0
;   useDiaphragm,0
;   diaphragmLayerInterval,20
;   robustSlicing,1
;   mergeAllIntoSolid,0
;   onlyRetractWhenCrossingOutline,1
;   retractBetweenLayers,1
;   useRetractionMinTravel,0
;   retractionMinTravel,3
;   retractWhileWiping,0
;   onlyWipeOutlines,1
;   avoidCrossingOutline,0
;   maxMovementDetourFactor,3
;   toolChangeRetractionDistance,12
;   toolChangeExtraRestartDistance,-0.5
;   toolChangeRetractionSpeed,600
;   externalThinWallType,0
;   internalThinWallType,2
;   thinWallAllowedOverlapPercentage,10
;   singleExtrusionMinLength,1
;   singleExtrusionMinPrintingWidthPercentage,50
;   singleExtrusionMaxPrintingWidthPercentage,200
;   singleExtrusionEndpointExtension,0.2
;   horizontalSizeCompensation,0
G90
M82
M106 S0
M140 S90
M190 S90
M104 S230 T0
M109 S230 T0
G28 ; home all axes
;G29
G1 X0 Y10 Z0.2 F3000 ; get ready to prime
G92 E0 ; reset extrusion distance
G1 X90 E20 Z-0.60 F600 ; prime nozzle
M117 Impression en cours  !!
G92 E0
G1 E-2.0000 F3600
G1 Z0.400 F1002
; process Process1
; layer 1, Z = 0.200
T0
; tool H0.200 W0.400
; skirt
G1 X69.912 Y92.580 F3000
G1 Z0.200 F1002
G1 E-0.2000 F1080
G92 E0
G1 X72.778 Y92.580 E0.0953 F1050
G1 X73.029 Y91.962 E0.1175
G1 X73.031 Y91.957 E0.1177
G1 X73.078 Y91.859 E0.1213
G1 X73.080 Y91.854 E0.1215
G1 X73.657 Y90.773 E0.1623
G1 X73.658 Y90.769 E0.1624
G1 X73.699 Y90.700 E0.1651
G1 X73.701 Y90.696 E0.1652
G1 X74.048 Y90.150 E0.1867
G1 X74.050 Y90.147 E0.1868
G1 X74.096 Y90.080 E0.1895
G1 X74.099 Y90.077 E0.1897
G1 X74.834 Y89.097 E0.2304
G1 X74.837 Y89.093 E0.2306
G1 X74.907 Y89.009 E0.2342
G1 X74.911 Y89.005 E0.2344
G1 X75.754 Y88.096 E0.2757
G1 X75.758 Y88.092 E0.2758
G1 X75.834 Y88.018 E0.2794
G1 X75.838 Y88.015 E0.2795
G1 X76.758 Y87.205 E0.3203
G1 X76.761 Y87.202 E0.3204
G1 X76.823 Y87.151 E0.3231
G1 X76.826 Y87.149 E0.3232
G1 X77.344 Y86.760 E0.3448
G1 X77.347 Y86.758 E0.3449
G1 X77.415 Y86.710 E0.3477
G1 X77.418 Y86.708 E0.3478
G1 X78.441 Y86.058 E0.3881
G1 X78.445 Y86.056 E0.3882
G1 X78.515 Y86.016 E0.3909
G1 X78.518 Y86.014 E0.3910
G1 X79.089 Y85.710 E0.4126
G1 X79.092 Y85.708 E0.4127
G1 X79.164 Y85.674 E0.4153
G1 X79.167 Y85.672 E0.4155
G1 X80.290 Y85.180 E0.4562
G1 X80.295 Y85.178 E0.4564
G1 X80.397 Y85.139 E0.4600
G1 X80.402 Y85.138 E0.4602
G1 X81.571 Y84.765 E0.5010
G1 X81.575 Y84.764 E0.5011
G1 X81.653 Y84.742 E0.5039
G1 X81.657 Y84.741 E0.5040
G1 X82.274 Y84.596 E0.5251
G1 X82.277 Y84.595 E0.5252
G1 X82.328 Y84.584 E0.5269
G1 X82.330 Y84.584 E0.5270
G1 X82.953 Y84.470 E0.5480
G1 X82.957 Y84.469 E0.5482
G1 X83.038 Y84.457 E0.5509
G1 X83.042 Y84.457 E0.5510
G1 X84.263 Y84.331 E0.5919
G1 X84.268 Y84.331 E0.5920
G1 X84.376 Y84.325 E0.5956
G1 X84.381 Y84.325 E0.5958
G1 X89.580 Y84.324 E0.7687
G1 X89.580 Y81.912 E0.8489
G1 X89.610 Y81.838 E0.8516
G1 X90.838 Y80.610 E0.9093
G1 X90.912 Y80.580 E0.9120
G1 X129.088 Y80.580 E2.1817
G1 X129.162 Y80.610 E2.1844
G1 X130.390 Y81.838 E2.2421
G1 X130.420 Y81.912 E2.2448
G1 X130.420 Y84.317 E2.3248
G1 X135.622 Y84.325 E2.4978
G1 X135.627 Y84.325 E2.4979
G1 X135.733 Y84.331 E2.5015
G1 X135.738 Y84.331 E2.5016
G1 X136.958 Y84.457 E2.5424
G1 X136.961 Y84.457 E2.5425
G1 X137.043 Y84.469 E2.5453
G1 X137.047 Y84.470 E2.5454
G1 X137.670 Y84.584 E2.5665
G1 X137.672 Y84.584 E2.5666
G1 X137.723 Y84.595 E2.5683
G1 X137.726 Y84.596 E2.5684
G1 X138.343 Y84.741 E2.5895
G1 X138.347 Y84.742 E2.5896
G1 X138.425 Y84.764 E2.5923
G1 X138.429 Y84.765 E2.5924
G1 X139.598 Y85.138 E2.6333
G1 X139.603 Y85.139 E2.6334
G1 X139.705 Y85.178 E2.6371
G1 X139.710 Y85.180 E2.6372
G1 X140.845 Y85.677 E2.6784
G1 X140.849 Y85.679 E2.6786
G1 X140.944 Y85.727 E2.6822
G1 X140.949 Y85.729 E2.6823
G1 X142.015 Y86.332 E2.7230
G1 X142.018 Y86.334 E2.7232
G1 X142.087 Y86.376 E2.7259
G1 X142.091 Y86.379 E2.7260
G1 X142.628 Y86.740 E2.7475
G1 X142.631 Y86.742 E2.7477
G1 X142.697 Y86.790 E2.7504
G1 X142.700 Y86.792 E2.7505
G1 X143.662 Y87.553 E2.7913
G1 X143.666 Y87.556 E2.7915
G1 X143.748 Y87.628 E2.7951
G1 X143.752 Y87.632 E2.7953
G1 X144.630 Y88.488 E2.8361
G1 X144.633 Y88.491 E2.8362
G1 X144.689 Y88.550 E2.8389
G1 X144.692 Y88.553 E2.8390
G1 X145.119 Y89.040 E2.8606
G1 X145.121 Y89.043 E2.8607
G1 X145.172 Y89.106 E2.8634
G1 X145.175 Y89.109 E2.8635
G1 X145.909 Y90.088 E2.9043
G1 X145.912 Y90.092 E2.9044
G1 X145.973 Y90.182 E2.9080
G1 X145.976 Y90.187 E2.9082
G1 X146.606 Y91.237 E2.9489
G1 X146.608 Y91.240 E2.9491
G1 X146.646 Y91.309 E2.9517
G1 X146.647 Y91.313 E2.9518
G1 X146.938 Y91.891 E2.9733
G1 X146.940 Y91.895 E2.9735
G1 X146.974 Y91.970 E2.9762
G1 X146.975 Y91.974 E2.9764
G1 X147.222 Y92.580 E2.9981
G1 X150.088 Y92.580 E3.0935
G1 X150.162 Y92.610 E3.0961
G1 X151.390 Y93.838 E3.1539
G1 X151.420 Y93.912 E3.1565
G1 X151.420 Y126.088 E4.2267
G1 X151.390 Y126.162 E4.2294
G1 X150.162 Y127.390 E4.2871
G1 X150.088 Y127.420 E4.2898
G1 X147.222 Y127.420 E4.3851
G1 X146.971 Y128.038 E4.4073
G1 X146.968 Y128.043 E4.4074
G1 X146.922 Y128.141 E4.4111
G1 X146.920 Y128.146 E4.4112
G1 X146.337 Y129.240 E4.4525
G1 X146.334 Y129.244 E4.4526
G1 X146.279 Y129.337 E4.4562
G1 X146.276 Y129.341 E4.4564
G1 X145.584 Y130.368 E4.4976
G1 X145.581 Y130.372 E4.4978
G1 X145.517 Y130.457 E4.5013
G1 X145.514 Y130.461 E4.5015
G1 X144.721 Y131.414 E4.5427
G1 X144.718 Y131.418 E4.5429
G1 X144.644 Y131.498 E4.5465
G1 X144.640 Y131.502 E4.5467
G1 X143.752 Y132.368 E4.5879
G1 X143.748 Y132.372 E4.5881
G1 X143.666 Y132.444 E4.5917
G1 X143.662 Y132.447 E4.5919
G1 X142.689 Y133.216 E4.6332
G1 X142.685 Y133.219 E4.6333
G1 X142.597 Y133.282 E4.6369
G1 X142.592 Y133.285 E4.6371
G1 X141.559 Y133.942 E4.6778
G1 X141.555 Y133.944 E4.6780
G1 X141.485 Y133.984 E4.6807
G1 X141.482 Y133.986 E4.6808
G1 X140.911 Y134.290 E4.7023
G1 X140.908 Y134.292 E4.7024
G1 X140.836 Y134.326 E4.7051
G1 X140.833 Y134.328 E4.7052
G1 X139.710 Y134.820 E4.7460
G1 X139.705 Y134.822 E4.7461
G1 X139.603 Y134.861 E4.7498
G1 X139.598 Y134.862 E4.7500
G1 X138.429 Y135.235 E4.7908
G1 X138.425 Y135.236 E4.7909
G1 X138.347 Y135.258 E4.7936
G1 X138.343 Y135.259 E4.7937
G1 X137.726 Y135.404 E4.8148
G1 X137.723 Y135.405 E4.8149
G1 X137.672 Y135.416 E4.8166
G1 X137.670 Y135.416 E4.8167
G1 X137.047 Y135.530 E4.8378
G1 X137.043 Y135.531 E4.8379
G1 X136.961 Y135.543 E4.8407
G1 X136.958 Y135.543 E4.8408
G1 X135.737 Y135.669 E4.8816
G1 X135.732 Y135.669 E4.8818
G1 X135.624 Y135.675 E4.8854
G1 X135.619 Y135.675 E4.8855
G1 X130.420 Y135.675 E5.0584
G1 X130.420 Y138.088 E5.1387
G1 X130.390 Y138.162 E5.1414
G1 X129.162 Y139.390 E5.1991
G1 X129.088 Y139.420 E5.2018
G1 X90.912 Y139.420 E6.4715
G1 X90.838 Y139.390 E6.4742
G1 X89.610 Y138.162 E6.5319
G1 X89.580 Y138.088 E6.5346
G1 X89.580 Y135.675 E6.6148
G1 X84.381 Y135.675 E6.7877
G1 X84.376 Y135.675 E6.7879
G1 X84.268 Y135.669 E6.7915
G1 X84.263 Y135.669 E6.7917
G1 X83.029 Y135.542 E6.8329
G1 X83.024 Y135.541 E6.8331
G1 X82.917 Y135.524 E6.8367
G1 X82.911 Y135.523 E6.8369
G1 X81.697 Y135.269 E6.8781
G1 X81.692 Y135.268 E6.8783
G1 X81.588 Y135.241 E6.8819
G1 X81.583 Y135.239 E6.8821
G1 X80.402 Y134.862 E6.9233
G1 X80.397 Y134.861 E6.9235
G1 X80.295 Y134.822 E6.9271
G1 X80.290 Y134.820 E6.9273
G1 X79.155 Y134.323 E6.9685
G1 X79.151 Y134.321 E6.9687
G1 X79.055 Y134.273 E6.9722
G1 X79.051 Y134.271 E6.9724
G1 X77.973 Y133.661 E7.0136
G1 X77.969 Y133.659 E7.0137
G1 X77.876 Y133.600 E7.0174
G1 X77.872 Y133.597 E7.0175
G1 X76.861 Y132.878 E7.0588
G1 X76.857 Y132.875 E7.0590
G1 X76.772 Y132.808 E7.0626
G1 X76.768 Y132.804 E7.0627
G1 X75.838 Y131.985 E7.1040
G1 X75.834 Y131.982 E7.1041
G1 X75.758 Y131.908 E7.1077
G1 X75.754 Y131.904 E7.1078
G1 X74.911 Y130.995 E7.1491
G1 X74.907 Y130.991 E7.1493
G1 X74.837 Y130.907 E7.1529
G1 X74.834 Y130.903 E7.1531
G1 X74.099 Y129.923 E7.1938
G1 X74.096 Y129.919 E7.1940
G1 X74.050 Y129.853 E7.1967
G1 X74.048 Y129.850 E7.1968
G1 X73.701 Y129.304 E7.2183
G1 X73.699 Y129.300 E7.2184
G1 X73.658 Y129.231 E7.2211
G1 X73.657 Y129.227 E7.2212
G1 X73.086 Y128.157 E7.2616
G1 X73.084 Y128.153 E7.2617
G1 X73.048 Y128.078 E7.2645
G1 X73.046 Y128.074 E7.2646
G1 X72.793 Y127.493 E7.2857
G1 X72.792 Y127.491 E7.2858
G1 X72.773 Y127.444 E7.2875
G1 X72.773 Y127.442 E7.2876
G1 X72.764 Y127.420 E7.2883
G1 X69.912 Y127.420 E7.3832
G1 X69.838 Y127.390 E7.3859
G1 X68.610 Y126.162 E7.4436
G1 X68.580 Y126.088 E7.4463
G1 X68.580 Y93.912 E8.5165
G1 X68.610 Y93.838 E8.5191
G1 X69.838 Y92.610 E8.5769
G1 X69.912 Y92.580 E8.5795
G92 E0
G1 E-2.0000 F3600
G1 Z0.400 F1002
; inner perimeter
G1 X75.944 Y94.350 F3000
G1 Z0.200 F1002
G1 E-0.2000 F3600
G92 E0
G1 X76.118 Y93.888 E0.0164 F788
G1 X76.316 Y93.435 E0.0329
G1 X76.537 Y92.994 E0.0493
G1 X76.780 Y92.563 E0.0657
G1 X77.044 Y92.148 E0.0821
G1 X77.331 Y91.745 E0.0985
G1 X77.637 Y91.357 E0.1150
G1 X77.962 Y90.987 E0.1313
G1 X78.309 Y90.633 E0.1478
G1 X78.670 Y90.296 E0.1643
G1 X79.050 Y89.981 E0.1807
G1 X79.445 Y89.684 E0.1971
G1 X79.854 Y89.409 E0.2135
G1 X80.276 Y89.156 E0.2299
G1 X80.713 Y88.924 E0.2463
G1 X81.161 Y88.714 E0.2628
G1 X81.617 Y88.527 E0.2792
G1 X82.085 Y88.365 E0.2956
G1 X82.558 Y88.227 E0.3120
G1 X83.040 Y88.114 E0.3285
G1 X83.524 Y88.025 E0.3449
G1 X84.015 Y87.962 E0.3613
G1 X84.491 Y87.925 E0.3772
G1 X90.555 Y87.915 E0.5789
G1 X93.330 Y87.928 E0.6712
G1 X126.670 Y87.928 E1.7801
G1 X129.445 Y87.915 E1.8724
G1 X135.509 Y87.925 E2.0741
G1 X135.985 Y87.962 E2.0900
G1 X136.476 Y88.025 E2.1064
G1 X136.960 Y88.114 E2.1228
G1 X137.442 Y88.227 E2.1393
G1 X137.915 Y88.365 E2.1557
G1 X138.383 Y88.527 E2.1721
G1 X138.839 Y88.714 E2.1885
G1 X139.287 Y88.924 E2.2050
G1 X139.724 Y89.156 E2.2214
G1 X140.146 Y89.409 E2.2378
G1 X140.555 Y89.684 E2.2542
G1 X140.951 Y89.982 E2.2706
G1 X141.330 Y90.296 E2.2870
G1 X141.691 Y90.634 E2.3035
G1 X142.038 Y90.987 E2.3200
G1 X142.362 Y91.357 E2.3363
G1 X142.669 Y91.745 E2.3528
G1 X142.956 Y92.148 E2.3692
G1 X143.220 Y92.564 E2.3856
G1 X143.463 Y92.994 E2.4020
G1 X143.684 Y93.435 E2.4184
G1 X143.882 Y93.888 E2.4349
G1 X144.056 Y94.350 E2.4513
G1 X144.206 Y94.820 E2.4677
G1 X144.332 Y95.297 E2.4841
G1 X144.433 Y95.781 E2.5006
G1 X144.510 Y96.270 E2.5170
G1 X144.561 Y96.757 E2.5333
G1 X144.585 Y97.251 E2.5498
G1 X144.572 Y105.833 E2.8352
G1 X144.585 Y122.749 E3.3978
G1 X144.561 Y123.242 E3.4143
G1 X144.510 Y123.730 E3.4306
G1 X144.433 Y124.219 E3.4470
G1 X144.332 Y124.703 E3.4635
G1 X144.206 Y125.180 E3.4799
G1 X144.056 Y125.650 E3.4963
G1 X143.882 Y126.112 E3.5127
G1 X143.684 Y126.565 E3.5292
G1 X143.463 Y127.006 E3.5456
G1 X143.220 Y127.437 E3.5620
G1 X142.956 Y127.852 E3.5784
G1 X142.669 Y128.255 E3.5948
G1 X142.362 Y128.643 E3.6113
G1 X142.038 Y129.012 E3.6276
