; G-Code generated by Simplify3D(R) Version 4.0.1
; Oct 6, 2018 at 9:26:14 AM
; Settings Summary
;   processName,Process1
;   applyToModels,krabicka_vrsek
;   profileName,Anet A8-CommunauteFrancaise
;   profileVersion,2018-08-31 18:45:08
;   baseProfile,
;   printMaterial,ABS
;   printQuality,Medium
;   printExtruders,
;   extruderName,Primary Extruder
;   extruderToolheadNumber,0
;   extruderDiameter,0.4
;   extruderAutoWidth,0
;   extruderWidth,0.4
;   extrusionMultiplier,1
;   extruderUseRetract,1
;   extruderRetractionDistance,2
;   extruderExtraRestartDistance,-0.2
;   extruderRetractionZLift,0.2
;   extruderRetractionSpeed,3600
;   extruderUseCoasting,0
;   extruderCoastingDistance,0.2
;   extruderUseWipe,0
;   extruderWipeDistance,5
;   primaryExtruder,0
;   layerHeight,0.2
;   topSolidLayers,5
;   bottomSolidLayers,5
;   perimeterOutlines,4
;   printPerimetersInsideOut,1
;   startPointOption,2
;   startPointOriginX,0
;   startPointOriginY,500
;   sequentialIslands,0
;   spiralVaseMode,0
;   firstLayerHeightPercentage,100
;   firstLayerWidthPercentage,100
;   firstLayerUnderspeed,0.5
;   useRaft,0
;   raftExtruder,0
;   raftTopLayers,3
;   raftBaseLayers,2
;   raftOffset,3
;   raftSeparationDistance,0.14
;   raftTopInfill,100
;   aboveRaftSpeedMultiplier,0.3
;   useSkirt,1
;   skirtExtruder,0
;   skirtLayers,1
;   skirtOutlines,1
;   skirtOffset,2
;   usePrimePillar,0
;   primePillarExtruder,999
;   primePillarWidth,12
;   primePillarLocation,7
;   primePillarSpeedMultiplier,1
;   useOozeShield,0
;   oozeShieldExtruder,999
;   oozeShieldOffset,2
;   oozeShieldOutlines,1
;   oozeShieldSidewallShape,1
;   oozeShieldSidewallAngle,30
;   oozeShieldSpeedMultiplier,1
;   infillExtruder,0
;   internalInfillPattern,Rectilinear
;   externalInfillPattern,Rectilinear
;   infillPercentage,30
;   outlineOverlapPercentage,20
;   infillExtrusionWidthPercentage,100
;   minInfillLength,2
;   infillLayerInterval,1
;   internalInfillAngles,90,0
;   overlapInternalInfillAngles,0
;   externalInfillAngles,90,0
;   generateSupport,1
;   supportExtruder,0
;   supportInfillPercentage,30
;   supportExtraInflation,0
;   supportBaseLayers,0
;   denseSupportExtruder,0
;   denseSupportLayers,0
;   denseSupportInfillPercentage,60
;   supportLayerInterval,1
;   supportHorizontalPartOffset,0.3
;   supportUpperSeparationLayers,1
;   supportLowerSeparationLayers,1
;   supportType,0
;   supportGridSpacing,3
;   maxOverhangAngle,55
;   supportAngles,0
;   temperatureName,Primary Extruder,Heated Bed
;   temperatureNumber,0,0
;   temperatureSetpointCount,1,1
;   temperatureSetpointLayers,1,1
;   temperatureSetpointTemperatures,230,90
;   temperatureStabilizeAtStartup,1,1
;   temperatureHeatedBed,0,1
;   temperatureRelayBetweenLayers,0,0
;   temperatureRelayBetweenLoops,0,0
;   fanLayers,1
;   fanSpeeds,0
;   blipFanToFullPower,0
;   adjustSpeedForCooling,1
;   minSpeedLayerTime,15
;   minCoolingSpeedSlowdown,20
;   increaseFanForCooling,0
;   minFanLayerTime,45
;   maxCoolingFanSpeed,100
;   increaseFanForBridging,0
;   bridgingFanSpeed,100
;   use5D,1
;   relativeEdistances,0
;   allowEaxisZeroing,1
;   independentExtruderAxes,0
;   includeM10123,0
;   stickySupport,1
;   applyToolheadOffsets,0
;   gcodeXoffset,0
;   gcodeYoffset,0
;   gcodeZoffset,0
;   overrideMachineDefinition,1
;   machineTypeOverride,0
;   strokeXoverride,220
;   strokeYoverride,220
;   strokeZoverride,240
;   originOffsetXoverride,0
;   originOffsetYoverride,0
;   originOffsetZoverride,0
;   homeXdirOverride,-1
;   homeYdirOverride,-1
;   homeZdirOverride,-1
;   flipXoverride,1
;   flipYoverride,-1
;   flipZoverride,1
;   toolheadOffsets,0,0|0,0|0,0|0,0|0,0|0,0
;   overrideFirmwareConfiguration,1
;   firmwareTypeOverride,RepRap (Marlin/Repetier/Sprinter)
;   GPXconfigOverride,r2
;   baudRateOverride,115200
;   overridePrinterModels,1
;   printerModelsOverride
;   startingGcode,G28 ; home all axes,;G29,G1 X0 Y10 Z0.2 F3000 ; get ready to prime,G92 E0 ; reset extrusion distance,G1 X90 E20 Z-0.60 F600 ; prime nozzle,M117 Impression en cours  !!
;   layerChangeGcode,
;   retractionGcode,
;   toolChangeGcode,
;   endingGcode,M104 S0 ; turn off extruder,M140 S0 ; turn off bed,G1 X0 Y200 F1000 ; prepare for part removal,M84 ; disable motors,M117 c'est fini !!
;   exportFileFormat,gcode
;   celebration,0
;   celebrationSong,Star Wars
;   postProcessing,|;gcode:||; Use Simplify3D Gcode comments to display info for each layer||;{REPLACE "; layer" "M117 Layer"} ; Replace Simplify3D layer comments with display commands|;{REPLACE " Z = " " Z="} ; Delete spaces for more display space||; For filament change at the beginning of a particular layer:||; {REPLACE "\nM117 Layer <#>, Z=" "\nM600\nM117 Layer <#>, Z="}||; Forward toolpath file to Octoprint when saved:|;curl -k -H "X-Api-Key:95CF4E9979984CF1ACDD88DF2F202262" -F "select=true" -F "print=true" -F "file=@[output_filepath]" "http://192.168.1.126/api/files/local"
;   defaultSpeed,2100
;   outlineUnderspeed,0.5
;   solidInfillUnderspeed,0.8
;   supportUnderspeed,0.8
;   rapidXYspeed,3000
;   rapidZspeed,1002
;   minBridgingArea,50
;   bridgingExtraInflation,0
;   bridgingExtrusionMultiplier,1
;   bridgingSpeedMultiplier,1
;   useFixedBridgingAngle,0
;   fixedBridgingAngle,0
;   applyBridgingToPerimeters,0
;   filamentDiameters,1.75|1.75|1.75|1.75|1.75|1.75
;   filamentPricesPerKg,46|46|46|46|46|46
;   filamentDensities,1.25|1.25|1.25|1.25|1.25|1.25
;   useMinPrintHeight,0
;   minPrintHeight,0
;   useMaxPrintHeight,0
;   maxPrintHeight,0
;   useDiaphragm,0
;   diaphragmLayerInterval,20
;   robustSlicing,1
;   mergeAllIntoSolid,0
;   onlyRetractWhenCrossingOutline,1
;   retractBetweenLayers,1
;   useRetractionMinTravel,0
;   retractionMinTravel,3
;   retractWhileWiping,0
;   onlyWipeOutlines,1
;   avoidCrossingOutline,0
;   maxMovementDetourFactor,3
;   toolChangeRetractionDistance,12
;   toolChangeExtraRestartDistance,-0.5
;   toolChangeRetractionSpeed,600
;   externalThinWallType,0
;   internalThinWallType,2
;   thinWallAllowedOverlapPercentage,10
;   singleExtrusionMinLength,1
;   singleExtrusionMinPrintingWidthPercentage,50
;   singleExtrusionMaxPrintingWidthPercentage,200
;   singleExtrusionEndpointExtension,0.2
;   horizontalSizeCompensation,0
G90
M82
G28 ; home all axes
M106 S0
M140 S90
M190 S90
M104 S230 T0
M109 S230 T0
;G29
G1 X0 Y10 Z0.2 F3000 ; get ready to prime
G92 E0 ; reset extrusion distance
G1 X90 E20 Z-0.60 F600 ; prime nozzle
M117 Impression en cours  !!
G92 E0
G1 E-2.0000 F3600
G1 Z0.400 F1002
; process Process1
; layer 1, Z = 0.200
T0
; tool H0.200 W0.400
; skirt
G1 X72.838 Y82.110 F3000
G1 Z0.200 F1002
G1 E-0.2000 F1080
G92 E0
G1 X72.912 Y82.080 E0.0026 F1050
G1 X77.580 Y82.080 E0.1579
G1 X77.580 Y80.412 E0.2134
G1 X77.610 Y80.338 E0.2160
G1 X78.838 Y79.110 E0.2738
G1 X78.912 Y79.080 E0.2764
G1 X141.088 Y79.080 E2.3444
G1 X141.162 Y79.110 E2.3471
G1 X142.390 Y80.338 E2.4048
G1 X142.420 Y80.412 E2.4075
G1 X142.420 Y82.080 E2.4630
G1 X147.088 Y82.080 E2.6182
G1 X147.162 Y82.110 E2.6209
G1 X148.390 Y83.338 E2.6786
G1 X148.420 Y83.412 E2.6813
G1 X148.420 Y88.588 E2.8535
G1 X148.390 Y88.662 E2.8561
G1 X147.791 Y89.260 E2.8842
G1 X148.162 Y89.834 E2.9070
G1 X148.165 Y89.839 E2.9071
G1 X148.217 Y89.929 E2.9106
G1 X148.220 Y89.934 E2.9108
G1 X148.860 Y91.183 E2.9575
G1 X148.862 Y91.188 E2.9577
G1 X148.906 Y91.283 E2.9611
G1 X148.907 Y91.288 E2.9613
G1 X149.420 Y92.595 E3.0080
G1 X149.422 Y92.599 E3.0082
G1 X149.455 Y92.698 E3.0117
G1 X149.457 Y92.703 E3.0118
G1 X149.837 Y94.055 E3.0585
G1 X149.838 Y94.059 E3.0587
G1 X149.862 Y94.162 E3.0622
G1 X149.863 Y94.166 E3.0623
G1 X150.104 Y95.536 E3.1086
G1 X150.105 Y95.540 E3.1087
G1 X150.115 Y95.618 E3.1113
G1 X150.116 Y95.621 E3.1114
G1 X150.188 Y96.340 E3.1355
G1 X150.188 Y96.343 E3.1356
G1 X150.193 Y96.408 E3.1377
G1 X150.193 Y96.411 E3.1378
G1 X150.231 Y97.437 E3.1720
G1 X150.231 Y97.439 E3.1721
G1 X150.232 Y97.478 E3.1733
G1 X150.232 Y97.480 E3.1734
G1 X150.239 Y119.903 E3.9192
G1 X150.239 Y119.908 E3.9194
G1 X150.228 Y122.871 E4.0179
G1 X150.228 Y122.874 E4.0180
G1 X150.225 Y122.949 E4.0205
G1 X150.225 Y122.952 E4.0206
G1 X150.122 Y124.324 E4.0664
G1 X150.121 Y124.328 E4.0665
G1 X150.113 Y124.406 E4.0691
G1 X150.112 Y124.410 E4.0692
G1 X150.003 Y125.130 E4.0935
G1 X150.003 Y125.133 E4.0936
G1 X149.988 Y125.211 E4.0962
G1 X149.988 Y125.214 E4.0963
G1 X149.678 Y126.570 E4.1426
G1 X149.677 Y126.575 E4.1427
G1 X149.648 Y126.676 E4.1462
G1 X149.647 Y126.681 E4.1464
G1 X149.204 Y127.999 E4.1926
G1 X149.203 Y128.003 E4.1928
G1 X149.175 Y128.076 E4.1954
G1 X149.174 Y128.079 E4.1955
G1 X148.891 Y128.751 E4.2197
G1 X148.889 Y128.754 E4.2199
G1 X148.856 Y128.825 E4.2225
G1 X148.854 Y128.829 E4.2226
G1 X148.220 Y130.066 E4.2689
G1 X148.217 Y130.071 E4.2690
G1 X148.165 Y130.161 E4.2725
G1 X148.162 Y130.166 E4.2727
G1 X147.791 Y130.740 E4.2954
G1 X148.390 Y131.338 E4.3236
G1 X148.420 Y131.412 E4.3262
G1 X148.420 Y136.588 E4.4984
G1 X148.390 Y136.662 E4.5010
G1 X147.162 Y137.890 E4.5588
G1 X147.088 Y137.920 E4.5614
G1 X142.420 Y137.920 E4.7167
G1 X142.420 Y139.588 E4.7722
G1 X142.390 Y139.662 E4.7748
G1 X141.162 Y140.890 E4.8326
G1 X141.088 Y140.920 E4.8352
G1 X78.912 Y140.920 E6.9032
G1 X78.838 Y140.890 E6.9059
G1 X77.610 Y139.662 E6.9636
G1 X77.580 Y139.588 E6.9663
G1 X77.580 Y137.920 E7.0217
G1 X72.912 Y137.920 E7.1770
G1 X72.838 Y137.890 E7.1796
G1 X71.610 Y136.662 E7.2374
G1 X71.580 Y136.588 E7.2400
G1 X71.580 Y131.412 E7.4122
G1 X71.610 Y131.338 E7.4149
G1 X72.209 Y130.740 E7.4430
G1 X71.838 Y130.166 E7.4657
G1 X71.835 Y130.161 E7.4659
G1 X71.783 Y130.071 E7.4694
G1 X71.780 Y130.066 E7.4696
G1 X71.140 Y128.817 E7.5163
G1 X71.138 Y128.812 E7.5164
G1 X71.094 Y128.717 E7.5199
G1 X71.093 Y128.712 E7.5201
G1 X70.580 Y127.406 E7.5668
G1 X70.578 Y127.401 E7.5669
G1 X70.545 Y127.301 E7.5704
G1 X70.543 Y127.297 E7.5706
G1 X70.163 Y125.945 E7.6173
G1 X70.162 Y125.940 E7.6174
G1 X70.138 Y125.838 E7.6209
G1 X70.137 Y125.833 E7.6211
G1 X69.896 Y124.464 E7.6673
G1 X69.895 Y124.460 E7.6675
G1 X69.884 Y124.382 E7.6701
G1 X69.884 Y124.379 E7.6702
G1 X69.812 Y123.660 E7.6942
G1 X69.812 Y123.657 E7.6943
G1 X69.807 Y123.592 E7.6965
G1 X69.807 Y123.589 E7.6966
G1 X69.769 Y122.563 E7.7308
G1 X69.769 Y122.561 E7.7308
G1 X69.768 Y122.521 E7.7321
G1 X69.768 Y122.519 E7.7322
G1 X69.772 Y97.136 E8.5765
G1 X69.772 Y97.132 E8.5766
G1 X69.775 Y97.054 E8.5792
G1 X69.775 Y97.050 E8.5793
G1 X69.879 Y95.663 E8.6256
G1 X69.880 Y95.658 E8.6257
G1 X69.893 Y95.554 E8.6292
G1 X69.894 Y95.549 E8.6294
G1 X70.137 Y94.167 E8.6761
G1 X70.138 Y94.162 E8.6763
G1 X70.162 Y94.060 E8.6797
G1 X70.163 Y94.055 E8.6799
G1 X70.543 Y92.703 E8.7266
G1 X70.545 Y92.698 E8.7268
G1 X70.578 Y92.599 E8.7302
G1 X70.580 Y92.594 E8.7304
G1 X71.093 Y91.288 E8.7771
G1 X71.094 Y91.283 E8.7773
G1 X71.138 Y91.188 E8.7808
G1 X71.140 Y91.183 E8.7809
G1 X71.780 Y89.934 E8.8276
G1 X71.783 Y89.929 E8.8278
G1 X71.835 Y89.839 E8.8313
G1 X71.838 Y89.834 E8.8314
G1 X72.209 Y89.260 E8.8542
G1 X71.610 Y88.662 E8.8823
G1 X71.580 Y88.588 E8.8850
G1 X71.580 Y83.412 E9.0571
G1 X71.610 Y83.338 E9.0598
G1 X72.838 Y82.110 E9.1175
G92 E0
G1 E-2.0000 F3600
G1 Z0.400 F1002
; inner perimeter
G1 X77.977 Y88.228 F3000
G1 Z0.200 F1002
G1 E-0.2000 F3600
G92 E0
G1 X78.448 Y87.890 E0.0193 F788
G1 X78.935 Y87.575 E0.0386
G1 X79.437 Y87.285 E0.0579
G1 X79.953 Y87.020 E0.0772
G1 X80.482 Y86.782 E0.0965
G1 X81.022 Y86.570 E0.1157
G1 X81.572 Y86.385 E0.1350
G1 X82.130 Y86.228 E0.1543
G1 X82.695 Y86.099 E0.1736
G1 X83.266 Y85.998 E0.1929
G1 X83.842 Y85.926 E0.2122
G1 X84.420 Y85.883 E0.2315
G1 X85.019 Y85.868 E0.2514
G1 X88.119 Y85.861 E0.3545
G1 X94.998 Y85.881 E0.5833
G1 X134.983 Y85.868 E1.9132
G1 X135.580 Y85.883 E1.9331
G1 X136.158 Y85.926 E1.9523
G1 X136.734 Y85.998 E1.9716
G1 X137.305 Y86.099 E1.9909
G1 X137.870 Y86.228 E2.0102
G1 X138.428 Y86.385 E2.0295
G1 X138.978 Y86.570 E2.0488
G1 X139.518 Y86.782 E2.0681
G1 X140.047 Y87.020 E2.0874
G1 X140.563 Y87.285 E2.1067
G1 X141.065 Y87.575 E2.1260
G1 X141.552 Y87.890 E2.1452
G1 X142.023 Y88.228 E2.1645
G1 X142.477 Y88.590 E2.1838
G1 X142.911 Y88.973 E2.2031
G1 X143.327 Y89.379 E2.2224
G1 X143.721 Y89.804 E2.2417
G1 X144.094 Y90.248 E2.2610
G1 X144.444 Y90.710 E2.2803
G1 X144.771 Y91.189 E2.2996
G1 X145.073 Y91.684 E2.3189
G1 X145.351 Y92.194 E2.3381
G1 X145.602 Y92.716 E2.3574
G1 X145.827 Y93.250 E2.3767
G1 X146.026 Y93.795 E2.3960
G1 X146.197 Y94.350 E2.4153
G1 X146.340 Y94.912 E2.4346
G1 X146.455 Y95.480 E2.4539
G1 X146.541 Y96.054 E2.4732
G1 X146.598 Y96.622 E2.4922
G1 X146.632 Y97.528 E2.5223
G1 X146.639 Y100.097 E2.6078
G1 X146.619 Y105.831 E2.7985
G1 X146.619 Y114.169 E3.0758
G1 X146.639 Y119.901 E3.2665
G1 X146.628 Y122.787 E3.3625
G1 X146.599 Y123.369 E3.3818
G1 X146.541 Y123.946 E3.4011
G1 X146.455 Y124.520 E3.4204
G1 X146.340 Y125.088 E3.4397
G1 X146.197 Y125.650 E3.4590
G1 X146.026 Y126.205 E3.4783
G1 X145.827 Y126.749 E3.4976
G1 X145.602 Y127.284 E3.5169
G1 X145.351 Y127.806 E3.5362
G1 X145.073 Y128.316 E3.5554
G1 X144.771 Y128.811 E3.5747
G1 X144.444 Y129.290 E3.5940
G1 X144.094 Y129.752 E3.6133
G1 X143.721 Y130.196 E3.6326
G1 X143.327 Y130.622 E3.6519
G1 X142.911 Y131.027 E3.6712
G1 X142.477 Y131.410 E3.6905
G1 X142.023 Y131.772 E3.7098
G1 X141.552 Y132.110 E3.7291
G1 X141.065 Y132.425 E3.7483
G1 X140.563 Y132.715 E3.7676
G1 X140.047 Y132.980 E3.7869
G1 X139.518 Y133.218 E3.8062
G1 X138.978 Y133.430 E3.8255
G1 X138.429 Y133.615 E3.8448
G1 X137.870 Y133.772 E3.8641
G1 X137.305 Y133.901 E3.8834
G1 X136.734 Y134.002 E3.9027
G1 X136.158 Y134.074 E3.9219
G1 X135.580 Y134.117 E3.9412
G1 X134.981 Y134.132 E3.9612
G1 X131.881 Y134.139 E4.0643
G1 X125.002 Y134.119 E4.2931
G1 X85.017 Y134.132 E5.6230
G1 X84.420 Y134.117 E5.6428
G1 X83.842 Y134.074 E5.6621
G1 X83.266 Y134.002 E5.6814
G1 X82.695 Y133.901 E5.7007
G1 X82.130 Y133.772 E5.7200
G1 X81.571 Y133.615 E5.7393
G1 X81.022 Y133.430 E5.7586
G1 X80.482 Y133.218 E5.7778
G1 X79.953 Y132.980 E5.7971
G1 X79.437 Y132.715 E5.8164
G1 X78.935 Y132.425 E5.8357
G1 X78.448 Y132.110 E5.8550
G1 X77.977 Y131.772 E5.8743
G1 X77.523 Y131.410 E5.8936
G1 X77.089 Y131.027 E5.9129
G1 X76.673 Y130.622 E5.9322
G1 X76.279 Y130.196 E5.9515
G1 X75.906 Y129.752 E5.9707
G1 X75.556 Y129.290 E5.9900
G1 X75.229 Y128.811 E6.0093
G1 X74.927 Y128.316 E6.0286
G1 X74.649 Y127.806 E6.0479
G1 X74.398 Y127.284 E6.0672
G1 X74.173 Y126.749 E6.0865
G1 X73.974 Y126.205 E6.1058
G1 X73.803 Y125.650 E6.1251
G1 X73.660 Y125.088 E6.1444
G1 X73.545 Y124.520 E6.1636
G1 X73.459 Y123.946 E6.1829
G1 X73.402 Y123.378 E6.2019
G1 X73.368 Y122.472 E6.2321
G1 X73.361 Y119.903 E6.3175
G1 X73.381 Y114.169 E6.5083
G1 X73.381 Y105.831 E6.7856
G1 X73.361 Y100.098 E6.9762
G1 X73.372 Y97.213 E7.0722
G1 X73.401 Y96.631 E7.0916
G1 X73.459 Y96.054 E7.1109
G1 X73.545 Y95.480 E7.1302
G1 X73.660 Y94.912 E7.1495
G1 X73.803 Y94.350 E7.1687
G1 X73.974 Y93.795 E7.1880
G1 X74.172 Y93.251 E7.2073
G1 X74.398 Y92.716 E7.2266
G1 X74.649 Y92.194 E7.2459
G1 X74.927 Y91.684 E7.2652
G1 X75.229 Y91.189 E7.2845
G1 X75.556 Y90.710 E7.3038
G1 X75.906 Y90.248 E7.3231
G1 X76.279 Y89.803 E7.3424
G1 X76.673 Y89.378 E7.3616
G1 X77.089 Y88.974 E7.3809
G1 X77.523 Y88.590 E7.4002
G1 X77.977 Y88.228 E7.4195
G1 X77.735 Y87.909 F3000
G92 E0
G1 X78.222 Y87.559 E0.0200 F788
G1 X78.726 Y87.234 E0.0399
G1 X79.246 Y86.934 E0.0599
G1 X79.780 Y86.660 E0.0798
G1 X80.326 Y86.413 E0.0998
G1 X80.885 Y86.194 E0.1197
G1 X81.454 Y86.003 E0.1397
G1 X82.031 Y85.840 E0.1596
G1 X82.616 Y85.707 E0.1796
G1 X83.207 Y85.603 E0.1995
G1 X83.802 Y85.528 E0.2195
G1 X84.400 Y85.483 E0.2394
G1 X85.013 Y85.468 E0.2598
G1 X88.117 Y85.461 E0.3631
G1 X94.999 Y85.481 E0.5920
G1 X134.988 Y85.468 E1.9220
G1 X135.600 Y85.483 E1.9424
G1 X136.198 Y85.528 E1.9623
G1 X136.793 Y85.603 E1.9823
G1 X137.384 Y85.707 E2.0022
G1 X137.969 Y85.840 E2.0222
G1 X138.546 Y86.003 E2.0421
G1 X139.115 Y86.194 E2.0621
G1 X139.673 Y86.413 E2.0820
G1 X140.220 Y86.660 E2.1020
G1 X140.754 Y86.934 E2.1219
G1 X141.274 Y87.234 E2.1419
G1 X141.778 Y87.559 E2.1618
G1 X142.265 Y87.909 E2.1818
