; G-Code generated by Simplify3D(R) Version 4.0.1
; Aug 9, 2018 at 4:35:05 PM
; Settings Summary
;   processName,Process1
;   applyToModels,Boutons_frigo_carrier_Francois
;   profileName,Filament ABS (modified)
;   profileVersion,2018-05-14 16:22:39
;   baseProfile,Default (modified)
;   printMaterial,ABS
;   printQuality,Medium
;   printExtruders,
;   extruderName,Primary Extruder
;   extruderToolheadNumber,0
;   extruderDiameter,0.4
;   extruderAutoWidth,1
;   extruderWidth,0.48
;   extrusionMultiplier,1
;   extruderUseRetract,1
;   extruderRetractionDistance,3
;   extruderExtraRestartDistance,0
;   extruderRetractionZLift,0
;   extruderRetractionSpeed,2400
;   extruderUseCoasting,0
;   extruderCoastingDistance,0.2
;   extruderUseWipe,0
;   extruderWipeDistance,50
;   primaryExtruder,0
;   layerHeight,0.2
;   topSolidLayers,5
;   bottomSolidLayers,5
;   perimeterOutlines,4
;   printPerimetersInsideOut,1
;   startPointOption,1
;   startPointOriginX,0
;   startPointOriginY,0
;   sequentialIslands,0
;   spiralVaseMode,0
;   firstLayerHeightPercentage,200
;   firstLayerWidthPercentage,100
;   firstLayerUnderspeed,0.5
;   useRaft,0
;   raftExtruder,0
;   raftTopLayers,3
;   raftBaseLayers,2
;   raftOffset,3
;   raftSeparationDistance,0.14
;   raftTopInfill,100
;   aboveRaftSpeedMultiplier,0.3
;   useSkirt,1
;   skirtExtruder,0
;   skirtLayers,2
;   skirtOutlines,4
;   skirtOffset,4
;   usePrimePillar,0
;   primePillarExtruder,999
;   primePillarWidth,12
;   primePillarLocation,7
;   primePillarSpeedMultiplier,1
;   useOozeShield,0
;   oozeShieldExtruder,999
;   oozeShieldOffset,2
;   oozeShieldOutlines,1
;   oozeShieldSidewallShape,1
;   oozeShieldSidewallAngle,30
;   oozeShieldSpeedMultiplier,1
;   infillExtruder,0
;   internalInfillPattern,Full Honeycomb
;   externalInfillPattern,Rectilinear
;   infillPercentage,30
;   outlineOverlapPercentage,25
;   infillExtrusionWidthPercentage,115
;   minInfillLength,3
;   infillLayerInterval,1
;   internalInfillAngles,0,120,-120
;   overlapInternalInfillAngles,0
;   externalInfillAngles,45,-45
;   generateSupport,0
;   supportExtruder,0
;   supportInfillPercentage,30
;   supportExtraInflation,0
;   supportBaseLayers,0
;   denseSupportExtruder,0
;   denseSupportLayers,0
;   denseSupportInfillPercentage,70
;   supportLayerInterval,1
;   supportHorizontalPartOffset,0.3
;   supportUpperSeparationLayers,3
;   supportLowerSeparationLayers,3
;   supportType,0
;   supportGridSpacing,2
;   maxOverhangAngle,25
;   supportAngles,0
;   temperatureName,Premier extrudeur,Lit chauffant
;   temperatureNumber,0,0
;   temperatureSetpointCount,1,1
;   temperatureSetpointLayers,1,1
;   temperatureSetpointTemperatures,240,80
;   temperatureStabilizeAtStartup,1,1
;   temperatureHeatedBed,0,1
;   temperatureRelayBetweenLayers,0,0
;   temperatureRelayBetweenLoops,0,0
;   fanLayers,1
;   fanSpeeds,0
;   blipFanToFullPower,0
;   adjustSpeedForCooling,1
;   minSpeedLayerTime,15
;   minCoolingSpeedSlowdown,20
;   increaseFanForCooling,0
;   minFanLayerTime,45
;   maxCoolingFanSpeed,100
;   increaseFanForBridging,0
;   bridgingFanSpeed,100
;   use5D,1
;   relativeEdistances,0
;   allowEaxisZeroing,1
;   independentExtruderAxes,0
;   includeM10123,0
;   stickySupport,1
;   applyToolheadOffsets,0
;   gcodeXoffset,0
;   gcodeYoffset,0
;   gcodeZoffset,-0.58
;   overrideMachineDefinition,0
;   machineTypeOverride,0
;   strokeXoverride,200
;   strokeYoverride,200
;   strokeZoverride,200
;   originOffsetXoverride,0
;   originOffsetYoverride,0
;   originOffsetZoverride,0
;   homeXdirOverride,-1
;   homeYdirOverride,-1
;   homeZdirOverride,-1
;   flipXoverride,1
;   flipYoverride,-1
;   flipZoverride,1
;   toolheadOffsets,0,0|0,0|0,0|0,0|0,0|0,0
;   overrideFirmwareConfiguration,0
;   firmwareTypeOverride,RepRap (Marlin/Repetier/Sprinter)
;   GPXconfigOverride,r2
;   baudRateOverride,115200
;   overridePrinterModels,0
;   printerModelsOverride
;   startingGcode,G28 X0 Y0 Z0;deplacer X / Y a des butees min,G1 Z15.0 {travel_speed} ;On deplace l'axe X de 15mm,G1 X20 Y10 Z0.2  F3000 ; preparation de l'impression,G92 E0; mettre la longueur de filament extrude a 0,G1 X70 E20 Z-0 F600 ; extrusion de 50 mm de filament,G92 E0; mettre la longueur de filament extrude a 0,G1 F{travel_speed} ; assigne la vitesse de deplacement,M900 K50           ; Initialisation du facteur K
;   layerChangeGcode,
;   retractionGcode,
;   toolChangeGcode,
;   endingGcode,M104 S0 ;on eteint le chauffage de l'extrudeur,M140 S0 ; Nous éteignons le lit chauffant,M104 S0 ; Nous éteigons la buse,G91     ; Positionnement relatif,G1 E-1 F300 ; Nous rétractons un peu le filament avant de lever la buse,afin de réduire la pression,G28 X0 F5000        ; Nous déplacons l'axe à la position de départ,G1 Y210 F5000       ; Nous avançons le plateau pour récupérer l'objet,M84,G90     ; Positionnement absolu,M117 Impression terminée !,M83 ; Nous passons en mode relatif,;End of Gcode
;   exportFileFormat,gcode
;   celebration,0
;   celebrationSong,Random Song
;   postProcessing,
;   defaultSpeed,3600
;   outlineUnderspeed,0.4
;   solidInfillUnderspeed,0.8
;   supportUnderspeed,0.8
;   rapidXYspeed,4200
;   rapidZspeed,1002
;   minBridgingArea,50
;   bridgingExtraInflation,0
;   bridgingExtrusionMultiplier,1
;   bridgingSpeedMultiplier,1
;   useFixedBridgingAngle,0
;   fixedBridgingAngle,0
;   applyBridgingToPerimeters,0
;   filamentDiameters,1.75|1.75|1.75|1.75|1.75|1.75
;   filamentPricesPerKg,20|25|25|25|25|25
;   filamentDensities,1.25|1.25|1.25|1.25|1.25|1.25
;   useMinPrintHeight,0
;   minPrintHeight,0
;   useMaxPrintHeight,0
;   maxPrintHeight,0
;   useDiaphragm,0
;   diaphragmLayerInterval,20
;   robustSlicing,1
;   mergeAllIntoSolid,0
;   onlyRetractWhenCrossingOutline,1
;   retractBetweenLayers,1
;   useRetractionMinTravel,0
;   retractionMinTravel,3
;   retractWhileWiping,1
;   onlyWipeOutlines,1
;   avoidCrossingOutline,0
;   maxMovementDetourFactor,3
;   toolChangeRetractionDistance,12
;   toolChangeExtraRestartDistance,-0.5
;   toolChangeRetractionSpeed,600
;   externalThinWallType,0
;   internalThinWallType,2
;   thinWallAllowedOverlapPercentage,30
;   singleExtrusionMinLength,1
;   singleExtrusionMinPrintingWidthPercentage,50
;   singleExtrusionMaxPrintingWidthPercentage,200
;   singleExtrusionEndpointExtension,0.2
;   horizontalSizeCompensation,0
G90
M82
G28 X0 Y0 Z0;deplacer X / Y a des butees min
M190 S80
M109 S230 T0
G1 Z15.0 {travel_speed} ;On deplace l'axe X de 15mm
G1 X20 Y10 Z0.2  F3000 ; preparation de l'impression
G92 E0; mettre la longueur de filament extrude a 0
G1 X70 E20 Z-0 F600 ; extrusion de 50 mm de filament
G92 E0; mettre la longueur de filament extrude a 0
G1 F{travel_speed} ; assigne la vitesse de deplacement
M900 K50           ; Initialisation du facteur K
G92 E0
G1 E-3.0000 F2400
G1 Z-0.180 F1002
; process Process1
; layer 1, Z = 0.400
T0
; tool H0.400 W0.480
; skirt
G1 X90.343 Y95.085 F4200
G1 E0.0000 F720
G92 E0
G1 X95.086 Y90.343 E0.5354 F1800
G1 X95.186 Y90.257 E0.5459
G1 X95.802 Y89.810 E0.6067
G1 X95.915 Y89.741 E0.6172
G1 X101.889 Y86.696 E1.1525
G1 X102.011 Y86.645 E1.1630
G1 X102.736 Y86.410 E1.2238
G1 X102.864 Y86.379 E1.2344
G1 X109.487 Y85.330 E1.7697
G1 X109.619 Y85.319 E1.7802
G1 X110.381 Y85.319 E1.8410
G1 X110.512 Y85.330 E1.8516
G1 X117.137 Y86.379 E2.3869
G1 X117.265 Y86.410 E2.3975
G1 X117.990 Y86.645 E2.4583
G1 X118.112 Y86.696 E2.4688
G1 X124.086 Y89.741 E3.0041
G1 X124.199 Y89.810 E3.0146
G1 X124.815 Y90.257 E3.0754
G1 X124.915 Y90.343 E3.0860
G1 X129.658 Y95.085 E3.6213
G1 X129.743 Y95.186 E3.6319
G1 X130.191 Y95.802 E3.6926
G1 X130.260 Y95.914 E3.7032
G1 X133.305 Y101.889 E4.2384
G1 X133.355 Y102.011 E4.2490
G1 X133.591 Y102.735 E4.3098
G1 X133.621 Y102.864 E4.3203
G1 X134.671 Y109.487 E4.8556
G1 X134.681 Y109.619 E4.8662
G1 X134.681 Y110.380 E4.9270
G1 X134.671 Y110.512 E4.9375
G1 X133.621 Y117.136 E5.4729
G1 X133.591 Y117.265 E5.4834
G1 X133.355 Y117.989 E5.5442
G1 X133.305 Y118.111 E5.5548
G1 X130.260 Y124.086 E6.0901
G1 X130.191 Y124.198 E6.1006
G1 X129.743 Y124.814 E6.1614
G1 X129.658 Y124.915 E6.1719
G1 X124.915 Y129.657 E6.7073
G1 X124.815 Y129.743 E6.7178
G1 X124.199 Y130.190 E6.7786
G1 X124.086 Y130.259 E6.7891
G1 X118.112 Y133.304 E7.3244
G1 X117.990 Y133.355 E7.3349
G1 X117.265 Y133.590 E7.3958
G1 X117.137 Y133.621 E7.4063
G1 X110.512 Y134.670 E7.9417
G1 X110.381 Y134.680 E7.9522
G1 X109.619 Y134.680 E8.0130
G1 X109.487 Y134.670 E8.0236
G1 X102.864 Y133.621 E8.5589
G1 X102.736 Y133.590 E8.5694
G1 X102.011 Y133.355 E8.6302
G1 X101.889 Y133.304 E8.6407
G1 X95.915 Y130.259 E9.1760
G1 X95.802 Y130.190 E9.1866
G1 X95.186 Y129.743 E9.2473
G1 X95.086 Y129.657 E9.2579
G1 X90.343 Y124.915 E9.7932
G1 X90.258 Y124.814 E9.8038
G1 X89.810 Y124.198 E9.8646
G1 X89.741 Y124.086 E9.8751
G1 X86.696 Y118.111 E10.4104
G1 X86.646 Y117.989 E10.4209
G1 X86.410 Y117.265 E10.4817
G1 X86.379 Y117.136 E10.4923
G1 X85.330 Y110.512 E11.0276
G1 X85.320 Y110.380 E11.0382
G1 X85.320 Y109.619 E11.0990
G1 X85.330 Y109.487 E11.1095
G1 X86.380 Y102.864 E11.6448
G1 X86.410 Y102.735 E11.6554
G1 X86.646 Y102.011 E11.7162
G1 X86.696 Y101.889 E11.7267
G1 X89.741 Y95.914 E12.2620
G1 X89.810 Y95.802 E12.2725
G1 X90.258 Y95.186 E12.3333
G1 X90.343 Y95.085 E12.3438
G1 X90.696 Y95.411 F4200
G92 E0
G1 X95.412 Y90.696 E0.5324 F1800
G1 X95.484 Y90.634 E0.5399
G1 X96.069 Y90.209 E0.5976
G1 X96.149 Y90.160 E0.6052
G1 X102.090 Y87.132 E1.1374
G1 X102.178 Y87.096 E1.1450
G1 X102.866 Y86.872 E1.2028
G1 X102.958 Y86.850 E1.2103
G1 X109.544 Y85.807 E1.7426
G1 X109.638 Y85.799 E1.7501
G1 X110.362 Y85.799 E1.8079
G1 X110.456 Y85.807 E1.8154
G1 X117.043 Y86.850 E2.3478
G1 X117.135 Y86.872 E2.3553
G1 X117.823 Y87.096 E2.4131
G1 X117.911 Y87.132 E2.4207
G1 X123.852 Y90.160 E2.9529
G1 X123.932 Y90.209 E2.9604
G1 X124.517 Y90.634 E3.0182
G1 X124.589 Y90.696 E3.0257
G1 X129.305 Y95.411 E3.5581
G1 X129.366 Y95.483 E3.5656
G1 X129.791 Y96.069 E3.6234
G1 X129.841 Y96.149 E3.6309
G1 X132.868 Y102.090 E4.1632
G1 X132.905 Y102.177 E4.1707
G1 X133.128 Y102.866 E4.2285
G1 X133.150 Y102.957 E4.2360
G1 X134.194 Y109.543 E4.7683
G1 X134.201 Y109.637 E4.7758
G1 X134.201 Y110.361 E4.8336
G1 X134.194 Y110.455 E4.8412
G1 X133.150 Y117.043 E5.3735
G1 X133.128 Y117.134 E5.3811
G1 X132.905 Y117.823 E5.4389
G1 X132.868 Y117.910 E5.4464
G1 X129.841 Y123.851 E5.9787
G1 X129.791 Y123.931 E5.9862
G1 X129.366 Y124.517 E6.0440
G1 X129.305 Y124.589 E6.0515
G1 X124.589 Y129.304 E6.5838
G1 X124.517 Y129.366 E6.5914
G1 X123.932 Y129.791 E6.6491
G1 X123.852 Y129.840 E6.6567
G1 X117.911 Y132.868 E7.1889
G1 X117.823 Y132.904 E7.1965
G1 X117.135 Y133.128 E7.2543
G1 X117.043 Y133.150 E7.2618
G1 X110.456 Y134.193 E7.7941
G1 X110.362 Y134.200 E7.8017
G1 X109.638 Y134.200 E7.8595
G1 X109.544 Y134.193 E7.8670
G1 X102.958 Y133.150 E8.3993
G1 X102.866 Y133.128 E8.4068
G1 X102.178 Y132.904 E8.4646
G1 X102.090 Y132.868 E8.4721
G1 X96.149 Y129.840 E9.0044
G1 X96.069 Y129.791 E9.0119
G1 X95.484 Y129.366 E9.0697
G1 X95.412 Y129.304 E9.0772
G1 X90.696 Y124.589 E9.6096
G1 X90.635 Y124.517 E9.6171
G1 X90.210 Y123.931 E9.6749
G1 X90.160 Y123.851 E9.6824
G1 X87.133 Y117.910 E10.2147
G1 X87.096 Y117.823 E10.2222
G1 X86.873 Y117.134 E10.2800
G1 X86.851 Y117.043 E10.2875
G1 X85.807 Y110.455 E10.8199
G1 X85.800 Y110.361 E10.8274
G1 X85.800 Y109.637 E10.8852
G1 X85.807 Y109.543 E10.8927
G1 X86.851 Y102.957 E11.4250
G1 X86.873 Y102.866 E11.4325
G1 X87.096 Y102.177 E11.4903
G1 X87.133 Y102.090 E11.4979
G1 X90.160 Y96.149 E12.0301
G1 X90.210 Y96.069 E12.0377
G1 X90.635 Y95.483 E12.0954
G1 X90.696 Y95.411 E12.1030
G1 X91.049 Y95.737 F4200
G92 E0
G1 X95.738 Y91.048 E0.5293 F1800
G1 X95.781 Y91.012 E0.5339
G1 X96.336 Y90.608 E0.5886
G1 X96.384 Y90.579 E0.5931
G1 X102.292 Y87.568 E1.1224
G1 X102.344 Y87.547 E1.1269
G1 X102.997 Y87.335 E1.1817
G1 X103.052 Y87.321 E1.1862
G1 X109.600 Y86.284 E1.7155
G1 X109.657 Y86.279 E1.7200
G1 X110.343 Y86.279 E1.7748
G1 X110.399 Y86.284 E1.7793
G1 X116.949 Y87.321 E2.3086
G1 X117.004 Y87.334 E2.3132
G1 X117.657 Y87.547 E2.3680
G1 X117.709 Y87.568 E2.3725
G1 X123.617 Y90.579 E2.9017
G1 X123.665 Y90.608 E2.9062
G1 X124.220 Y91.012 E2.9610
G1 X124.263 Y91.048 E2.9655
G1 X128.952 Y95.737 E3.4949
G1 X128.989 Y95.780 E3.4994
G1 X129.392 Y96.335 E3.5541
G1 X129.422 Y96.384 E3.5587
G1 X132.432 Y102.291 E4.0879
G1 X132.454 Y102.343 E4.0924
G1 X132.666 Y102.996 E4.1472
G1 X132.679 Y103.051 E4.1517
G1 X133.717 Y109.600 E4.6810
G1 X133.721 Y109.656 E4.6855
G1 X133.721 Y110.343 E4.7403
G1 X133.717 Y110.399 E4.7448
G1 X132.679 Y116.949 E5.2742
G1 X132.666 Y117.004 E5.2787
G1 X132.454 Y117.657 E5.3335
G1 X132.432 Y117.709 E5.3380
G1 X129.422 Y123.616 E5.8673
G1 X129.392 Y123.665 E5.8718
G1 X128.989 Y124.219 E5.9265
G1 X128.952 Y124.262 E5.9310
G1 X124.263 Y128.952 E6.4604
G1 X124.220 Y128.988 E6.4649
G1 X123.665 Y129.392 E6.5197
G1 X123.617 Y129.421 E6.5242
G1 X117.709 Y132.432 E7.0534
G1 X117.657 Y132.453 E7.0580
G1 X117.004 Y132.665 E7.1127
G1 X116.949 Y132.679 E7.1173
G1 X110.399 Y133.716 E7.6466
G1 X110.343 Y133.720 E7.6511
G1 X109.657 Y133.720 E7.7059
G1 X109.600 Y133.716 E7.7104
G1 X103.052 Y132.679 E8.2397
G1 X102.997 Y132.665 E8.2442
G1 X102.344 Y132.453 E8.2990
G1 X102.292 Y132.432 E8.3035
G1 X96.384 Y129.421 E8.8328
G1 X96.336 Y129.392 E8.8373
G1 X95.781 Y128.988 E8.8921
G1 X95.738 Y128.952 E8.8966
G1 X91.049 Y124.263 E9.4259
G1 X91.012 Y124.219 E9.4304
G1 X90.609 Y123.665 E9.4852
G1 X90.579 Y123.616 E9.4897
G1 X87.569 Y117.709 E10.0190
G1 X87.547 Y117.657 E10.0235
G1 X87.335 Y117.004 E10.0783
G1 X87.322 Y116.949 E10.0828
G1 X86.284 Y110.399 E10.6121
G1 X86.280 Y110.343 E10.6167
G1 X86.280 Y109.656 E10.6714
G1 X86.284 Y109.600 E10.6760
G1 X87.322 Y103.051 E11.2052
G1 X87.335 Y102.996 E11.2097
G1 X87.547 Y102.343 E11.2645
G1 X87.569 Y102.291 E11.2690
G1 X90.579 Y96.384 E11.7983
G1 X90.609 Y96.335 E11.8028
G1 X91.012 Y95.780 E11.8576
G1 X91.049 Y95.737 E11.8621
G1 X91.402 Y96.064 F4200
G92 E0
G1 X96.064 Y91.401 E0.5263 F1800
G1 X96.078 Y91.389 E0.5278
G1 X96.603 Y91.008 E0.5796
G1 X96.619 Y90.998 E0.5811
G1 X102.493 Y88.005 E1.1073
G1 X102.510 Y87.997 E1.1088
G1 X103.127 Y87.797 E1.1606
G1 X103.145 Y87.792 E1.1621
G1 X109.657 Y86.761 E1.6884
G1 X109.676 Y86.759 E1.6899
G1 X110.324 Y86.759 E1.7417
G1 X110.343 Y86.761 E1.7432
G1 X116.856 Y87.792 E2.2695
G1 X116.874 Y87.797 E2.2710
G1 X117.491 Y87.997 E2.3228
G1 X117.508 Y88.005 E2.3243
G1 X123.382 Y90.998 E2.8505
G1 X123.398 Y91.008 E2.8521
G1 X123.923 Y91.389 E2.9038
G1 X123.937 Y91.401 E2.9053
G1 X128.599 Y96.064 E3.4316
G1 X128.612 Y96.078 E3.4331
G1 X128.993 Y96.602 E3.4849
G1 X129.003 Y96.618 E3.4864
G1 X131.996 Y102.492 E4.0126
G1 X132.003 Y102.510 E4.0142
G1 X132.204 Y103.126 E4.0659
G1 X132.208 Y103.145 E4.0674
G1 X133.240 Y109.656 E4.5937
G1 X133.241 Y109.675 E4.5952
G1 X133.241 Y110.324 E4.6470
G1 X133.240 Y110.342 E4.6485
G1 X132.208 Y116.855 E5.1748
G1 X132.204 Y116.873 E5.1763
G1 X132.003 Y117.490 E5.2281
G1 X131.996 Y117.508 E5.2296
G1 X129.003 Y123.382 E5.7559
G1 X128.993 Y123.398 E5.7574
G1 X128.612 Y123.922 E5.8091
G1 X128.599 Y123.936 E5.8106
G1 X123.937 Y128.599 E6.3369
G1 X123.923 Y128.611 E6.3385
G1 X123.398 Y128.992 E6.3902
G1 X123.382 Y129.002 E6.3917
G1 X117.508 Y131.995 E6.9180
G1 X117.491 Y132.003 E6.9195
G1 X116.874 Y132.203 E6.9712
G1 X116.856 Y132.208 E6.9727
G1 X110.343 Y133.239 E7.4991
G1 X110.324 Y133.240 E7.5006
G1 X109.676 Y133.240 E7.5524
G1 X109.657 Y133.239 E7.5539
G1 X103.145 Y132.208 E8.0801
G1 X103.127 Y132.203 E8.0816
G1 X102.510 Y132.003 E8.1334
G1 X102.493 Y131.995 E8.1349
G1 X96.619 Y129.002 E8.6612
G1 X96.603 Y128.992 E8.6627
G1 X96.078 Y128.611 E8.7144
G1 X96.064 Y128.599 E8.7159
G1 X91.402 Y123.936 E9.2423
G1 X91.389 Y123.922 E9.2438
G1 X91.008 Y123.398 E9.2955
G1 X90.998 Y123.382 E9.2970
G1 X88.005 Y117.508 E9.8233
G1 X87.998 Y117.490 E9.8248
G1 X87.797 Y116.873 E9.8765
G1 X87.793 Y116.855 E9.8780
G1 X86.761 Y110.342 E10.4044
G1 X86.760 Y110.324 E10.4059
G1 X86.760 Y109.675 E10.4577
G1 X86.761 Y109.656 E10.4592
G1 X87.793 Y103.145 E10.9854
G1 X87.797 Y103.126 E10.9869
