; G-Code generated by Simplify3D(R) Version 4.0.1
; Oct 7, 2018 at 4:57:57 PM
; Settings Summary
;   processName,Process1
;   applyToModels,DD001,DH006
;   profileName,Anet A8-CommunauteFrancaise
;   profileVersion,2018-08-31 18:45:08
;   baseProfile,
;   printMaterial,ABS
;   printQuality,Medium
;   printExtruders,
;   extruderName,Primary Extruder
;   extruderToolheadNumber,0
;   extruderDiameter,0.4
;   extruderAutoWidth,0
;   extruderWidth,0.4
;   extrusionMultiplier,1
;   extruderUseRetract,1
;   extruderRetractionDistance,2
;   extruderExtraRestartDistance,-0.2
;   extruderRetractionZLift,0.2
;   extruderRetractionSpeed,3600
;   extruderUseCoasting,0
;   extruderCoastingDistance,0.2
;   extruderUseWipe,0
;   extruderWipeDistance,5
;   primaryExtruder,0
;   layerHeight,0.2
;   topSolidLayers,5
;   bottomSolidLayers,5
;   perimeterOutlines,4
;   printPerimetersInsideOut,1
;   startPointOption,2
;   startPointOriginX,0
;   startPointOriginY,500
;   sequentialIslands,0
;   spiralVaseMode,0
;   firstLayerHeightPercentage,100
;   firstLayerWidthPercentage,100
;   firstLayerUnderspeed,0.5
;   useRaft,0
;   raftExtruder,0
;   raftTopLayers,3
;   raftBaseLayers,2
;   raftOffset,3
;   raftSeparationDistance,0.14
;   raftTopInfill,100
;   aboveRaftSpeedMultiplier,0.3
;   useSkirt,1
;   skirtExtruder,0
;   skirtLayers,1
;   skirtOutlines,1
;   skirtOffset,2
;   usePrimePillar,0
;   primePillarExtruder,999
;   primePillarWidth,12
;   primePillarLocation,7
;   primePillarSpeedMultiplier,1
;   useOozeShield,0
;   oozeShieldExtruder,999
;   oozeShieldOffset,2
;   oozeShieldOutlines,1
;   oozeShieldSidewallShape,1
;   oozeShieldSidewallAngle,30
;   oozeShieldSpeedMultiplier,1
;   infillExtruder,0
;   internalInfillPattern,Rectilinear
;   externalInfillPattern,Rectilinear
;   infillPercentage,30
;   outlineOverlapPercentage,20
;   infillExtrusionWidthPercentage,100
;   minInfillLength,2
;   infillLayerInterval,1
;   internalInfillAngles,90,0
;   overlapInternalInfillAngles,0
;   externalInfillAngles,90,0
;   generateSupport,0
;   supportExtruder,0
;   supportInfillPercentage,30
;   supportExtraInflation,0
;   supportBaseLayers,0
;   denseSupportExtruder,0
;   denseSupportLayers,0
;   denseSupportInfillPercentage,60
;   supportLayerInterval,1
;   supportHorizontalPartOffset,0.3
;   supportUpperSeparationLayers,1
;   supportLowerSeparationLayers,1
;   supportType,0
;   supportGridSpacing,3
;   maxOverhangAngle,60
;   supportAngles,0
;   temperatureName,Primary Extruder,Heated Bed
;   temperatureNumber,0,0
;   temperatureSetpointCount,1,1
;   temperatureSetpointLayers,1,1
;   temperatureSetpointTemperatures,230,90
;   temperatureStabilizeAtStartup,1,1
;   temperatureHeatedBed,0,1
;   temperatureRelayBetweenLayers,0,0
;   temperatureRelayBetweenLoops,0,0
;   fanLayers,1
;   fanSpeeds,0
;   blipFanToFullPower,0
;   adjustSpeedForCooling,1
;   minSpeedLayerTime,15
;   minCoolingSpeedSlowdown,20
;   increaseFanForCooling,0
;   minFanLayerTime,45
;   maxCoolingFanSpeed,100
;   increaseFanForBridging,0
;   bridgingFanSpeed,100
;   use5D,1
;   relativeEdistances,0
;   allowEaxisZeroing,1
;   independentExtruderAxes,0
;   includeM10123,0
;   stickySupport,1
;   applyToolheadOffsets,0
;   gcodeXoffset,0
;   gcodeYoffset,0
;   gcodeZoffset,0
;   overrideMachineDefinition,1
;   machineTypeOverride,0
;   strokeXoverride,220
;   strokeYoverride,220
;   strokeZoverride,240
;   originOffsetXoverride,0
;   originOffsetYoverride,0
;   originOffsetZoverride,0
;   homeXdirOverride,-1
;   homeYdirOverride,-1
;   homeZdirOverride,-1
;   flipXoverride,1
;   flipYoverride,-1
;   flipZoverride,1
;   toolheadOffsets,0,0|0,0|0,0|0,0|0,0|0,0
;   overrideFirmwareConfiguration,1
;   firmwareTypeOverride,RepRap (Marlin/Repetier/Sprinter)
;   GPXconfigOverride,r2
;   baudRateOverride,115200
;   overridePrinterModels,1
;   printerModelsOverride
;   startingGcode,G28 ; home all axes,;G29,G1 X0 Y10 Z0.2 F3000 ; get ready to prime,G92 E0 ; reset extrusion distance,G1 X90 E20 Z-0.60 F600 ; prime nozzle,M117 Impression en cours  !!
;   layerChangeGcode,
;   retractionGcode,
;   toolChangeGcode,
;   endingGcode,M104 S0 ; turn off extruder,M140 S0 ; turn off bed,G1 X0 Y200 F1000 ; prepare for part removal,M84 ; disable motors,M117 c'est fini !!
;   exportFileFormat,gcode
;   celebration,0
;   celebrationSong,Star Wars
;   postProcessing,|;gcode:||; Use Simplify3D Gcode comments to display info for each layer||;{REPLACE "; layer" "M117 Layer"} ; Replace Simplify3D layer comments with display commands|;{REPLACE " Z = " " Z="} ; Delete spaces for more display space||; For filament change at the beginning of a particular layer:||; {REPLACE "\nM117 Layer <#>, Z=" "\nM600\nM117 Layer <#>, Z="}||; Forward toolpath file to Octoprint when saved:|;curl -k -H "X-Api-Key:95CF4E9979984CF1ACDD88DF2F202262" -F "select=true" -F "print=true" -F "file=@[output_filepath]" "http://192.168.1.126/api/files/local"
;   defaultSpeed,2400
;   outlineUnderspeed,0.5
;   solidInfillUnderspeed,0.8
;   supportUnderspeed,0.8
;   rapidXYspeed,3000
;   rapidZspeed,1002
;   minBridgingArea,50
;   bridgingExtraInflation,0
;   bridgingExtrusionMultiplier,1
;   bridgingSpeedMultiplier,1
;   useFixedBridgingAngle,0
;   fixedBridgingAngle,0
;   applyBridgingToPerimeters,0
;   filamentDiameters,1.75|1.75|1.75|1.75|1.75|1.75
;   filamentPricesPerKg,16|46|46|46|46|46
;   filamentDensities,1.25|1.25|1.25|1.25|1.25|1.25
;   useMinPrintHeight,0
;   minPrintHeight,0
;   useMaxPrintHeight,0
;   maxPrintHeight,0
;   useDiaphragm,0
;   diaphragmLayerInterval,20
;   robustSlicing,1
;   mergeAllIntoSolid,0
;   onlyRetractWhenCrossingOutline,1
;   retractBetweenLayers,1
;   useRetractionMinTravel,0
;   retractionMinTravel,3
;   retractWhileWiping,0
;   onlyWipeOutlines,1
;   avoidCrossingOutline,0
;   maxMovementDetourFactor,3
;   toolChangeRetractionDistance,12
;   toolChangeExtraRestartDistance,-0.5
;   toolChangeRetractionSpeed,600
;   externalThinWallType,0
;   internalThinWallType,2
;   thinWallAllowedOverlapPercentage,10
;   singleExtrusionMinLength,1
;   singleExtrusionMinPrintingWidthPercentage,50
;   singleExtrusionMaxPrintingWidthPercentage,200
;   singleExtrusionEndpointExtension,0.2
;   horizontalSizeCompensation,0
G90
M82
M106 S0
M140 S90
M190 S90
M104 S230 T0
M109 S230 T0
G28 ; home all axes
;G29
G1 X0 Y10 Z0.2 F3000 ; get ready to prime
G92 E0 ; reset extrusion distance
G1 X90 E20 Z-0.60 F600 ; prime nozzle
M117 Impression en cours  !!
G92 E0
G1 E-2.0000 F3600
G1 Z0.400 F1002
; process Process1
; layer 1, Z = 0.200
T0
; tool H0.200 W0.400
; skirt
G1 X79.108 Y72.335 F3000
G1 Z0.200 F1002
G1 E-0.2000 F1080
G92 E0
G1 X79.158 Y72.284 E0.0024 F1200
G1 X79.161 Y72.281 E0.0025
G1 X79.684 Y71.782 E0.0265
G1 X79.686 Y71.780 E0.0266
G1 X79.739 Y71.732 E0.0290
G1 X79.742 Y71.730 E0.0291
G1 X80.295 Y71.270 E0.0531
G1 X80.298 Y71.268 E0.0532
G1 X80.348 Y71.228 E0.0553
G1 X80.351 Y71.226 E0.0554
G1 X98.902 Y57.622 E0.8206
G1 X98.903 Y57.621 E0.8206
G1 X98.933 Y57.600 E0.8218
G1 X98.935 Y57.599 E0.8219
G1 X99.480 Y57.228 E0.8438
G1 X99.483 Y57.226 E0.8439
G1 X99.545 Y57.187 E0.8464
G1 X99.548 Y57.185 E0.8465
G1 X100.134 Y56.844 E0.8690
G1 X100.137 Y56.842 E0.8692
G1 X100.202 Y56.807 E0.8716
G1 X100.205 Y56.806 E0.8717
G1 X100.813 Y56.507 E0.8943
G1 X100.816 Y56.505 E0.8944
G1 X100.883 Y56.475 E0.8968
G1 X100.886 Y56.474 E0.8969
G1 X101.514 Y56.218 E0.9195
G1 X101.517 Y56.217 E0.9196
G1 X101.586 Y56.191 E0.9221
G1 X101.590 Y56.190 E0.9222
G1 X102.233 Y55.979 E0.9447
G1 X102.237 Y55.978 E0.9448
G1 X102.308 Y55.958 E0.9473
G1 X102.311 Y55.957 E0.9474
G1 X102.968 Y55.792 E0.9699
G1 X102.971 Y55.791 E0.9700
G1 X103.043 Y55.775 E0.9725
G1 X103.047 Y55.775 E0.9726
G1 X103.714 Y55.656 E0.9951
G1 X103.717 Y55.656 E0.9953
G1 X103.790 Y55.645 E0.9977
G1 X103.794 Y55.645 E0.9978
G1 X104.467 Y55.573 E1.0204
G1 X104.471 Y55.573 E1.0205
G1 X104.544 Y55.568 E1.0229
G1 X104.548 Y55.567 E1.0230
G1 X105.225 Y55.543 E1.0456
G1 X105.229 Y55.543 E1.0457
G1 X105.302 Y55.543 E1.0481
G1 X105.306 Y55.543 E1.0483
G1 X105.983 Y55.566 E1.0708
G1 X105.986 Y55.567 E1.0709
G1 X106.060 Y55.572 E1.0734
G1 X106.063 Y55.572 E1.0735
G1 X106.737 Y55.643 E1.0960
G1 X106.741 Y55.643 E1.0961
G1 X106.814 Y55.653 E1.0986
G1 X106.817 Y55.654 E1.0987
G1 X107.484 Y55.772 E1.1212
G1 X107.488 Y55.773 E1.1213
G1 X107.560 Y55.788 E1.1238
G1 X107.563 Y55.789 E1.1239
G1 X108.220 Y55.953 E1.1464
G1 X108.224 Y55.954 E1.1466
G1 X108.295 Y55.974 E1.1490
G1 X108.298 Y55.975 E1.1491
G1 X108.942 Y56.186 E1.1717
G1 X108.945 Y56.187 E1.1718
G1 X109.015 Y56.212 E1.1742
G1 X109.018 Y56.213 E1.1744
G1 X109.646 Y56.468 E1.1969
G1 X109.649 Y56.469 E1.1970
G1 X109.716 Y56.500 E1.1995
G1 X109.719 Y56.501 E1.1996
G1 X110.328 Y56.799 E1.2221
G1 X110.331 Y56.801 E1.2222
G1 X110.396 Y56.836 E1.2247
G1 X110.399 Y56.837 E1.2248
G1 X110.985 Y57.177 E1.2473
G1 X110.988 Y57.179 E1.2474
G1 X111.050 Y57.218 E1.2499
G1 X111.053 Y57.220 E1.2500
G1 X111.614 Y57.601 E1.2725
G1 X111.617 Y57.603 E1.2727
G1 X111.676 Y57.646 E1.2751
G1 X111.679 Y57.648 E1.2752
G1 X112.224 Y58.077 E1.2983
G1 X112.228 Y58.080 E1.2985
G1 X112.308 Y58.150 E1.3020
G1 X112.312 Y58.154 E1.3022
G1 X116.092 Y61.801 E1.4769
G1 X116.094 Y61.803 E1.4770
G1 X116.129 Y61.839 E1.4786
G1 X116.130 Y61.840 E1.4787
G1 X117.342 Y63.126 E1.5375
G1 X117.345 Y63.130 E1.5376
G1 X117.405 Y63.198 E1.5406
G1 X117.407 Y63.202 E1.5408
G1 X118.517 Y64.604 E1.6003
G1 X118.519 Y64.608 E1.6004
G1 X118.572 Y64.681 E1.6034
G1 X118.575 Y64.685 E1.6036
G1 X119.552 Y66.168 E1.6627
G1 X119.554 Y66.171 E1.6628
G1 X119.590 Y66.229 E1.6650
G1 X119.591 Y66.232 E1.6651
G1 X120.045 Y67.028 E1.6956
G1 X120.046 Y67.031 E1.6957
G1 X120.078 Y67.091 E1.6980
G1 X120.079 Y67.093 E1.6981
G1 X127.492 Y82.294 E2.2605
G1 X127.494 Y82.297 E2.2607
G1 X127.527 Y82.372 E2.2634
G1 X127.528 Y82.376 E2.2635
G1 X127.946 Y83.434 E2.3014
G1 X127.948 Y83.442 E2.3016
G1 X127.996 Y83.596 E2.3070
G1 X127.998 Y83.604 E2.3073
G1 X128.252 Y84.733 E2.3458
G1 X128.253 Y84.739 E2.3460
G1 X128.273 Y84.859 E2.3500
G1 X128.274 Y84.864 E2.3502
G1 X128.287 Y84.989 E2.3544
G1 X128.473 Y84.565 E2.3697
G1 X128.480 Y84.551 E2.3703
G1 X128.659 Y84.273 E2.3813
G1 X128.669 Y84.261 E2.3818
G1 X129.027 Y83.859 E2.3997
G1 X129.045 Y83.842 E2.4005
G1 X129.473 Y83.551 E2.4177
G1 X129.495 Y83.540 E2.4185
G1 X129.990 Y83.358 E2.4361
G1 X130.007 Y83.354 E2.4367
G1 X130.371 Y83.289 E2.4490
G1 X130.388 Y83.287 E2.4495
G1 X132.943 Y83.285 E2.5345
G1 X132.968 Y83.288 E2.5354
G1 X133.501 Y83.430 E2.5537
G1 X133.525 Y83.439 E2.5545
G1 X134.119 Y83.780 E2.5773
G1 X134.136 Y83.793 E2.5780
G1 X134.471 Y84.095 E2.5930
G1 X134.485 Y84.111 E2.5938
G1 X134.737 Y84.461 E2.6081
G1 X138.422 Y84.464 E2.7307
G1 X138.428 Y82.177 E2.8067
G1 X138.428 Y82.168 E2.8070
G1 X138.446 Y81.976 E2.8134
G1 X138.448 Y81.967 E2.8137
G1 X138.551 Y81.416 E2.8324
G1 X138.554 Y81.405 E2.8328
G1 X138.625 Y81.176 E2.8407
G1 X138.629 Y81.165 E2.8411
G1 X138.816 Y80.739 E2.8566
G1 X138.823 Y80.726 E2.8571
G1 X139.002 Y80.448 E2.8681
G1 X139.012 Y80.435 E2.8686
G1 X139.370 Y80.033 E2.8865
G1 X139.388 Y80.017 E2.8874
G1 X139.816 Y79.726 E2.9046
G1 X139.838 Y79.715 E2.9054
G1 X140.333 Y79.533 E2.9229
G1 X140.350 Y79.528 E2.9235
G1 X140.715 Y79.463 E2.9358
G1 X140.733 Y79.461 E2.9364
G1 X143.346 Y79.461 E3.0234
G1 X143.364 Y79.463 E3.0239
G1 X143.729 Y79.528 E3.0363
G1 X143.746 Y79.533 E3.0369
G1 X144.241 Y79.715 E3.0544
G1 X144.263 Y79.726 E3.0552
G1 X144.691 Y80.017 E3.0724
G1 X144.709 Y80.033 E3.0732
G1 X145.067 Y80.435 E3.0912
G1 X145.077 Y80.447 E3.0917
G1 X145.256 Y80.726 E3.1027
G1 X145.263 Y80.739 E3.1032
G1 X145.462 Y81.192 E3.1196
G1 X145.467 Y81.205 E3.1201
G1 X145.547 Y81.492 E3.1300
G1 X145.550 Y81.506 E3.1305
G1 X145.650 Y82.270 E3.1561
G1 X145.651 Y82.277 E3.1563
G1 X145.660 Y82.414 E3.1609
G1 X145.660 Y82.420 E3.1611
G1 X145.660 Y87.576 E3.3326
G1 X145.659 Y87.582 E3.3328
G1 X145.650 Y87.722 E3.3375
G1 X145.649 Y87.729 E3.3377
G1 X145.549 Y88.477 E3.3628
G1 X145.546 Y88.490 E3.3633
G1 X145.466 Y88.774 E3.3731
G1 X145.461 Y88.787 E3.3735
G1 X145.263 Y89.239 E3.3899
G1 X145.256 Y89.252 E3.3905
G1 X145.077 Y89.531 E3.4015
G1 X145.067 Y89.543 E3.4020
G1 X144.709 Y89.945 E3.4199
G1 X144.691 Y89.961 E3.4207
G1 X144.263 Y90.252 E3.4379
G1 X144.241 Y90.263 E3.4387
G1 X143.747 Y90.445 E3.4562
G1 X143.730 Y90.450 E3.4568
G1 X143.365 Y90.515 E3.4691
G1 X143.348 Y90.516 E3.4697
G1 X135.017 Y90.522 E3.7468
G1 X135.025 Y127.876 E4.9892
G1 X135.072 Y128.202 E5.0002
G1 X135.164 Y128.492 E5.0103
G1 X135.317 Y128.790 E5.0214
G1 X135.416 Y128.932 E5.0272
G1 X135.550 Y129.085 E5.0339
G1 X135.701 Y129.222 E5.0407
G1 X135.865 Y129.342 E5.0475
G1 X136.042 Y129.442 E5.0542
G1 X136.229 Y129.523 E5.0610
G1 X136.394 Y129.574 E5.0668
G1 X136.755 Y129.633 E5.0789
G1 X136.928 Y129.636 E5.0847
G1 X137.100 Y129.621 E5.0904
G1 X137.456 Y129.540 E5.1026
G1 X137.618 Y129.478 E5.1083
G1 X137.799 Y129.386 E5.1151
G1 X137.969 Y129.273 E5.1219
G1 X138.126 Y129.143 E5.1286
G1 X138.267 Y128.997 E5.1354
G1 X138.391 Y128.836 E5.1422
G1 X138.497 Y128.662 E5.1489
G1 X138.583 Y128.477 E5.1557
G1 X138.648 Y128.284 E5.1625
G1 X138.691 Y128.086 E5.1692
G1 X138.713 Y127.878 E5.1762
G1 X138.717 Y98.518 E6.1527
G1 X137.648 Y98.518 E6.1883
G1 X137.618 Y98.514 E6.1893
G1 X137.018 Y98.331 E6.2102
G1 X136.991 Y98.318 E6.2111
G1 X136.239 Y97.811 E6.2413
G1 X136.209 Y97.780 E6.2427
G1 X135.730 Y96.990 E6.2735
G1 X135.716 Y96.948 E6.2749
G1 X135.633 Y96.208 E6.2997
G1 X135.633 Y96.189 E6.3003
G1 X135.663 Y95.797 E6.3134
G1 X135.666 Y95.779 E6.3140
G1 X135.828 Y95.172 E6.3349
G1 X135.832 Y95.161 E6.3353
G1 X135.921 Y94.935 E6.3434
G1 X135.926 Y94.925 E6.3438
G1 X136.176 Y94.459 E6.3613
G1 X136.179 Y94.453 E6.3616
G1 X136.258 Y94.328 E6.3665
G1 X136.262 Y94.322 E6.3667
G1 X136.648 Y93.796 E6.3884
G1 X136.652 Y93.791 E6.3886
G1 X136.750 Y93.675 E6.3937
G1 X136.755 Y93.670 E6.3939
G1 X137.276 Y93.140 E6.4186
G1 X137.289 Y93.129 E6.4192
G1 X137.582 Y92.919 E6.4312
G1 X137.597 Y92.910 E6.4318
G1 X138.279 Y92.579 E6.4570
G1 X138.300 Y92.572 E6.4577
G1 X138.763 Y92.465 E6.4735
G1 X138.786 Y92.463 E6.4743
G1 X143.346 Y92.461 E6.6260
G1 X143.364 Y92.463 E6.6265
G1 X143.729 Y92.528 E6.6389
G1 X143.746 Y92.533 E6.6395
G1 X144.241 Y92.715 E6.6570
G1 X144.263 Y92.726 E6.6578
G1 X144.691 Y93.017 E6.6750
G1 X144.709 Y93.033 E6.6759
G1 X145.067 Y93.435 E6.6938
G1 X145.077 Y93.447 E6.6943
G1 X145.256 Y93.726 E6.7053
G1 X145.263 Y93.739 E6.7058
G1 X145.462 Y94.192 E6.7223
G1 X145.467 Y94.205 E6.7227
G1 X145.547 Y94.492 E6.7326
G1 X145.550 Y94.506 E6.7331
G1 X145.650 Y95.270 E6.7587
G1 X145.651 Y95.277 E6.7590
G1 X145.660 Y95.414 E6.7635
G1 X145.660 Y95.421 E6.7638
G1 X145.653 Y144.055 E8.3814
G1 X145.652 Y144.072 E8.3819
G1 X145.592 Y144.423 E8.3938
G1 X145.587 Y144.440 E8.3943
G1 X145.400 Y144.971 E8.4131
G1 X145.393 Y144.987 E8.4137
G1 X145.205 Y145.316 E8.4263
G1 X145.195 Y145.331 E8.4269
G1 X144.836 Y145.758 E8.4454
G1 X144.819 Y145.775 E8.4462
G1 X144.406 Y146.076 E8.4632
G1 X144.385 Y146.087 E8.4640
G1 X143.805 Y146.325 E8.4849
G1 X143.786 Y146.331 E8.4855
G1 X143.383 Y146.410 E8.4992
G1 X143.364 Y146.412 E8.4998
G1 X130.133 Y146.396 E8.9399
G1 X130.100 Y146.390 E8.9410
G1 X129.419 Y146.148 E8.9650
G1 X129.389 Y146.131 E8.9661
G1 X128.770 Y145.627 E8.9927
G1 X128.752 Y145.609 E8.9935
G1 X128.433 Y145.172 E9.0115
G1 X128.420 Y145.150 E9.0124
G1 X128.164 Y144.501 E9.0356
G1 X128.159 Y144.483 E9.0362
G1 X128.085 Y144.094 E9.0494
G1 X128.083 Y144.075 E9.0500
G1 X128.077 Y88.461 E10.8998
G1 X127.383 Y92.752 E11.0444
G1 X127.383 Y92.755 E11.0444
G1 X127.374 Y92.801 E11.0460
G1 X127.374 Y92.803 E11.0461
G1 X127.257 Y93.362 E11.0651
G1 X127.256 Y93.367 E11.0652
G1 X127.235 Y93.451 E11.0681
G1 X127.234 Y93.455 E11.0682
G1 X127.067 Y94.022 E11.0879
G1 X127.065 Y94.026 E11.0880
G1 X127.037 Y94.108 E11.0909
G1 X127.036 Y94.112 E11.0911
G1 X126.822 Y94.663 E11.1107
G1 X126.820 Y94.667 E11.1109
G1 X126.786 Y94.746 E11.1137
G1 X126.784 Y94.750 E11.1139
G1 X126.525 Y95.282 E11.1335
