; G-Code generated by Simplify3D(R) Version 4.0.1
; Oct 7, 2018 at 8:45:18 AM
; Settings Summary
;   processName,Process1
;   applyToModels,Top
;   profileName,Anet A8-CommunauteFrancaise (modified)
;   profileVersion,2018-08-31 18:45:08
;   baseProfile,
;   printMaterial,ABS
;   printQuality,Medium
;   printExtruders,
;   extruderName,Primary Extruder
;   extruderToolheadNumber,0
;   extruderDiameter,0.4
;   extruderAutoWidth,0
;   extruderWidth,0.4
;   extrusionMultiplier,1
;   extruderUseRetract,1
;   extruderRetractionDistance,2
;   extruderExtraRestartDistance,-0.2
;   extruderRetractionZLift,0.2
;   extruderRetractionSpeed,3600
;   extruderUseCoasting,0
;   extruderCoastingDistance,0.2
;   extruderUseWipe,0
;   extruderWipeDistance,5
;   primaryExtruder,0
;   layerHeight,0.2
;   topSolidLayers,5
;   bottomSolidLayers,5
;   perimeterOutlines,4
;   printPerimetersInsideOut,1
;   startPointOption,2
;   startPointOriginX,0
;   startPointOriginY,500
;   sequentialIslands,0
;   spiralVaseMode,0
;   firstLayerHeightPercentage,100
;   firstLayerWidthPercentage,100
;   firstLayerUnderspeed,0.5
;   useRaft,0
;   raftExtruder,0
;   raftTopLayers,3
;   raftBaseLayers,2
;   raftOffset,3
;   raftSeparationDistance,0.14
;   raftTopInfill,100
;   aboveRaftSpeedMultiplier,0.3
;   useSkirt,1
;   skirtExtruder,0
;   skirtLayers,1
;   skirtOutlines,1
;   skirtOffset,2
;   usePrimePillar,0
;   primePillarExtruder,999
;   primePillarWidth,12
;   primePillarLocation,7
;   primePillarSpeedMultiplier,1
;   useOozeShield,0
;   oozeShieldExtruder,999
;   oozeShieldOffset,2
;   oozeShieldOutlines,1
;   oozeShieldSidewallShape,1
;   oozeShieldSidewallAngle,30
;   oozeShieldSpeedMultiplier,1
;   infillExtruder,0
;   internalInfillPattern,Rectilinear
;   externalInfillPattern,Rectilinear
;   infillPercentage,30
;   outlineOverlapPercentage,20
;   infillExtrusionWidthPercentage,100
;   minInfillLength,2
;   infillLayerInterval,1
;   internalInfillAngles,90,0
;   overlapInternalInfillAngles,0
;   externalInfillAngles,90,0
;   generateSupport,1
;   supportExtruder,0
;   supportInfillPercentage,30
;   supportExtraInflation,0
;   supportBaseLayers,0
;   denseSupportExtruder,0
;   denseSupportLayers,0
;   denseSupportInfillPercentage,60
;   supportLayerInterval,1
;   supportHorizontalPartOffset,0.3
;   supportUpperSeparationLayers,1
;   supportLowerSeparationLayers,1
;   supportType,0
;   supportGridSpacing,3
;   maxOverhangAngle,60
;   supportAngles,0
;   temperatureName,Primary Extruder,Heated Bed
;   temperatureNumber,0,0
;   temperatureSetpointCount,1,1
;   temperatureSetpointLayers,1,1
;   temperatureSetpointTemperatures,230,90
;   temperatureStabilizeAtStartup,1,1
;   temperatureHeatedBed,0,1
;   temperatureRelayBetweenLayers,0,0
;   temperatureRelayBetweenLoops,0,0
;   fanLayers,1
;   fanSpeeds,0
;   blipFanToFullPower,0
;   adjustSpeedForCooling,1
;   minSpeedLayerTime,15
;   minCoolingSpeedSlowdown,20
;   increaseFanForCooling,0
;   minFanLayerTime,45
;   maxCoolingFanSpeed,100
;   increaseFanForBridging,0
;   bridgingFanSpeed,100
;   use5D,1
;   relativeEdistances,0
;   allowEaxisZeroing,1
;   independentExtruderAxes,0
;   includeM10123,0
;   stickySupport,1
;   applyToolheadOffsets,0
;   gcodeXoffset,0
;   gcodeYoffset,0
;   gcodeZoffset,0
;   overrideMachineDefinition,1
;   machineTypeOverride,0
;   strokeXoverride,220
;   strokeYoverride,220
;   strokeZoverride,240
;   originOffsetXoverride,0
;   originOffsetYoverride,0
;   originOffsetZoverride,0
;   homeXdirOverride,-1
;   homeYdirOverride,-1
;   homeZdirOverride,-1
;   flipXoverride,1
;   flipYoverride,-1
;   flipZoverride,1
;   toolheadOffsets,0,0|0,0|0,0|0,0|0,0|0,0
;   overrideFirmwareConfiguration,1
;   firmwareTypeOverride,RepRap (Marlin/Repetier/Sprinter)
;   GPXconfigOverride,r2
;   baudRateOverride,115200
;   overridePrinterModels,1
;   printerModelsOverride
;   startingGcode,G28 ; home all axes,;G29,G1 X0 Y10 Z0.2 F3000 ; get ready to prime,G92 E0 ; reset extrusion distance,G1 X90 E20 Z-0.60 F600 ; prime nozzle,M117 Impression en cours  !!
;   layerChangeGcode,
;   retractionGcode,
;   toolChangeGcode,
;   endingGcode,M104 S0 ; turn off extruder,M140 S0 ; turn off bed,G1 X0 Y200 F1000 ; prepare for part removal,M84 ; disable motors,M117 c'est fini !!
;   exportFileFormat,gcode
;   celebration,0
;   celebrationSong,Star Wars
;   postProcessing,|;gcode:||; Use Simplify3D Gcode comments to display info for each layer||;{REPLACE "; layer" "M117 Layer"} ; Replace Simplify3D layer comments with display commands|;{REPLACE " Z = " " Z="} ; Delete spaces for more display space||; For filament change at the beginning of a particular layer:||; {REPLACE "\nM117 Layer <#>, Z=" "\nM600\nM117 Layer <#>, Z="}||; Forward toolpath file to Octoprint when saved:|;curl -k -H "X-Api-Key:95CF4E9979984CF1ACDD88DF2F202262" -F "select=true" -F "print=true" -F "file=@[output_filepath]" "http://192.168.1.126/api/files/local"
;   defaultSpeed,2400
;   outlineUnderspeed,0.5
;   solidInfillUnderspeed,0.8
;   supportUnderspeed,0.8
;   rapidXYspeed,3000
;   rapidZspeed,1002
;   minBridgingArea,50
;   bridgingExtraInflation,0
;   bridgingExtrusionMultiplier,1
;   bridgingSpeedMultiplier,1
;   useFixedBridgingAngle,0
;   fixedBridgingAngle,0
;   applyBridgingToPerimeters,0
;   filamentDiameters,1.75|1.75|1.75|1.75|1.75|1.75
;   filamentPricesPerKg,16|46|46|46|46|46
;   filamentDensities,1.25|1.25|1.25|1.25|1.25|1.25
;   useMinPrintHeight,0
;   minPrintHeight,0
;   useMaxPrintHeight,0
;   maxPrintHeight,0
;   useDiaphragm,0
;   diaphragmLayerInterval,20
;   robustSlicing,1
;   mergeAllIntoSolid,0
;   onlyRetractWhenCrossingOutline,1
;   retractBetweenLayers,1
;   useRetractionMinTravel,0
;   retractionMinTravel,3
;   retractWhileWiping,0
;   onlyWipeOutlines,1
;   avoidCrossingOutline,0
;   maxMovementDetourFactor,3
;   toolChangeRetractionDistance,12
;   toolChangeExtraRestartDistance,-0.5
;   toolChangeRetractionSpeed,600
;   externalThinWallType,0
;   internalThinWallType,2
;   thinWallAllowedOverlapPercentage,10
;   singleExtrusionMinLength,1
;   singleExtrusionMinPrintingWidthPercentage,50
;   singleExtrusionMaxPrintingWidthPercentage,200
;   singleExtrusionEndpointExtension,0.2
;   horizontalSizeCompensation,0
G90
M82
M106 S0
M140 S90
M190 S90
M104 S230 T0
M109 S230 T0
G28 ; home all axes
;G29
G1 X0 Y10 Z0.2 F3000 ; get ready to prime
G92 E0 ; reset extrusion distance
G1 X90 E20 Z-0.60 F600 ; prime nozzle
M117 Impression en cours  !!
G92 E0
G1 E-2.0000 F3600
G1 Z0.400 F1002
; process Process1
; layer 1, Z = 0.200
T0
; tool H0.200 W0.400
; skirt
G1 X63.808 Y76.905 F3000
G1 Z0.200 F1002
G1 E-0.2000 F1080
G92 E0
G1 X63.882 Y76.875 E0.0026 F1200
G1 X151.296 Y76.875 E2.9100
G1 X151.300 Y76.875 E2.9102
G1 X151.392 Y76.879 E2.9132
G1 X151.396 Y76.879 E2.9134
G1 X152.228 Y76.952 E2.9412
G1 X152.236 Y76.953 E2.9414
G1 X152.417 Y76.985 E2.9475
G1 X152.425 Y76.987 E2.9478
G1 X153.276 Y77.215 E2.9771
G1 X153.284 Y77.218 E2.9774
G1 X153.457 Y77.280 E2.9835
G1 X153.465 Y77.284 E2.9838
G1 X154.263 Y77.656 E3.0131
G1 X154.271 Y77.660 E3.0134
G1 X154.429 Y77.751 E3.0195
G1 X154.437 Y77.756 E3.0198
G1 X155.158 Y78.261 E3.0491
G1 X155.165 Y78.267 E3.0493
G1 X155.306 Y78.384 E3.0554
G1 X155.312 Y78.390 E3.0557
G1 X155.935 Y79.013 E3.0850
G1 X155.941 Y79.019 E3.0853
G1 X156.058 Y79.160 E3.0914
G1 X156.064 Y79.167 E3.0917
G1 X156.569 Y79.888 E3.1210
G1 X156.573 Y79.896 E3.1213
G1 X156.665 Y80.054 E3.1274
G1 X156.669 Y80.062 E3.1277
G1 X157.041 Y80.860 E3.1570
G1 X157.045 Y80.868 E3.1573
G1 X157.107 Y81.041 E3.1634
G1 X157.110 Y81.049 E3.1636
G1 X157.338 Y81.900 E3.1929
G1 X157.340 Y81.908 E3.1932
G1 X157.372 Y82.089 E3.1993
G1 X157.373 Y82.097 E3.1996
G1 X157.446 Y82.929 E3.2274
G1 X157.446 Y82.933 E3.2275
G1 X157.450 Y83.025 E3.2306
G1 X157.450 Y83.029 E3.2307
G1 X157.450 Y136.971 E5.0248
G1 X157.450 Y136.975 E5.0250
G1 X157.446 Y137.067 E5.0280
G1 X157.446 Y137.071 E5.0282
G1 X157.373 Y137.903 E5.0559
G1 X157.372 Y137.911 E5.0562
G1 X157.340 Y138.092 E5.0623
G1 X157.338 Y138.100 E5.0626
G1 X157.110 Y138.951 E5.0919
G1 X157.107 Y138.959 E5.0922
G1 X157.045 Y139.132 E5.0983
G1 X157.041 Y139.140 E5.0986
G1 X156.669 Y139.938 E5.1279
G1 X156.665 Y139.946 E5.1282
G1 X156.573 Y140.104 E5.1343
G1 X156.569 Y140.112 E5.1345
G1 X156.064 Y140.833 E5.1638
G1 X156.058 Y140.840 E5.1641
G1 X155.941 Y140.980 E5.1702
G1 X155.935 Y140.987 E5.1705
G1 X155.312 Y141.610 E5.1998
G1 X155.306 Y141.615 E5.2001
G1 X155.165 Y141.733 E5.2062
G1 X155.158 Y141.739 E5.2065
G1 X154.437 Y142.244 E5.2358
G1 X154.429 Y142.249 E5.2361
G1 X154.271 Y142.340 E5.2422
G1 X154.263 Y142.344 E5.2424
G1 X153.465 Y142.716 E5.2717
G1 X153.457 Y142.720 E5.2720
G1 X153.284 Y142.782 E5.2781
G1 X153.276 Y142.785 E5.2784
G1 X152.425 Y143.013 E5.3077
G1 X152.417 Y143.015 E5.3080
G1 X152.236 Y143.047 E5.3141
G1 X152.228 Y143.048 E5.3144
G1 X151.396 Y143.121 E5.3422
G1 X151.392 Y143.121 E5.3423
G1 X151.300 Y143.125 E5.3453
G1 X151.296 Y143.125 E5.3455
G1 X63.882 Y143.125 E8.2529
G1 X63.808 Y143.095 E8.2555
G1 X62.580 Y141.867 E8.3133
G1 X62.550 Y141.793 E8.3159
G1 X62.550 Y78.207 E10.4308
G1 X62.580 Y78.133 E10.4335
G1 X63.808 Y76.905 E10.4912
G92 E0
G1 E-2.0000 F3600
G1 Z0.400 F1002
; inner perimeter
G1 X66.150 Y80.475 F3000
G1 Z0.200 F1002
G1 E-0.2000 F3600
G92 E0
G1 X66.996 Y80.475 E0.0281 F900
G1 X67.087 Y80.701 E0.0363
G1 X66.368 Y81.386 E0.0693
G1 X66.150 Y81.292 E0.0772
G1 X66.150 Y80.475 E0.1043
G1 X72.910 Y80.719 F3000
G92 E0
G1 X72.994 Y80.475 E0.0086 F900
G1 X124.996 Y80.475 E1.7382
G1 X125.087 Y80.701 E1.7463
G1 X124.463 Y81.295 E1.7749
G1 X123.926 Y82.068 E1.8062
G1 X123.558 Y82.928 E1.8373
G1 X123.366 Y83.858 E1.8689
G1 X123.367 Y84.801 E1.9003
G1 X123.558 Y85.724 E1.9316
G1 X123.930 Y86.589 E1.9630
G1 X124.469 Y87.362 E1.9943
G1 X125.153 Y88.011 E2.0256
G1 X125.953 Y88.508 E2.0570
G1 X126.837 Y88.835 E2.0883
G1 X127.769 Y88.976 E2.1197
G1 X128.710 Y88.928 E2.1510
G1 X129.622 Y88.691 E2.1824
G1 X130.467 Y88.275 E2.2137
G1 X131.212 Y87.697 E2.2450
G1 X131.825 Y86.982 E2.2764
G1 X132.281 Y86.157 E2.3077
G1 X132.563 Y85.258 E2.3391
G1 X132.657 Y84.320 E2.3704
G1 X132.561 Y83.383 E2.4017
G1 X132.278 Y82.484 E2.4331
G1 X131.820 Y81.661 E2.4644
G1 X131.205 Y80.946 E2.4958
G1 X130.910 Y80.719 E2.5081
G1 X130.994 Y80.475 E2.5167
G1 X151.189 Y80.475 E3.1884
G1 X151.701 Y80.520 E3.2055
G1 X152.137 Y80.637 E3.2205
G1 X152.547 Y80.828 E3.2356
G1 X152.918 Y81.087 E3.2506
G1 X153.238 Y81.407 E3.2657
G1 X153.497 Y81.778 E3.2807
G1 X153.688 Y82.188 E3.2957
G1 X153.805 Y82.624 E3.3108
G1 X153.850 Y83.136 E3.3279
G1 X153.850 Y136.864 E5.1149
G1 X153.805 Y137.376 E5.1320
G1 X153.688 Y137.812 E5.1470
G1 X153.497 Y138.222 E5.1620
G1 X153.238 Y138.593 E5.1771
G1 X152.918 Y138.913 E5.1921
G1 X152.547 Y139.172 E5.2072
G1 X152.137 Y139.363 E5.2222
G1 X151.701 Y139.480 E5.2373
G1 X151.189 Y139.525 E5.2543
G1 X66.150 Y139.525 E8.0827
G1 X66.150 Y136.358 E8.1881
G1 X66.368 Y136.264 E8.1960
G1 X67.146 Y137.005 E8.2317
G1 X67.945 Y137.504 E8.2630
G1 X68.828 Y137.832 E8.2944
G1 X69.759 Y137.976 E8.3257
G1 X70.701 Y137.929 E8.3570
G1 X71.613 Y137.694 E8.3884
G1 X72.459 Y137.280 E8.4197
G1 X73.205 Y136.704 E8.4511
G1 X73.820 Y135.989 E8.4824
G1 X74.278 Y135.166 E8.5138
G1 X74.561 Y134.267 E8.5451
G1 X74.657 Y133.330 E8.5764
G1 X74.563 Y132.392 E8.6078
G1 X74.281 Y131.493 E8.6391
G1 X73.825 Y130.668 E8.6705
G1 X73.206 Y129.947 E8.7021
G1 X72.467 Y129.375 E8.7332
G1 X71.622 Y128.959 E8.7645
G1 X70.710 Y128.722 E8.7958
G1 X69.769 Y128.674 E8.8272
G1 X68.837 Y128.815 E8.8585
G1 X67.953 Y129.142 E8.8898
G1 X67.153 Y129.639 E8.9212
G1 X66.470 Y130.288 E8.9525
G1 X66.402 Y130.385 E8.9564
G1 X66.150 Y130.305 E8.9652
G1 X66.150 Y87.345 E10.3941
G1 X66.402 Y87.265 E10.4029
G1 X66.470 Y87.362 E10.4068
G1 X67.153 Y88.011 E10.4382
G1 X67.953 Y88.508 E10.4695
G1 X68.837 Y88.835 E10.5008
G1 X69.769 Y88.976 E10.5322
G1 X70.710 Y88.928 E10.5635
G1 X71.622 Y88.691 E10.5949
G1 X72.467 Y88.275 E10.6262
G1 X73.212 Y87.697 E10.6576
G1 X73.825 Y86.982 E10.6889
G1 X74.281 Y86.157 E10.7202
G1 X74.563 Y85.258 E10.7516
G1 X74.657 Y84.320 E10.7829
G1 X74.561 Y83.383 E10.8143
G1 X74.278 Y82.484 E10.8456
G1 X73.820 Y81.661 E10.8769
G1 X73.205 Y80.946 E10.9083
G1 X72.910 Y80.719 E10.9207
G92 E0
G1 E-2.0000 F3600
G1 Z0.400 F1002
G1 X94.145 Y107.434 F3000
G1 Z0.200 F1002
G1 E-0.2000 F3600
G92 E0
G1 X94.624 Y107.371 E0.0161 F900
G1 X95.206 Y107.130 E0.0370
G1 X95.706 Y106.747 E0.0580
G1 X96.000 Y106.363 E0.0741
G1 X96.294 Y106.747 E0.0901
G1 X96.794 Y107.130 E0.1111
G1 X97.376 Y107.371 E0.1320
G1 X97.855 Y107.434 E0.1481
G1 X97.670 Y107.881 E0.1642
G1 X97.588 Y108.505 E0.1851
G1 X97.670 Y109.130 E0.2061
G1 X97.855 Y109.576 E0.2222
G1 X97.376 Y109.640 E0.2383
G1 X96.794 Y109.881 E0.2592
G1 X96.294 Y110.264 E0.2801
G1 X96.000 Y110.648 E0.2962
G1 X95.706 Y110.264 E0.3123
G1 X95.206 Y109.881 E0.3333
G1 X94.624 Y109.640 E0.3542
G1 X94.145 Y109.576 E0.3703
G1 X94.330 Y109.130 E0.3864
G1 X94.412 Y108.505 E0.4073
G1 X94.330 Y107.881 E0.4283
G1 X94.145 Y107.434 E0.4443
G1 X94.000 Y107.050 F3000
G92 E0
G1 X94.520 Y106.981 E0.0174 F900
G1 X95.004 Y106.781 E0.0349
G1 X95.420 Y106.462 E0.0523
G1 X95.740 Y106.046 E0.0698
G1 X95.880 Y105.707 E0.0819
G1 X96.120 Y105.707 E0.0899
G1 X96.260 Y106.046 E0.1021
G1 X96.580 Y106.462 E0.1196
G1 X96.996 Y106.781 E0.1370
G1 X97.480 Y106.981 E0.1545
G1 X98.000 Y107.050 E0.1719
G1 X98.363 Y107.002 E0.1841
G1 X98.483 Y107.210 E0.1921
G1 X98.260 Y107.501 E0.2043
G1 X98.060 Y107.986 E0.2217
G1 X97.991 Y108.505 E0.2391
G1 X98.060 Y109.025 E0.2566
G1 X98.260 Y109.510 E0.2740
G1 X98.484 Y109.800 E0.2862
G1 X98.363 Y110.009 E0.2942
G1 X98.000 Y109.961 E0.3064
G1 X97.480 Y110.029 E0.3238
G1 X96.996 Y110.230 E0.3413
G1 X96.580 Y110.549 E0.3587
G1 X96.260 Y110.965 E0.3762
G1 X96.120 Y111.304 E0.3883
G1 X95.880 Y111.304 E0.3963
G1 X95.740 Y110.965 E0.4085
G1 X95.420 Y110.549 E0.4260
G1 X95.004 Y110.230 E0.4434
G1 X94.520 Y110.029 E0.4609
G1 X94.000 Y109.961 E0.4783
G1 X93.637 Y110.009 E0.4905
G1 X93.516 Y109.800 E0.4985
G1 X93.740 Y109.510 E0.5107
G1 X93.940 Y109.025 E0.5281
G1 X94.009 Y108.505 E0.5455
G1 X93.940 Y107.986 E0.5630
G1 X93.740 Y107.501 E0.5804
G1 X93.516 Y107.210 E0.5926
G1 X93.637 Y107.002 E0.6006
G1 X94.000 Y107.050 E0.6128
G92 E0
G1 E-2.0000 F3600
G1 Z0.400 F1002
G1 X89.292 Y102.507 F3000
G1 Z0.200 F1002
G1 E-0.2000 F3600
G92 E0
G1 X89.964 Y101.832 E0.0317 F900
G1 X90.702 Y101.231 E0.0633
G1 X91.501 Y100.712 E0.0950
G1 X92.349 Y100.281 E0.1267
G1 X93.239 Y99.941 E0.1583
G1 X94.159 Y99.697 E0.1900
G1 X96.000 Y99.413 E0.2520
G1 X97.841 Y99.697 E0.3139
G1 X98.761 Y99.941 E0.3456
G1 X99.651 Y100.281 E0.3772
G1 X100.499 Y100.712 E0.4089
G1 X101.298 Y101.231 E0.4406
G1 X102.036 Y101.832 E0.4722
G1 X102.708 Y102.507 E0.5039
G1 X103.874 Y103.959 E0.5659
G1 X104.549 Y105.695 E0.6278
G1 X104.798 Y106.614 E0.6595
G1 X104.948 Y107.555 E0.6912
G1 X104.999 Y108.505 E0.7228
G1 X104.948 Y109.456 E0.7545
G1 X104.798 Y110.396 E0.7862
G1 X104.549 Y111.315 E0.8178
G1 X103.874 Y113.052 E0.8798
G1 X102.708 Y114.504 E0.9417
G1 X102.036 Y115.179 E0.9734
G1 X101.298 Y115.779 E1.0051
G1 X100.499 Y116.298 E1.0367
G1 X99.651 Y116.730 E1.0684
G1 X98.761 Y117.070 E1.1001
G1 X97.841 Y117.314 E1.1317
G1 X96.000 Y117.598 E1.1937
G1 X94.159 Y117.314 E1.2556
G1 X93.239 Y117.070 E1.2873
G1 X92.349 Y116.730 E1.3190
G1 X91.501 Y116.298 E1.3506
G1 X90.702 Y115.779 E1.3823
G1 X89.964 Y115.179 E1.4140
G1 X89.292 Y114.504 E1.4457
G1 X88.126 Y113.052 E1.5076
G1 X87.451 Y111.315 E1.5696
G1 X87.202 Y110.396 E1.6012
G1 X87.052 Y109.456 E1.6329
G1 X87.001 Y108.505 E1.6646
G1 X87.052 Y107.555 E1.6962
G1 X87.202 Y106.614 E1.7279
G1 X87.451 Y105.695 E1.7596
G1 X88.126 Y103.959 E1.8215
G1 X89.292 Y102.507 E1.8835
G92 E0
G1 E-2.0000 F3600
G1 Z0.400 F1002
G1 X85.693 Y99.785 F3000
G1 Z0.200 F1002
G1 E-0.2000 F3600
G92 E0
G1 X84.223 Y101.706 E0.0805 F900
G1 X83.294 Y103.940 E0.1609
G1 X82.907 Y105.212 E0.2052
G1 X82.646 Y106.517 E0.2494
G1 X82.515 Y107.840 E0.2937
G1 X82.515 Y109.170 E0.3379
G1 X82.646 Y110.494 E0.3821
