; G-Code generated by Simplify3D(R) Version 4.0.1
; Oct 9, 2018 at 10:35:43 AM
; Settings Summary
;   processName,Process1
;   applyToModels,Winkel1
;   profileName,Anet A8-CommunauteFrancaise (modified)
;   profileVersion,2018-08-31 18:45:08
;   baseProfile,
;   printMaterial,ABS
;   printQuality,High
;   printExtruders,
;   extruderName,Primary Extruder
;   extruderToolheadNumber,0
;   extruderDiameter,0.4
;   extruderAutoWidth,0
;   extruderWidth,0.4
;   extrusionMultiplier,1
;   extruderUseRetract,1
;   extruderRetractionDistance,2
;   extruderExtraRestartDistance,-0.2
;   extruderRetractionZLift,0.2
;   extruderRetractionSpeed,3600
;   extruderUseCoasting,0
;   extruderCoastingDistance,0.2
;   extruderUseWipe,0
;   extruderWipeDistance,5
;   primaryExtruder,0
;   layerHeight,0.12
;   topSolidLayers,4
;   bottomSolidLayers,4
;   perimeterOutlines,4
;   printPerimetersInsideOut,1
;   startPointOption,2
;   startPointOriginX,0
;   startPointOriginY,500
;   sequentialIslands,0
;   spiralVaseMode,0
;   firstLayerHeightPercentage,100
;   firstLayerWidthPercentage,100
;   firstLayerUnderspeed,0.5
;   useRaft,0
;   raftExtruder,0
;   raftTopLayers,3
;   raftBaseLayers,2
;   raftOffset,3
;   raftSeparationDistance,0.14
;   raftTopInfill,100
;   aboveRaftSpeedMultiplier,0.3
;   useSkirt,1
;   skirtExtruder,0
;   skirtLayers,2
;   skirtOutlines,1
;   skirtOffset,2
;   usePrimePillar,0
;   primePillarExtruder,999
;   primePillarWidth,12
;   primePillarLocation,7
;   primePillarSpeedMultiplier,1
;   useOozeShield,0
;   oozeShieldExtruder,999
;   oozeShieldOffset,2
;   oozeShieldOutlines,1
;   oozeShieldSidewallShape,1
;   oozeShieldSidewallAngle,30
;   oozeShieldSpeedMultiplier,1
;   infillExtruder,0
;   internalInfillPattern,Rectilinear
;   externalInfillPattern,Rectilinear
;   infillPercentage,35
;   outlineOverlapPercentage,25
;   infillExtrusionWidthPercentage,100
;   minInfillLength,2
;   infillLayerInterval,1
;   internalInfillAngles,90,0
;   overlapInternalInfillAngles,0
;   externalInfillAngles,90,0
;   generateSupport,0
;   supportExtruder,0
;   supportInfillPercentage,40
;   supportExtraInflation,0
;   supportBaseLayers,0
;   denseSupportExtruder,0
;   denseSupportLayers,0
;   denseSupportInfillPercentage,60
;   supportLayerInterval,1
;   supportHorizontalPartOffset,0.3
;   supportUpperSeparationLayers,1
;   supportLowerSeparationLayers,1
;   supportType,0
;   supportGridSpacing,3
;   maxOverhangAngle,60
;   supportAngles,0
;   temperatureName,Primary Extruder,Heated Bed
;   temperatureNumber,0,0
;   temperatureSetpointCount,1,1
;   temperatureSetpointLayers,1,1
;   temperatureSetpointTemperatures,230,90
;   temperatureStabilizeAtStartup,1,1
;   temperatureHeatedBed,0,1
;   temperatureRelayBetweenLayers,0,0
;   temperatureRelayBetweenLoops,0,0
;   fanLayers,1
;   fanSpeeds,0
;   blipFanToFullPower,0
;   adjustSpeedForCooling,1
;   minSpeedLayerTime,15
;   minCoolingSpeedSlowdown,20
;   increaseFanForCooling,0
;   minFanLayerTime,45
;   maxCoolingFanSpeed,100
;   increaseFanForBridging,0
;   bridgingFanSpeed,100
;   use5D,1
;   relativeEdistances,0
;   allowEaxisZeroing,1
;   independentExtruderAxes,0
;   includeM10123,0
;   stickySupport,1
;   applyToolheadOffsets,0
;   gcodeXoffset,0
;   gcodeYoffset,0
;   gcodeZoffset,0
;   overrideMachineDefinition,1
;   machineTypeOverride,0
;   strokeXoverride,220
;   strokeYoverride,220
;   strokeZoverride,240
;   originOffsetXoverride,0
;   originOffsetYoverride,0
;   originOffsetZoverride,0
;   homeXdirOverride,-1
;   homeYdirOverride,-1
;   homeZdirOverride,-1
;   flipXoverride,1
;   flipYoverride,-1
;   flipZoverride,1
;   toolheadOffsets,0,0|0,0|0,0|0,0|0,0|0,0
;   overrideFirmwareConfiguration,1
;   firmwareTypeOverride,RepRap (Marlin/Repetier/Sprinter)
;   GPXconfigOverride,r2
;   baudRateOverride,115200
;   overridePrinterModels,1
;   printerModelsOverride
;   startingGcode,G28 ; home all axes,;G29,G1 X0 Y10 Z0.2 F3000 ; get ready to prime,G92 E0 ; reset extrusion distance,G1 X90 E20 Z-0.60 F600 ; prime nozzle,M117 Impression en cours  !!
;   layerChangeGcode,
;   retractionGcode,
;   toolChangeGcode,
;   endingGcode,M104 S0 ; turn off extruder,M140 S0 ; turn off bed,G1 X0 Y200 F1000 ; prepare for part removal,M84 ; disable motors,M117 c'est fini !!
;   exportFileFormat,gcode
;   celebration,0
;   celebrationSong,Star Wars
;   postProcessing,|;gcode:||; Use Simplify3D Gcode comments to display info for each layer||;{REPLACE "; layer" "M117 Layer"} ; Replace Simplify3D layer comments with display commands|;{REPLACE " Z = " " Z="} ; Delete spaces for more display space||; For filament change at the beginning of a particular layer:||; {REPLACE "\nM117 Layer <#>, Z=" "\nM600\nM117 Layer <#>, Z="}||; Forward toolpath file to Octoprint when saved:|;curl -k -H "X-Api-Key:95CF4E9979984CF1ACDD88DF2F202262" -F "select=true" -F "print=true" -F "file=@[output_filepath]" "http://192.168.1.126/api/files/local"
;   defaultSpeed,2400
;   outlineUnderspeed,0.5
;   solidInfillUnderspeed,0.8
;   supportUnderspeed,0.8
;   rapidXYspeed,3000
;   rapidZspeed,1002
;   minBridgingArea,50
;   bridgingExtraInflation,0
;   bridgingExtrusionMultiplier,1
;   bridgingSpeedMultiplier,1
;   useFixedBridgingAngle,0
;   fixedBridgingAngle,0
;   applyBridgingToPerimeters,0
;   filamentDiameters,1.75|1.75|1.75|1.75|1.75|1.75
;   filamentPricesPerKg,16|46|46|46|46|46
;   filamentDensities,1.25|1.25|1.25|1.25|1.25|1.25
;   useMinPrintHeight,0
;   minPrintHeight,0
;   useMaxPrintHeight,0
;   maxPrintHeight,0
;   useDiaphragm,0
;   diaphragmLayerInterval,20
;   robustSlicing,1
;   mergeAllIntoSolid,0
;   onlyRetractWhenCrossingOutline,1
;   retractBetweenLayers,1
;   useRetractionMinTravel,0
;   retractionMinTravel,3
;   retractWhileWiping,0
;   onlyWipeOutlines,1
;   avoidCrossingOutline,0
;   maxMovementDetourFactor,3
;   toolChangeRetractionDistance,12
;   toolChangeExtraRestartDistance,-0.5
;   toolChangeRetractionSpeed,600
;   externalThinWallType,0
;   internalThinWallType,2
;   thinWallAllowedOverlapPercentage,10
;   singleExtrusionMinLength,1
;   singleExtrusionMinPrintingWidthPercentage,50
;   singleExtrusionMaxPrintingWidthPercentage,200
;   singleExtrusionEndpointExtension,0.2
;   horizontalSizeCompensation,0
G90
M82
M106 S0
M140 S90
M190 S90
M104 S230 T0
M109 S230 T0
G28 ; home all axes
;G29
G1 X0 Y10 Z0.2 F3000 ; get ready to prime
G92 E0 ; reset extrusion distance
G1 X90 E20 Z-0.60 F600 ; prime nozzle
M117 Impression en cours  !!
G92 E0
G1 E-2.0000 F3600
G1 Z0.320 F1002
; process Process1
; layer 1, Z = 0.120
T0
; tool H0.120 W0.400
; skirt
G1 X88.830 Y90.058 F3000
G1 Z0.120 F1002
G1 E-0.2000 F1080
G92 E0
G1 X90.058 Y88.830 E0.0347 F1200
G1 X90.132 Y88.800 E0.0362
G1 X124.059 Y88.800 E0.7133
G1 X124.065 Y88.800 E0.7134
G1 X124.182 Y88.807 E0.7158
G1 X124.188 Y88.807 E0.7159
G1 X125.476 Y88.952 E0.7417
G1 X125.487 Y88.954 E0.7420
G1 X125.717 Y89.007 E0.7467
G1 X125.728 Y89.010 E0.7469
G1 X127.007 Y89.458 E0.7739
G1 X127.018 Y89.462 E0.7742
G1 X127.230 Y89.564 E0.7789
G1 X127.240 Y89.570 E0.7791
G1 X128.388 Y90.291 E0.8062
G1 X128.397 Y90.297 E0.8064
G1 X128.581 Y90.444 E0.8111
G1 X128.590 Y90.452 E0.8113
G1 X129.548 Y91.410 E0.8384
G1 X129.556 Y91.419 E0.8386
G1 X129.703 Y91.603 E0.8433
G1 X129.709 Y91.612 E0.8435
G1 X130.430 Y92.760 E0.8706
G1 X130.436 Y92.770 E0.8708
G1 X130.538 Y92.982 E0.8755
G1 X130.542 Y92.993 E0.8757
G1 X130.990 Y94.272 E0.9028
G1 X130.993 Y94.283 E0.9030
G1 X131.046 Y94.513 E0.9077
G1 X131.048 Y94.524 E0.9079
G1 X131.193 Y95.812 E0.9338
G1 X131.193 Y95.818 E0.9339
G1 X131.200 Y95.935 E0.9363
G1 X131.200 Y95.941 E0.9364
G1 X131.200 Y124.059 E1.4975
G1 X131.200 Y124.065 E1.4976
G1 X131.193 Y124.182 E1.5000
G1 X131.193 Y124.188 E1.5001
G1 X131.048 Y125.476 E1.5259
G1 X131.046 Y125.487 E1.5262
G1 X130.993 Y125.717 E1.5309
G1 X130.990 Y125.728 E1.5311
G1 X130.542 Y127.007 E1.5581
G1 X130.538 Y127.018 E1.5584
G1 X130.436 Y127.230 E1.5631
G1 X130.430 Y127.240 E1.5633
G1 X129.709 Y128.388 E1.5904
G1 X129.703 Y128.397 E1.5906
G1 X129.556 Y128.581 E1.5953
G1 X129.548 Y128.590 E1.5955
G1 X128.590 Y129.548 E1.6226
G1 X128.581 Y129.556 E1.6228
G1 X128.397 Y129.703 E1.6275
G1 X128.388 Y129.709 E1.6277
G1 X127.240 Y130.430 E1.6548
G1 X127.230 Y130.436 E1.6550
G1 X127.018 Y130.538 E1.6597
G1 X127.007 Y130.542 E1.6599
G1 X125.728 Y130.990 E1.6870
G1 X125.717 Y130.993 E1.6872
G1 X125.487 Y131.046 E1.6919
G1 X125.476 Y131.048 E1.6921
G1 X124.188 Y131.193 E1.7180
G1 X124.182 Y131.193 E1.7181
G1 X124.065 Y131.200 E1.7205
G1 X124.059 Y131.200 E1.7206
G1 X90.132 Y131.200 E2.3976
G1 X90.058 Y131.170 E2.3992
G1 X88.830 Y129.942 E2.4339
G1 X88.800 Y129.868 E2.4355
G1 X88.800 Y90.132 E3.2284
G1 X88.830 Y90.058 E3.2300
G92 E0
G1 E-2.0000 F3600
G1 Z0.320 F1002
; inner perimeter
G1 X92.400 Y92.400 F3000
G1 Z0.120 F1002
G1 E-0.2000 F3600
G92 E0
G1 X123.921 Y92.400 E0.6290 F900
G1 X124.799 Y92.499 E0.6467
G1 X125.558 Y92.764 E0.6627
G1 X126.239 Y93.192 E0.6788
G1 X126.808 Y93.761 E0.6948
G1 X127.236 Y94.442 E0.7109
G1 X127.501 Y95.201 E0.7269
G1 X127.600 Y96.079 E0.7445
G1 X127.600 Y123.921 E1.3002
G1 X127.501 Y124.799 E1.3178
G1 X127.236 Y125.558 E1.3338
G1 X126.808 Y126.239 E1.3499
G1 X126.239 Y126.808 E1.3659
G1 X125.558 Y127.236 E1.3820
G1 X124.799 Y127.501 E1.3980
G1 X123.921 Y127.600 E1.4157
G1 X92.400 Y127.600 E2.0447
G1 X92.400 Y92.400 E2.7472
G1 X92.000 Y92.000 F3000
G92 E0
G1 X123.944 Y92.000 E0.6375 F900
G1 X124.889 Y92.106 E0.6564
G1 X125.733 Y92.402 E0.6743
G1 X126.490 Y92.878 E0.6921
G1 X127.122 Y93.510 E0.7100
G1 X127.598 Y94.267 E0.7278
G1 X127.894 Y95.111 E0.7457
G1 X128.000 Y96.056 E0.7647
G1 X128.000 Y123.944 E1.3212
G1 X127.894 Y124.889 E1.3402
G1 X127.598 Y125.733 E1.3580
G1 X127.122 Y126.490 E1.3759
G1 X126.490 Y127.122 E1.3937
G1 X125.733 Y127.598 E1.4115
G1 X124.889 Y127.894 E1.4294
G1 X123.944 Y128.000 E1.4484
G1 X92.000 Y128.000 E2.0858
G1 X92.000 Y92.000 E2.8043
G1 X91.600 Y91.600 F3000
G92 E0
G1 X123.966 Y91.600 E0.6459 F900
G1 X124.978 Y91.714 E0.6662
G1 X125.907 Y92.039 E0.6859
G1 X126.741 Y92.563 E0.7055
G1 X127.437 Y93.259 E0.7252
G1 X127.961 Y94.093 E0.7448
G1 X128.286 Y95.022 E0.7645
G1 X128.400 Y96.034 E0.7848
G1 X128.400 Y123.966 E1.3422
G1 X128.286 Y124.978 E1.3625
G1 X127.961 Y125.907 E1.3822
G1 X127.437 Y126.741 E1.4018
G1 X126.741 Y127.437 E1.4215
G1 X125.907 Y127.961 E1.4411
G1 X124.978 Y128.286 E1.4608
G1 X123.966 Y128.400 E1.4811
G1 X91.600 Y128.400 E2.1270
G1 X91.600 Y91.600 E2.8614
; outer perimeter
G1 X91.200 Y91.200 F3000
G92 E0
G1 X123.989 Y91.200 E0.6543 F600
G1 X125.068 Y91.322 E0.6760
G1 X126.082 Y91.677 E0.6974
G1 X126.992 Y92.248 E0.7189
G1 X127.752 Y93.008 E0.7403
G1 X128.324 Y93.918 E0.7618
G1 X128.678 Y94.932 E0.7832
G1 X128.800 Y96.011 E0.8049
G1 X128.800 Y123.989 E1.3632
G1 X128.678 Y125.068 E1.3849
G1 X128.324 Y126.082 E1.4063
G1 X127.752 Y126.992 E1.4278
G1 X126.992 Y127.752 E1.4492
G1 X126.082 Y128.324 E1.4707
G1 X125.068 Y128.678 E1.4921
G1 X123.989 Y128.800 E1.5138
G1 X91.200 Y128.800 E2.1681
G1 X91.200 Y91.200 E2.9185
; inner perimeter
G1 X102.566 Y98.979 F3000
G92 E0
G1 X102.275 Y99.748 E0.0164 F900
G1 X102.176 Y100.564 E0.0328
G1 X102.275 Y101.380 E0.0492
G1 X102.566 Y102.149 E0.0656
G1 X103.034 Y102.826 E0.0820
G1 X103.649 Y103.371 E0.0984
G1 X104.377 Y103.753 E0.1148
G1 X105.175 Y103.950 E0.1313
G1 X105.997 Y103.950 E0.1477
G1 X106.795 Y103.753 E0.1641
G1 X107.523 Y103.371 E0.1805
G1 X108.139 Y102.826 E0.1969
G1 X108.606 Y102.149 E0.2133
G1 X108.897 Y101.380 E0.2297
G1 X108.996 Y100.564 E0.2461
G1 X108.897 Y99.748 E0.2625
G1 X108.606 Y98.979 E0.2789
G1 X108.139 Y98.303 E0.2953
G1 X107.523 Y97.758 E0.3117
G1 X106.795 Y97.376 E0.3281
G1 X105.997 Y97.179 E0.3445
G1 X105.175 Y97.179 E0.3609
G1 X104.377 Y97.376 E0.3773
G1 X103.649 Y97.758 E0.3938
G1 X103.034 Y98.303 E0.4102
G1 X102.566 Y98.979 E0.4266
G1 X102.923 Y99.167 F3000
G92 E0
G1 X102.666 Y99.844 E0.0145 F900
G1 X102.579 Y100.564 E0.0289
G1 X102.666 Y101.284 E0.0434
G1 X102.923 Y101.962 E0.0579
G1 X103.335 Y102.558 E0.0723
G1 X103.878 Y103.039 E0.0868
G1 X104.520 Y103.376 E0.1013
G1 X105.224 Y103.550 E0.1157
G1 X105.949 Y103.550 E0.1302
G1 X106.653 Y103.376 E0.1447
G1 X107.295 Y103.039 E0.1591
G1 X107.837 Y102.558 E0.1736
G1 X108.249 Y101.962 E0.1881
G1 X108.506 Y101.284 E0.2026
G1 X108.593 Y100.564 E0.2170
G1 X108.506 Y99.844 E0.2315
G1 X108.249 Y99.167 E0.2460
G1 X107.837 Y98.570 E0.2604
G1 X107.295 Y98.089 E0.2749
G1 X106.653 Y97.752 E0.2894
G1 X105.949 Y97.579 E0.3038
G1 X105.224 Y97.579 E0.3183
G1 X104.520 Y97.752 E0.3328
G1 X103.878 Y98.089 E0.3472
G1 X103.335 Y98.570 E0.3617
G1 X102.923 Y99.167 E0.3762
G1 X103.280 Y99.354 F3000
G92 E0
G1 X103.057 Y99.941 E0.0125 F900
G1 X102.982 Y100.564 E0.0251
G1 X103.057 Y101.187 E0.0376
G1 X103.280 Y101.774 E0.0501
G1 X103.637 Y102.291 E0.0626
G1 X104.107 Y102.708 E0.0752
G1 X104.663 Y102.999 E0.0877
G1 X105.272 Y103.150 E0.1002
G1 X105.900 Y103.150 E0.1128
G1 X106.510 Y102.999 E0.1253
G1 X107.066 Y102.708 E0.1378
G1 X107.536 Y102.291 E0.1504
G1 X107.892 Y101.774 E0.1629
G1 X108.115 Y101.187 E0.1754
G1 X108.191 Y100.564 E0.1879
G1 X108.115 Y99.941 E0.2005
G1 X107.892 Y99.354 E0.2130
G1 X107.536 Y98.837 E0.2255
G1 X107.066 Y98.421 E0.2381
G1 X106.510 Y98.129 E0.2506
G1 X105.900 Y97.979 E0.2631
G1 X105.272 Y97.979 E0.2756
G1 X104.663 Y98.129 E0.2882
G1 X104.107 Y98.421 E0.3007
G1 X103.637 Y98.837 E0.3132
G1 X103.280 Y99.354 E0.3258
; outer perimeter
G1 X103.637 Y99.541 F3000
G92 E0
G1 X103.449 Y100.037 E0.0106 F600
G1 X103.385 Y100.564 E0.0212
G1 X103.449 Y101.091 E0.0318
G1 X103.637 Y101.587 E0.0424
G1 X103.938 Y102.024 E0.0530
G1 X104.336 Y102.376 E0.0635
G1 X104.805 Y102.623 E0.0741
G1 X105.321 Y102.750 E0.0847
G1 X105.851 Y102.750 E0.0953
G1 X106.367 Y102.623 E0.1059
G1 X106.837 Y102.376 E0.1165
G1 X107.234 Y102.024 E0.1271
G1 X107.535 Y101.587 E0.1377
G1 X107.724 Y101.091 E0.1483
G1 X107.788 Y100.564 E0.1589
G1 X107.724 Y100.037 E0.1695
G1 X107.535 Y99.541 E0.1800
G1 X107.234 Y99.104 E0.1906
G1 X106.837 Y98.752 E0.2012
G1 X106.367 Y98.506 E0.2118
G1 X105.851 Y98.379 E0.2224
G1 X105.321 Y98.379 E0.2330
G1 X104.805 Y98.506 E0.2436
G1 X104.336 Y98.752 E0.2542
G1 X103.938 Y99.104 E0.2648
G1 X103.637 Y99.541 E0.2754
G92 E0
G1 E-2.0000 F3600
G1 Z0.320 F1002
; inner perimeter
G1 X117.004 Y100.564 F3000
G1 Z0.120 F1002
G1 E-0.2000 F3600
G92 E0
G1 X117.103 Y101.380 E0.0164 F900
G1 X117.394 Y102.149 E0.0328
G1 X117.861 Y102.826 E0.0492
G1 X118.477 Y103.371 E0.0656
G1 X119.205 Y103.753 E0.0820
G1 X120.003 Y103.950 E0.0984
G1 X120.825 Y103.950 E0.1148
G1 X121.623 Y103.753 E0.1313
G1 X122.351 Y103.371 E0.1477
G1 X122.966 Y102.826 E0.1641
G1 X123.434 Y102.149 E0.1805
G1 X123.725 Y101.380 E0.1969
G1 X123.824 Y100.564 E0.2133
G1 X123.725 Y99.748 E0.2297
G1 X123.434 Y98.979 E0.2461
G1 X122.966 Y98.303 E0.2625
G1 X122.351 Y97.758 E0.2789
G1 X121.623 Y97.376 E0.2953
G1 X120.825 Y97.179 E0.3117
G1 X120.003 Y97.179 E0.3281
G1 X119.205 Y97.376 E0.3445
G1 X118.477 Y97.758 E0.3609
G1 X117.861 Y98.303 E0.3773
G1 X117.394 Y98.979 E0.3938
G1 X117.103 Y99.748 E0.4102
G1 X117.004 Y100.564 E0.4266
G1 X117.407 Y100.564 F3000
G92 E0
G1 X117.494 Y101.284 E0.0145 F900
G1 X117.751 Y101.962 E0.0289
G1 X118.163 Y102.558 E0.0434
G1 X118.705 Y103.039 E0.0579
G1 X119.347 Y103.376 E0.0723
G1 X120.051 Y103.550 E0.0868
G1 X120.776 Y103.550 E0.1013
G1 X121.480 Y103.376 E0.1157
G1 X122.122 Y103.039 E0.1302
G1 X122.665 Y102.558 E0.1447
G1 X123.077 Y101.962 E0.1591
G1 X123.334 Y101.284 E0.1736
G1 X123.421 Y100.564 E0.1881
G1 X123.334 Y99.844 E0.2026
G1 X123.077 Y99.167 E0.2170
G1 X122.665 Y98.570 E0.2315
G1 X122.122 Y98.089 E0.2460
G1 X121.480 Y97.752 E0.2604
G1 X120.776 Y97.579 E0.2749
G1 X120.051 Y97.579 E0.2894
G1 X119.347 Y97.752 E0.3038
G1 X118.705 Y98.089 E0.3183
G1 X118.163 Y98.570 E0.3328
G1 X117.751 Y99.167 E0.3472
G1 X117.494 Y99.844 E0.3617
G1 X117.407 Y100.564 E0.3762
G1 X117.809 Y100.564 F3000
G92 E0
G1 X117.885 Y101.187 E0.0125 F900
G1 X118.108 Y101.774 E0.0251
G1 X118.464 Y102.291 E0.0376
G1 X118.934 Y102.708 E0.0501
