; G-Code generated by Simplify3D(R) Version 4.0.1
; Oct 22, 2018 at 9:18:50 AM
; Settings Summary
;   processName,Process1
;   applyToModels,1_LCD_Base_Left,1_LCD_Base_Right
;   profileName,Anet A8-CommunauteFrancaise (modified)
;   profileVersion,2018-08-31 18:45:08
;   baseProfile,
;   printMaterial,ABS
;   printQuality,Medium
;   printExtruders,
;   extruderName,Primary Extruder
;   extruderToolheadNumber,0
;   extruderDiameter,0.4
;   extruderAutoWidth,0
;   extruderWidth,0.4
;   extrusionMultiplier,1
;   extruderUseRetract,1
;   extruderRetractionDistance,2
;   extruderExtraRestartDistance,-0.2
;   extruderRetractionZLift,0.2
;   extruderRetractionSpeed,3600
;   extruderUseCoasting,0
;   extruderCoastingDistance,0.2
;   extruderUseWipe,0
;   extruderWipeDistance,5
;   primaryExtruder,0
;   layerHeight,0.2
;   topSolidLayers,5
;   bottomSolidLayers,5
;   perimeterOutlines,4
;   printPerimetersInsideOut,1
;   startPointOption,2
;   startPointOriginX,0
;   startPointOriginY,500
;   sequentialIslands,0
;   spiralVaseMode,0
;   firstLayerHeightPercentage,100
;   firstLayerWidthPercentage,100
;   firstLayerUnderspeed,0.5
;   useRaft,0
;   raftExtruder,0
;   raftTopLayers,3
;   raftBaseLayers,2
;   raftOffset,3
;   raftSeparationDistance,0.14
;   raftTopInfill,100
;   aboveRaftSpeedMultiplier,0.3
;   useSkirt,1
;   skirtExtruder,0
;   skirtLayers,2
;   skirtOutlines,1
;   skirtOffset,2
;   usePrimePillar,0
;   primePillarExtruder,999
;   primePillarWidth,12
;   primePillarLocation,7
;   primePillarSpeedMultiplier,1
;   useOozeShield,0
;   oozeShieldExtruder,999
;   oozeShieldOffset,2
;   oozeShieldOutlines,1
;   oozeShieldSidewallShape,1
;   oozeShieldSidewallAngle,30
;   oozeShieldSpeedMultiplier,1
;   infillExtruder,0
;   internalInfillPattern,Rectilinear
;   externalInfillPattern,Rectilinear
;   infillPercentage,40
;   outlineOverlapPercentage,40
;   infillExtrusionWidthPercentage,100
;   minInfillLength,2
;   infillLayerInterval,1
;   internalInfillAngles,90,0
;   overlapInternalInfillAngles,0
;   externalInfillAngles,90,0
;   generateSupport,1
;   supportExtruder,0
;   supportInfillPercentage,30
;   supportExtraInflation,0
;   supportBaseLayers,0
;   denseSupportExtruder,0
;   denseSupportLayers,0
;   denseSupportInfillPercentage,60
;   supportLayerInterval,1
;   supportHorizontalPartOffset,0.3
;   supportUpperSeparationLayers,1
;   supportLowerSeparationLayers,1
;   supportType,0
;   supportGridSpacing,1
;   maxOverhangAngle,60
;   supportAngles,0
;   temperatureName,Primary Extruder,Heated Bed
;   temperatureNumber,0,0
;   temperatureSetpointCount,1,1
;   temperatureSetpointLayers,1,1
;   temperatureSetpointTemperatures,230,100
;   temperatureStabilizeAtStartup,1,1
;   temperatureHeatedBed,0,1
;   temperatureRelayBetweenLayers,0,0
;   temperatureRelayBetweenLoops,0,0
;   fanLayers,1
;   fanSpeeds,0
;   blipFanToFullPower,0
;   adjustSpeedForCooling,1
;   minSpeedLayerTime,15
;   minCoolingSpeedSlowdown,20
;   increaseFanForCooling,0
;   minFanLayerTime,45
;   maxCoolingFanSpeed,100
;   increaseFanForBridging,0
;   bridgingFanSpeed,100
;   use5D,1
;   relativeEdistances,0
;   allowEaxisZeroing,1
;   independentExtruderAxes,0
;   includeM10123,0
;   stickySupport,1
;   applyToolheadOffsets,0
;   gcodeXoffset,0
;   gcodeYoffset,0
;   gcodeZoffset,0
;   overrideMachineDefinition,1
;   machineTypeOverride,0
;   strokeXoverride,220
;   strokeYoverride,220
;   strokeZoverride,240
;   originOffsetXoverride,0
;   originOffsetYoverride,0
;   originOffsetZoverride,0
;   homeXdirOverride,-1
;   homeYdirOverride,-1
;   homeZdirOverride,-1
;   flipXoverride,1
;   flipYoverride,-1
;   flipZoverride,1
;   toolheadOffsets,0,0|0,0|0,0|0,0|0,0|0,0
;   overrideFirmwareConfiguration,1
;   firmwareTypeOverride,RepRap (Marlin/Repetier/Sprinter)
;   GPXconfigOverride,r2
;   baudRateOverride,115200
;   overridePrinterModels,1
;   printerModelsOverride
;   startingGcode,G28 ; home all axes,;G29,G1 X0 Y10 Z0.2 F3000 ; get ready to prime,G92 E0 ; reset extrusion distance,G1 X90 E20 Z-0.60 F600 ; prime nozzle,M117 Impression en cours...,
;   layerChangeGcode,
;   retractionGcode,
;   toolChangeGcode,
;   endingGcode,M104 S0 ; turn off extruder,M140 S0 ; turn off bed,G1 X0 Y200 F1000 ; prepare for part removal,M84 ; disable motors,M117 c'est fini !!
;   exportFileFormat,gcode
;   celebration,0
;   celebrationSong,Star Wars
;   postProcessing,|;gcode:||; Use Simplify3D Gcode comments to display info for each layer||;{REPLACE "; layer" "M117 Layer"} ; Replace Simplify3D layer comments with display commands|;{REPLACE " Z = " " Z="} ; Delete spaces for more display space||; For filament change at the beginning of a particular layer:||; {REPLACE "\nM117 Layer <#>, Z=" "\nM600\nM117 Layer <#>, Z="}||; Forward toolpath file to Octoprint when saved:|;curl -k -H "X-Api-Key:95CF4E9979984CF1ACDD88DF2F202262" -F "select=true" -F "print=true" -F "file=@[output_filepath]" "http://192.168.1.126/api/files/local"
;   defaultSpeed,2100
;   outlineUnderspeed,0.5
;   solidInfillUnderspeed,0.8
;   supportUnderspeed,0.8
;   rapidXYspeed,3000
;   rapidZspeed,1002
;   minBridgingArea,50
;   bridgingExtraInflation,0
;   bridgingExtrusionMultiplier,1
;   bridgingSpeedMultiplier,1
;   useFixedBridgingAngle,0
;   fixedBridgingAngle,0
;   applyBridgingToPerimeters,0
;   filamentDiameters,1.75|1.75|1.75|1.75|1.75|1.75
;   filamentPricesPerKg,16|46|46|46|46|46
;   filamentDensities,1.25|1.25|1.25|1.25|1.25|1.25
;   useMinPrintHeight,0
;   minPrintHeight,0
;   useMaxPrintHeight,0
;   maxPrintHeight,0
;   useDiaphragm,0
;   diaphragmLayerInterval,20
;   robustSlicing,1
;   mergeAllIntoSolid,0
;   onlyRetractWhenCrossingOutline,1
;   retractBetweenLayers,0
;   useRetractionMinTravel,0
;   retractionMinTravel,3
;   retractWhileWiping,1
;   onlyWipeOutlines,1
;   avoidCrossingOutline,1
;   maxMovementDetourFactor,3
;   toolChangeRetractionDistance,12
;   toolChangeExtraRestartDistance,-0.5
;   toolChangeRetractionSpeed,600
;   externalThinWallType,0
;   internalThinWallType,2
;   thinWallAllowedOverlapPercentage,10
;   singleExtrusionMinLength,1
;   singleExtrusionMinPrintingWidthPercentage,50
;   singleExtrusionMaxPrintingWidthPercentage,200
;   singleExtrusionEndpointExtension,0.2
;   horizontalSizeCompensation,0
G90
M82
M106 S0
M140 S90
M190 S90
M104 S230 T0
M109 S230 T0
G28 ; home all axes
;G29
G1 X0 Y10 Z0.2 F3000 ; get ready to prime
G92 E0 ; reset extrusion distance
G1 X90 E20 Z-0.60 F600 ; prime nozzle
M117 Impression en cours...
G92 E0
G1 E-2.0000 F3600
G1 Z0.400 F1002
; process Process1
; layer 1, Z = 0.200
T0
; tool H0.200 W0.400
; skirt
G1 X79.582 Y57.061 F3000
G1 Z0.200 F1002
G1 E-0.2000 F1080
G92 E0
G1 X80.810 Y55.833 E0.0578 F1050
G1 X80.883 Y55.803 E0.0604
G1 X139.646 Y55.803 E2.0149
G1 X139.747 Y55.870 E2.0189
G1 X140.816 Y58.451 E2.1118
G1 X140.792 Y58.570 E2.1159
G1 X127.877 Y71.486 E2.7234
G1 X127.803 Y71.516 E2.7260
G1 X126.067 Y71.516 E2.7838
G1 X125.993 Y71.486 E2.7864
G1 X121.278 Y66.771 E3.0082
G1 X98.226 Y89.822 E4.0925
G1 X102.942 Y94.537 E4.3143
G1 X102.972 Y94.611 E4.3169
G1 X102.972 Y96.347 E4.3747
G1 X102.942 Y96.421 E4.3773
G1 X90.012 Y109.351 E4.9855
G1 X89.979 Y109.373 E4.9868
G1 X89.207 Y109.692 E5.0146
G1 X89.169 Y109.700 E5.0159
G1 X80.883 Y109.700 E5.2915
G1 X80.810 Y109.670 E5.2941
G1 X79.582 Y108.442 E5.3519
G1 X79.551 Y108.368 E5.3545
G1 X79.551 Y57.134 E7.0586
G1 X79.582 Y57.061 E7.0612
G1 X80.883 Y110.300 F3000
G92 E0
G1 X89.169 Y110.300 E0.2756 F1050
G1 X89.207 Y110.308 E0.2769
G1 X89.979 Y110.627 E0.3047
G1 X90.012 Y110.649 E0.3060
G1 X102.942 Y123.579 E0.9142
G1 X102.972 Y123.653 E0.9168
G1 X102.972 Y125.389 E0.9746
G1 X102.942 Y125.463 E0.9772
G1 X98.226 Y130.178 E1.1990
G1 X121.278 Y153.229 E2.2833
G1 X125.993 Y148.514 E2.5051
G1 X126.067 Y148.484 E2.5077
G1 X127.803 Y148.484 E2.5655
G1 X127.877 Y148.514 E2.5681
G1 X140.792 Y161.430 E3.1756
G1 X140.816 Y161.549 E3.1796
G1 X139.747 Y164.130 E3.2726
G1 X139.646 Y164.197 E3.2766
G1 X80.883 Y164.197 E5.2311
G1 X80.810 Y164.167 E5.2337
G1 X79.582 Y162.939 E5.2915
G1 X79.551 Y162.866 E5.2941
G1 X79.551 Y111.632 E6.9982
G1 X79.582 Y111.558 E7.0008
G1 X80.810 Y110.330 E7.0586
G1 X80.883 Y110.300 E7.0612
G92 E0
G1 E-2.0000 F3600
G1 Z0.400 F1002
; inner perimeter
G1 X81.947 Y112.696 F3000
G1 X82.393 Y112.696 F3000
G1 X83.151 Y113.900 F3000
G1 Z0.200 F1002
G1 E-0.2000 F3600
G92 E0
G1 X88.171 Y113.900 E0.1670 F788
G1 X91.721 Y117.450 E0.3339
G1 X88.186 Y120.985 E0.5002
G1 X94.408 Y127.208 E0.7929
G1 X97.944 Y123.672 E0.9592
G1 X98.792 Y124.521 E0.9991
G1 X93.135 Y130.178 E1.2652
G1 X121.278 Y158.321 E2.5890
G1 X126.935 Y152.664 E2.8551
G1 X127.784 Y153.512 E2.8950
G1 X124.248 Y157.048 E3.0613
G1 X127.576 Y160.375 E3.2178
G1 X127.483 Y160.597 E3.2258
G1 X83.151 Y160.597 E4.7003
G1 X83.151 Y113.900 E6.2534
G1 X90.330 Y120.544 F3000
G1 X89.888 Y120.985 F3000
G1 X94.408 Y125.505 F3000
G1 X95.024 Y124.889 F3000
G1 X97.674 Y127.342 F3000
G1 X94.838 Y130.178 F3000
G1 X121.278 Y156.618 F3000
G1 X125.137 Y152.759 F3000
G1 X127.787 Y155.212 F3000
G1 X128.703 Y154.296 F3000
G1 X133.223 Y158.815 F3000
G1 X132.481 Y159.557 F3000
G1 X133.366 Y160.375 F3000
G92 E0
G1 X134.006 Y159.735 E0.0301 F788
G1 X134.647 Y160.375 E0.0603
G1 X134.555 Y160.597 E0.0683
G1 X133.458 Y160.597 E0.1047
G1 X133.366 Y160.375 E0.1127
G1 X132.400 Y160.775 F3000
G92 E0
G1 X134.006 Y159.169 E0.0756 F788
G1 X135.612 Y160.775 E0.1511
G1 X135.520 Y160.997 E0.1591
G1 X132.492 Y160.997 E0.2598
G1 X132.400 Y160.775 E0.2678
G1 X131.263 Y160.775 F3000
G1 X130.471 Y161.568 F3000
G1 X129.678 Y160.775 F3000
G1 X128.541 Y160.775 F3000
G92 E0
G1 X128.449 Y160.997 E0.0080 F788
G1 X82.751 Y160.997 E1.5279
G1 X82.751 Y113.500 E3.1077
G1 X88.337 Y113.500 E3.2935
G1 X92.287 Y117.450 E3.4793
G1 X88.751 Y120.985 E3.6456
G1 X94.408 Y126.642 E3.9116
G1 X97.944 Y123.107 E4.0779
G1 X99.358 Y124.521 E4.1445
G1 X93.701 Y130.178 E4.4105
G1 X121.278 Y157.755 E5.7077
G1 X126.935 Y152.098 E5.9738
G1 X128.349 Y153.512 E6.0403
G1 X124.814 Y157.048 E6.2066
G1 X128.541 Y160.775 E6.3819
G1 X129.507 Y161.175 F3000
G92 E0
G1 X129.415 Y161.397 E0.0080 F788
G1 X82.351 Y161.397 E1.5733
G1 X82.351 Y113.100 E3.1797
G1 X88.503 Y113.100 E3.3843
G1 X92.852 Y117.450 E3.5889
G1 X89.317 Y120.985 E3.7552
G1 X94.408 Y126.076 E3.9947
G1 X97.944 Y122.541 E4.1610
G1 X99.924 Y124.521 E4.2541
G1 X94.267 Y130.178 E4.5202
G1 X121.278 Y157.189 E5.7907
G1 X126.935 Y151.532 E6.0568
G1 X128.915 Y153.512 E6.1499
G1 X125.379 Y157.048 E6.3162
G1 X129.507 Y161.175 E6.5104
G1 X130.078 Y161.175 F3000
G1 X130.471 Y161.568 F3000
G1 X130.863 Y161.175 F3000
G1 X131.434 Y161.175 F3000
G92 E0
G1 X134.006 Y158.603 E0.1210 F788
G1 X136.578 Y161.175 E0.2419
G1 X136.486 Y161.397 E0.2499
G1 X131.526 Y161.397 E0.4149
G1 X131.434 Y161.175 E0.4229
; outer perimeter
G1 X137.766 Y161.797 F3000
G92 E0
G1 X81.951 Y161.797 E1.8564 F525
G1 X81.951 Y112.700 E3.4894
G1 X88.668 Y112.700 E3.7128
G1 X100.489 Y124.521 E4.2688
G1 X94.832 Y130.178 E4.5349
G1 X121.278 Y156.623 E5.7788
G1 X126.935 Y150.967 E6.0449
G1 X137.766 Y161.797 E6.5544
G1 X133.228 Y158.815 F3000
G92 E0
G1 X128.703 Y154.290 E0.2129 F525
G1 X125.945 Y157.048 E0.3426
G1 X130.471 Y161.573 E0.5554
G1 X133.228 Y158.815 E0.6852
G1 X126.154 Y151.742 F3000
G1 X121.278 Y156.618 F3000
G1 X94.838 Y130.178 F3000
G1 X99.714 Y125.301 F3000
G1 X97.166 Y122.753 F3000
G92 E0
G1 X92.640 Y118.228 E0.2129 F525
G1 X89.883 Y120.985 E0.3426
G1 X94.408 Y125.511 E0.5554
G1 X97.166 Y122.753 E0.6852
; gap fill
G1 X97.600 Y121.977 F3000
G92 E0
G1 X97.600 Y122.539 E0.0187 F840
G1 X97.449 Y122.691 E0.0258
G1 X97.200 Y122.442 E0.0375
G1 X97.200 Y121.577 E0.0663
G1 X96.800 Y121.177 E0.0851
G1 X96.800 Y122.042 E0.1139
G1 X96.400 Y121.642 E0.1327
G1 X96.400 Y120.777 E0.1615
G1 X96.000 Y120.377 E0.1803
G1 X96.000 Y121.242 E0.2091
G1 X95.600 Y120.842 E0.2279
G1 X95.600 Y119.977 E0.2567
G1 X95.200 Y119.577 E0.2755
G1 X95.200 Y120.442 E0.3043
G1 X94.800 Y120.042 E0.3231
G1 X94.800 Y119.177 E0.3519
G1 X94.400 Y118.777 E0.3707
G1 X94.400 Y119.642 E0.3995
G1 X94.000 Y119.242 E0.4183
G1 X94.000 Y118.377 E0.4471
G1 X93.600 Y117.977 E0.4659
G1 X93.600 Y118.842 E0.4947
G1 X93.200 Y118.442 E0.5136
G1 X93.200 Y117.577 E0.5423
G1 X93.135 Y117.512 E0.5454
G1 X92.800 Y117.847 E0.5612
G1 X92.800 Y118.042 E0.5676
G1 X99.887 Y125.129 F3000
G1 X94.838 Y130.178 F3000
G1 X121.278 Y156.618 F3000
G1 X126.327 Y151.569 F3000
G1 X128.800 Y154.042 F3000
G92 E0
G1 X128.800 Y153.972 E0.0023 F840
G1 X129.198 Y153.574 E0.0210
G1 X129.200 Y153.577 E0.0211
G1 X129.200 Y154.442 E0.0499
G1 X129.600 Y154.842 E0.0688
G1 X129.600 Y153.977 E0.0975
G1 X130.000 Y154.377 E0.1164
G1 X130.000 Y155.242 E0.1451
G1 X130.400 Y155.642 E0.1640
G1 X130.400 Y154.777 E0.1927
G1 X130.800 Y155.177 E0.2116
G1 X130.800 Y156.042 E0.2404
G1 X131.200 Y156.442 E0.2592
G1 X131.200 Y155.577 E0.2880
G1 X131.600 Y155.977 E0.3068
G1 X131.600 Y156.842 E0.3356
G1 X132.000 Y157.242 E0.3544
G1 X132.000 Y156.377 E0.3832
G1 X132.400 Y156.777 E0.4020
G1 X132.400 Y157.642 E0.4308
G1 X132.800 Y158.042 E0.4496
G1 X132.800 Y157.177 E0.4784
G1 X133.200 Y157.577 E0.4972
G1 X133.200 Y158.442 E0.5260
G1 X133.511 Y158.753 E0.5406
G1 X133.600 Y158.664 E0.5448
G1 X133.600 Y157.977 E0.5677
G1 X133.200 Y160.613 F3000
G92 E0
G1 X133.200 Y160.753 E0.0047 F840
G1 X132.800 Y160.753 E0.0180
G1 X132.800 Y160.720 E0.0191
G1 X132.000 Y160.954 F3000
G92 E0
G1 X132.000 Y161.153 E0.0066 F840
G1 X131.200 Y161.247 F3000
G92 E0
G1 X131.200 Y161.553 E0.0102 F840
G1 X130.485 Y161.553 F3000
G1 X130.471 Y161.568 F3000
G1 X130.456 Y161.553 F3000
G1 X130.000 Y161.553 F3000
G92 E0
G1 X130.000 Y161.448 E0.0035 F840
G1 X128.800 Y161.153 F3000
G92 E0
G1 X128.800 Y160.813 E0.0113 F840
G1 X128.000 Y160.753 F3000
G92 E0
G1 X128.000 Y160.579 E0.0058 F840
G1 X129.496 Y160.593 F3000
G1 X130.471 Y161.568 F3000
G1 X131.427 Y160.611 F3000
G1 X134.800 Y160.642 F3000
G92 E0
G1 X134.800 Y160.753 E0.0037 F840
G1 X135.200 Y160.753 E0.0170
G1 X135.200 Y160.708 E0.0185
G1 X136.000 Y160.942 F3000
G92 E0
G1 X136.000 Y161.153 E0.0070 F840
G1 X136.800 Y161.277 F3000
G92 E0
G1 X136.800 Y161.553 E0.0092 F840
; solid layer
G1 X134.000 Y160.357 F3000
G92 E0
G1 X134.000 Y160.080 E0.0092 F840
G1 X131.877 Y160.161 F3000
G1 X130.471 Y161.568 F3000
G1 X129.167 Y160.264 F3000
G1 X127.200 Y160.339 F3000
G92 E0
G1 X127.200 Y160.357 E0.0006 F840
G1 X126.800 Y160.357 E0.0139
G1 X126.800 Y159.939 E0.0278
G1 X126.400 Y159.539 E0.0466
G1 X126.400 Y160.357 E0.0739
G1 X126.000 Y160.357 E0.0872
G1 X126.000 Y159.139 E0.1277
G1 X125.600 Y158.739 E0.1465
G1 X125.600 Y160.357 E0.2003
G1 X125.200 Y160.357 E0.2136
G1 X125.200 Y158.339 E0.2808
G1 X124.800 Y157.939 E0.2996
G1 X124.800 Y160.357 E0.3800
G1 X124.400 Y160.357 E0.3933
G1 X124.400 Y157.539 E0.4870
G1 X127.200 Y153.268 F3000
G92 E0
G1 X127.200 Y153.756 E0.0162 F840
G1 X126.800 Y154.156 E0.0351
G1 X126.800 Y153.138 E0.0689
G1 X126.400 Y153.538 E0.0877
G1 X126.400 Y154.556 E0.1216
G1 X126.000 Y154.956 E0.1404
G1 X126.000 Y153.938 E0.1743
G1 X125.600 Y154.338 E0.1931
G1 X125.600 Y155.356 E0.2270
G1 X125.200 Y155.756 E0.2458
G1 X125.200 Y154.738 E0.2796
G1 X124.800 Y155.138 E0.2985
G1 X124.800 Y156.156 E0.3323
G1 X124.400 Y156.556 E0.3511
G1 X124.400 Y155.538 E0.3850
G1 X124.000 Y155.938 E0.4038
G1 X124.000 Y156.956 E0.4377
G1 X123.909 Y157.048 E0.4420
G1 X124.000 Y157.139 E0.4463
G1 X124.000 Y160.357 E0.5533
G1 X123.600 Y160.357 E0.5666
G1 X123.600 Y156.338 E0.7003
G1 X123.200 Y156.738 E0.7191
G1 X123.200 Y160.357 E0.8395
G1 X122.800 Y160.357 E0.8528
G1 X122.800 Y157.138 E0.9599
G1 X122.400 Y157.538 E0.9787
G1 X122.400 Y160.357 E1.0725
G1 X122.000 Y160.357 E1.0858
G1 X122.000 Y157.938 E1.1663
G1 X121.600 Y158.338 E1.1851
G1 X121.600 Y160.357 E1.2522
G1 X121.200 Y160.357 E1.2655
G1 X121.200 Y158.582 E1.3246
G1 X120.800 Y158.182 E1.3434
G1 X120.800 Y160.357 E1.4158
G1 X120.400 Y160.357 E1.4291
G1 X120.400 Y157.782 E1.5148
G1 X120.000 Y157.382 E1.5336
G1 X120.000 Y160.357 E1.6325
G1 X119.600 Y160.357 E1.6458
G1 X119.600 Y156.982 E1.7581
