; G-Code generated by Simplify3D(R) Version 4.0.1
; Oct 15, 2018 at 5:55:18 AM
; Settings Summary
;   processName,Process1
;   applyToModels,1_LCD_Case_Top
;   profileName,Anet A8-CommunauteFrancaise (modified)
;   profileVersion,2018-08-31 18:45:08
;   baseProfile,
;   printMaterial,ABS
;   printQuality,Medium
;   printExtruders,
;   extruderName,Primary Extruder
;   extruderToolheadNumber,0
;   extruderDiameter,0.4
;   extruderAutoWidth,0
;   extruderWidth,0.4
;   extrusionMultiplier,1
;   extruderUseRetract,1
;   extruderRetractionDistance,2
;   extruderExtraRestartDistance,-0.2
;   extruderRetractionZLift,0.2
;   extruderRetractionSpeed,3600
;   extruderUseCoasting,0
;   extruderCoastingDistance,0.2
;   extruderUseWipe,0
;   extruderWipeDistance,5
;   primaryExtruder,0
;   layerHeight,0.2
;   topSolidLayers,5
;   bottomSolidLayers,5
;   perimeterOutlines,4
;   printPerimetersInsideOut,1
;   startPointOption,2
;   startPointOriginX,0
;   startPointOriginY,500
;   sequentialIslands,0
;   spiralVaseMode,0
;   firstLayerHeightPercentage,100
;   firstLayerWidthPercentage,100
;   firstLayerUnderspeed,0.5
;   useRaft,0
;   raftExtruder,0
;   raftTopLayers,3
;   raftBaseLayers,2
;   raftOffset,3
;   raftSeparationDistance,0.14
;   raftTopInfill,100
;   aboveRaftSpeedMultiplier,0.3
;   useSkirt,1
;   skirtExtruder,0
;   skirtLayers,2
;   skirtOutlines,1
;   skirtOffset,2
;   usePrimePillar,0
;   primePillarExtruder,999
;   primePillarWidth,12
;   primePillarLocation,7
;   primePillarSpeedMultiplier,1
;   useOozeShield,0
;   oozeShieldExtruder,999
;   oozeShieldOffset,2
;   oozeShieldOutlines,1
;   oozeShieldSidewallShape,1
;   oozeShieldSidewallAngle,30
;   oozeShieldSpeedMultiplier,1
;   infillExtruder,0
;   internalInfillPattern,Rectilinear
;   externalInfillPattern,Rectilinear
;   infillPercentage,40
;   outlineOverlapPercentage,40
;   infillExtrusionWidthPercentage,100
;   minInfillLength,2
;   infillLayerInterval,1
;   internalInfillAngles,90,0
;   overlapInternalInfillAngles,0
;   externalInfillAngles,90,0
;   generateSupport,1
;   supportExtruder,0
;   supportInfillPercentage,30
;   supportExtraInflation,0
;   supportBaseLayers,0
;   denseSupportExtruder,0
;   denseSupportLayers,0
;   denseSupportInfillPercentage,60
;   supportLayerInterval,1
;   supportHorizontalPartOffset,0.3
;   supportUpperSeparationLayers,1
;   supportLowerSeparationLayers,1
;   supportType,0
;   supportGridSpacing,3
;   maxOverhangAngle,60
;   supportAngles,0
;   temperatureName,Primary Extruder,Heated Bed
;   temperatureNumber,0,0
;   temperatureSetpointCount,1,1
;   temperatureSetpointLayers,1,1
;   temperatureSetpointTemperatures,230,100
;   temperatureStabilizeAtStartup,1,0
;   temperatureHeatedBed,0,1
;   temperatureRelayBetweenLayers,0,0
;   temperatureRelayBetweenLoops,0,0
;   fanLayers,1
;   fanSpeeds,0
;   blipFanToFullPower,0
;   adjustSpeedForCooling,1
;   minSpeedLayerTime,15
;   minCoolingSpeedSlowdown,20
;   increaseFanForCooling,0
;   minFanLayerTime,45
;   maxCoolingFanSpeed,100
;   increaseFanForBridging,0
;   bridgingFanSpeed,100
;   use5D,1
;   relativeEdistances,0
;   allowEaxisZeroing,1
;   independentExtruderAxes,0
;   includeM10123,0
;   stickySupport,1
;   applyToolheadOffsets,0
;   gcodeXoffset,0
;   gcodeYoffset,0
;   gcodeZoffset,0
;   overrideMachineDefinition,1
;   machineTypeOverride,0
;   strokeXoverride,220
;   strokeYoverride,220
;   strokeZoverride,240
;   originOffsetXoverride,0
;   originOffsetYoverride,0
;   originOffsetZoverride,0
;   homeXdirOverride,-1
;   homeYdirOverride,-1
;   homeZdirOverride,-1
;   flipXoverride,1
;   flipYoverride,-1
;   flipZoverride,1
;   toolheadOffsets,0,0|0,0|0,0|0,0|0,0|0,0
;   overrideFirmwareConfiguration,1
;   firmwareTypeOverride,RepRap (Marlin/Repetier/Sprinter)
;   GPXconfigOverride,r2
;   baudRateOverride,115200
;   overridePrinterModels,1
;   printerModelsOverride
;   startingGcode,G28 ; home all axes,;G29,G1 X0 Y10 Z0.2 F3000 ; get ready to prime,G92 E0 ; reset extrusion distance,G1 X90 E20 Z-0.60 F600 ; prime nozzle,M117 Impression en cours...,
;   layerChangeGcode,
;   retractionGcode,
;   toolChangeGcode,
;   endingGcode,M104 S0 ; turn off extruder,M140 S0 ; turn off bed,G1 X0 Y200 F1000 ; prepare for part removal,M84 ; disable motors,M117 c'est fini !!
;   exportFileFormat,gcode
;   celebration,0
;   celebrationSong,Star Wars
;   postProcessing,|;gcode:||; Use Simplify3D Gcode comments to display info for each layer||;{REPLACE "; layer" "M117 Layer"} ; Replace Simplify3D layer comments with display commands|;{REPLACE " Z = " " Z="} ; Delete spaces for more display space||; For filament change at the beginning of a particular layer:||; {REPLACE "\nM117 Layer <#>, Z=" "\nM600\nM117 Layer <#>, Z="}||; Forward toolpath file to Octoprint when saved:|;curl -k -H "X-Api-Key:95CF4E9979984CF1ACDD88DF2F202262" -F "select=true" -F "print=true" -F "file=@[output_filepath]" "http://192.168.1.126/api/files/local"
;   defaultSpeed,2100
;   outlineUnderspeed,0.5
;   solidInfillUnderspeed,0.8
;   supportUnderspeed,0.8
;   rapidXYspeed,3000
;   rapidZspeed,1002
;   minBridgingArea,50
;   bridgingExtraInflation,0
;   bridgingExtrusionMultiplier,1
;   bridgingSpeedMultiplier,1
;   useFixedBridgingAngle,0
;   fixedBridgingAngle,0
;   applyBridgingToPerimeters,0
;   filamentDiameters,1.75|1.75|1.75|1.75|1.75|1.75
;   filamentPricesPerKg,16|46|46|46|46|46
;   filamentDensities,1.25|1.25|1.25|1.25|1.25|1.25
;   useMinPrintHeight,0
;   minPrintHeight,0
;   useMaxPrintHeight,0
;   maxPrintHeight,0
;   useDiaphragm,0
;   diaphragmLayerInterval,20
;   robustSlicing,1
;   mergeAllIntoSolid,0
;   onlyRetractWhenCrossingOutline,1
;   retractBetweenLayers,0
;   useRetractionMinTravel,0
;   retractionMinTravel,3
;   retractWhileWiping,1
;   onlyWipeOutlines,1
;   avoidCrossingOutline,1
;   maxMovementDetourFactor,3
;   toolChangeRetractionDistance,12
;   toolChangeExtraRestartDistance,-0.5
;   toolChangeRetractionSpeed,600
;   externalThinWallType,0
;   internalThinWallType,2
;   thinWallAllowedOverlapPercentage,10
;   singleExtrusionMinLength,1
;   singleExtrusionMinPrintingWidthPercentage,50
;   singleExtrusionMaxPrintingWidthPercentage,200
;   singleExtrusionEndpointExtension,0.2
;   horizontalSizeCompensation,0
G90
M82
M106 S0
M140 S90
M190 S90
M104 S230 T0
M109 S230 T0
G28 ; home all axes
;G29
G1 X0 Y10 Z0.2 F3000 ; get ready to prime
G92 E0 ; reset extrusion distance
G1 X90 E20 Z-0.60 F600 ; prime nozzle
M117 Impression en cours...
G92 E0
G1 E-2.0000 F3600
G1 Z0.400 F1002
; process Process1
; layer 1, Z = 0.200
T0
; tool H0.200 W0.400
; skirt
G1 X24.932 Y71.300 F3000
G1 Z0.200 F1002
G1 E-0.2000 F1080
G92 E0
G1 X195.068 Y71.300 E5.6588 F1050
G1 X195.142 Y71.330 E5.6614
G1 X196.370 Y72.558 E5.7192
G1 X196.400 Y72.632 E5.7218
G1 X196.400 Y147.368 E8.2075
G1 X196.370 Y147.442 E8.2102
G1 X195.142 Y148.670 E8.2679
G1 X195.068 Y148.700 E8.2706
G1 X24.932 Y148.700 E13.9294
G1 X24.858 Y148.670 E13.9320
G1 X23.630 Y147.442 E13.9898
G1 X23.600 Y147.368 E13.9924
G1 X23.600 Y72.632 E16.4781
G1 X23.630 Y72.558 E16.4808
G1 X24.858 Y71.330 E16.5385
G1 X24.932 Y71.300 E16.5412
G92 E0
G1 E-2.0000 F3600
G1 Z0.400 F1002
; inner perimeter
G1 X25.996 Y73.696 F3000
G1 X26.441 Y73.696 F3000
G1 X27.200 Y74.900 F3000
G1 Z0.200 F1002
G1 E-0.2000 F3600
G92 E0
G1 X192.800 Y74.900 E5.5079 F788
G1 X192.800 Y145.100 E7.8427
G1 X27.200 Y145.100 E13.3506
G1 X27.200 Y74.900 E15.6855
G1 X26.800 Y74.500 F3000
G92 E0
G1 X193.200 Y74.500 E5.5345 F788
G1 X193.200 Y145.500 E7.8960
G1 X26.800 Y145.500 E13.4304
G1 X26.800 Y74.500 E15.7919
G1 X26.400 Y74.100 F3000
G92 E0
G1 X193.600 Y74.100 E5.5611 F788
G1 X193.600 Y145.900 E7.9492
G1 X26.400 Y145.900 E13.5103
G1 X26.400 Y74.100 E15.8983
; outer perimeter
G1 X26.000 Y73.700 F3000
G92 E0
G1 X194.000 Y73.700 E5.5877 F525
G1 X194.000 Y146.300 E8.0024
G1 X26.000 Y146.300 E13.5901
G1 X26.000 Y73.700 E16.0048
; inner perimeter
G1 X30.420 Y78.069 F3000
G92 E0
G1 X29.962 Y78.547 E0.0220 F788
G1 X29.591 Y79.096 E0.0441
G1 X29.318 Y79.699 E0.0661
G1 X29.151 Y80.340 E0.0881
G1 X29.095 Y81.000 E0.1101
G1 X29.151 Y81.660 E0.1322
G1 X29.318 Y82.301 E0.1542
G1 X29.591 Y82.904 E0.1762
G1 X29.962 Y83.453 E0.1983
G1 X30.420 Y83.931 E0.2203
G1 X30.953 Y84.325 E0.2423
G1 X31.544 Y84.623 E0.2644
G1 X32.177 Y84.817 E0.2864
G1 X32.834 Y84.902 E0.3084
G1 X33.496 Y84.873 E0.3304
G1 X34.143 Y84.734 E0.3525
G1 X34.758 Y84.487 E0.3745
G1 X35.322 Y84.140 E0.3965
G1 X35.819 Y83.702 E0.4186
G1 X36.235 Y83.187 E0.4406
G1 X36.558 Y82.609 E0.4626
G1 X36.779 Y81.984 E0.4847
G1 X36.891 Y81.331 E0.5067
G1 X36.891 Y80.669 E0.5287
G1 X36.779 Y80.016 E0.5507
G1 X36.558 Y79.391 E0.5728
G1 X36.235 Y78.813 E0.5948
G1 X35.819 Y78.298 E0.6168
G1 X35.322 Y77.860 E0.6389
G1 X34.758 Y77.513 E0.6609
G1 X34.143 Y77.266 E0.6829
G1 X33.496 Y77.127 E0.7050
G1 X32.834 Y77.098 E0.7270
G1 X32.177 Y77.183 E0.7490
G1 X31.544 Y77.377 E0.7710
G1 X30.953 Y77.675 E0.7931
G1 X30.420 Y78.069 E0.8151
G1 X30.685 Y78.370 F3000
G92 E0
G1 X30.274 Y78.799 E0.0198 F788
G1 X29.941 Y79.291 E0.0395
G1 X29.697 Y79.833 E0.0593
G1 X29.547 Y80.408 E0.0791
G1 X29.496 Y81.000 E0.0988
G1 X29.547 Y81.592 E0.1186
G1 X29.697 Y82.167 E0.1384
G1 X29.941 Y82.709 E0.1581
G1 X30.274 Y83.201 E0.1779
G1 X30.685 Y83.630 E0.1977
G1 X31.163 Y83.983 E0.2174
G1 X31.694 Y84.251 E0.2372
G1 X32.262 Y84.425 E0.2569
G1 X32.851 Y84.500 E0.2767
G1 X33.445 Y84.475 E0.2965
G1 X34.026 Y84.350 E0.3162
G1 X34.577 Y84.128 E0.3360
G1 X35.083 Y83.817 E0.3558
G1 X35.529 Y83.424 E0.3755
G1 X35.903 Y82.962 E0.3953
G1 X36.193 Y82.443 E0.4151
G1 X36.391 Y81.883 E0.4348
G1 X36.491 Y81.297 E0.4546
G1 X36.491 Y80.703 E0.4744
G1 X36.391 Y80.117 E0.4941
G1 X36.193 Y79.557 E0.5139
G1 X35.903 Y79.038 E0.5337
G1 X35.529 Y78.576 E0.5534
G1 X35.083 Y78.183 E0.5732
G1 X34.577 Y77.872 E0.5929
G1 X34.026 Y77.650 E0.6127
G1 X33.445 Y77.525 E0.6325
G1 X32.851 Y77.500 E0.6522
G1 X32.262 Y77.575 E0.6720
G1 X31.694 Y77.749 E0.6918
G1 X31.163 Y78.017 E0.7115
G1 X30.685 Y78.370 E0.7313
G1 X30.950 Y78.671 F3000
G92 E0
G1 X30.586 Y79.051 E0.0175 F788
G1 X30.292 Y79.487 E0.0350
G1 X30.075 Y79.967 E0.0525
G1 X29.942 Y80.476 E0.0700
G1 X29.898 Y81.000 E0.0875
G1 X29.942 Y81.524 E0.1050
G1 X30.075 Y82.033 E0.1225
G1 X30.292 Y82.513 E0.1400
G1 X30.586 Y82.949 E0.1575
G1 X30.950 Y83.329 E0.1750
G1 X31.373 Y83.642 E0.1925
G1 X31.843 Y83.878 E0.2100
G1 X32.346 Y84.033 E0.2275
G1 X32.868 Y84.099 E0.2450
G1 X33.394 Y84.077 E0.2625
G1 X33.908 Y83.966 E0.2800
G1 X34.397 Y83.770 E0.2975
G1 X34.845 Y83.494 E0.3150
G1 X35.240 Y83.147 E0.3325
G1 X35.570 Y82.737 E0.3500
G1 X35.827 Y82.278 E0.3675
G1 X36.002 Y81.782 E0.3850
G1 X36.091 Y81.263 E0.4025
G1 X36.091 Y80.737 E0.4200
G1 X36.002 Y80.218 E0.4375
G1 X35.827 Y79.722 E0.4550
G1 X35.570 Y79.263 E0.4725
G1 X35.240 Y78.853 E0.4900
G1 X34.845 Y78.506 E0.5075
G1 X34.397 Y78.230 E0.5250
G1 X33.908 Y78.034 E0.5425
G1 X33.394 Y77.923 E0.5600
G1 X32.868 Y77.901 E0.5775
G1 X32.346 Y77.967 E0.5950
G1 X31.843 Y78.122 E0.6125
G1 X31.373 Y78.358 E0.6300
G1 X30.950 Y78.671 E0.6475
; outer perimeter
G1 X31.216 Y78.973 F3000
G92 E0
G1 X30.899 Y79.303 E0.0152 F525
G1 X30.642 Y79.683 E0.0305
G1 X30.454 Y80.100 E0.0457
G1 X30.338 Y80.544 E0.0609
G1 X30.299 Y81.000 E0.0762
G1 X30.338 Y81.456 E0.0914
G1 X30.454 Y81.900 E0.1066
G1 X30.642 Y82.317 E0.1219
G1 X30.899 Y82.697 E0.1371
G1 X31.216 Y83.027 E0.1524
G1 X31.584 Y83.300 E0.1676
G1 X31.993 Y83.506 E0.1828
G1 X32.431 Y83.640 E0.1981
G1 X32.885 Y83.698 E0.2133
G1 X33.343 Y83.679 E0.2285
G1 X33.791 Y83.582 E0.2438
G1 X34.216 Y83.412 E0.2590
G1 X34.606 Y83.171 E0.2742
G1 X34.950 Y82.869 E0.2895
G1 X35.238 Y82.512 E0.3047
G1 X35.461 Y82.112 E0.3199
G1 X35.614 Y81.681 E0.3352
G1 X35.691 Y81.229 E0.3504
G1 X35.691 Y80.771 E0.3657
G1 X35.614 Y80.319 E0.3809
G1 X35.461 Y79.888 E0.3961
G1 X35.238 Y79.488 E0.4114
G1 X34.950 Y79.131 E0.4266
G1 X34.606 Y78.829 E0.4418
G1 X34.216 Y78.588 E0.4571
G1 X33.791 Y78.418 E0.4723
G1 X33.343 Y78.321 E0.4875
G1 X32.885 Y78.302 E0.5028
G1 X32.431 Y78.360 E0.5180
G1 X31.993 Y78.494 E0.5332
G1 X31.584 Y78.700 E0.5485
G1 X31.216 Y78.973 E0.5637
; inner perimeter
G1 X31.217 Y78.977 F3000
G1 X30.902 Y79.306 F3000
G1 X30.646 Y79.685 F3000
G1 X30.457 Y80.102 F3000
G1 X30.342 Y80.544 F3000
G1 X30.303 Y81.000 F3000
G1 X30.342 Y81.456 F3000
G1 X30.457 Y81.898 F3000
G1 X30.646 Y82.315 F3000
G1 X30.902 Y82.694 F3000
G1 X31.218 Y83.024 F3000
G1 X31.586 Y83.296 F3000
G1 X31.995 Y83.502 F3000
G1 X32.432 Y83.636 F3000
G1 X32.886 Y83.694 F3000
G1 X33.194 Y83.681 F3000
G1 X36.100 Y90.600 F3000
G92 E0
G1 X36.100 Y129.263 E1.2859 F788
G1 X35.888 Y129.359 E1.2937
G1 X35.322 Y128.860 E1.3188
G1 X34.758 Y128.513 E1.3408
G1 X34.143 Y128.266 E1.3628
G1 X33.496 Y128.127 E1.3848
G1 X32.834 Y128.098 E1.4069
G1 X32.177 Y128.183 E1.4289
G1 X31.544 Y128.377 E1.4509
G1 X30.953 Y128.675 E1.4730
G1 X30.420 Y129.069 E1.4950
G1 X29.962 Y129.547 E1.5170
G1 X29.591 Y130.095 E1.5390
G1 X29.318 Y130.699 E1.5611
G1 X29.151 Y131.340 E1.5831
G1 X29.095 Y132.000 E1.6051
G1 X29.151 Y132.660 E1.6272
G1 X29.318 Y133.301 E1.6492
G1 X29.591 Y133.904 E1.6712
G1 X29.962 Y134.453 E1.6933
G1 X30.420 Y134.931 E1.7153
G1 X30.953 Y135.325 E1.7373
G1 X31.544 Y135.623 E1.7593
G1 X32.177 Y135.817 E1.7814
G1 X32.834 Y135.902 E1.8034
G1 X33.496 Y135.873 E1.8254
G1 X34.143 Y135.734 E1.8475
G1 X34.758 Y135.487 E1.8695
G1 X35.322 Y135.140 E1.8915
G1 X35.819 Y134.702 E1.9136
G1 X36.235 Y134.187 E1.9356
G1 X36.558 Y133.608 E1.9576
G1 X36.632 Y133.400 E1.9650
G1 X136.900 Y133.400 E5.2999
G1 X136.900 Y90.600 E6.7234
G1 X36.100 Y90.600 E10.0760
G1 X36.500 Y91.000 F3000
G92 E0
G1 X36.500 Y130.555 E1.3156 F788
G1 X36.231 Y130.625 E1.3249
G1 X35.903 Y130.038 E1.3472
G1 X35.529 Y129.576 E1.3670
G1 X35.083 Y129.183 E1.3868
G1 X34.577 Y128.872 E1.4065
G1 X34.026 Y128.650 E1.4263
G1 X33.445 Y128.525 E1.4460
G1 X32.851 Y128.500 E1.4658
G1 X32.262 Y128.575 E1.4856
G1 X31.694 Y128.749 E1.5053
G1 X31.163 Y129.017 E1.5251
G1 X30.685 Y129.370 E1.5449
G1 X30.274 Y129.799 E1.5646
G1 X29.941 Y130.291 E1.5844
G1 X29.697 Y130.833 E1.6042
G1 X29.547 Y131.408 E1.6239
G1 X29.496 Y132.000 E1.6437
G1 X29.547 Y132.592 E1.6635
G1 X29.697 Y133.167 E1.6832
G1 X29.941 Y133.709 E1.7030
G1 X30.274 Y134.201 E1.7228
G1 X30.685 Y134.630 E1.7425
G1 X31.163 Y134.983 E1.7623
G1 X31.694 Y135.251 E1.7821
G1 X32.262 Y135.425 E1.8018
G1 X32.851 Y135.500 E1.8216
G1 X33.445 Y135.475 E1.8413
G1 X34.026 Y135.350 E1.8611
G1 X34.577 Y135.128 E1.8809
G1 X35.083 Y134.817 E1.9006
G1 X35.529 Y134.424 E1.9204
G1 X35.903 Y133.962 E1.9402
G1 X36.193 Y133.443 E1.9599
G1 X36.349 Y133.000 E1.9756
G1 X136.500 Y133.000 E5.3066
G1 X136.500 Y91.000 E6.7035
G1 X36.500 Y91.000 E10.0295
G1 X36.900 Y91.400 F3000
G92 E0
G1 X36.900 Y132.600 E1.3703 F788
G1 X136.100 Y132.600 E4.6697
G1 X136.100 Y91.400 E6.0400
G1 X36.900 Y91.400 E9.3394
; outer perimeter
G1 X37.300 Y91.800 F3000
G92 E0
G1 X37.300 Y132.200 E1.3437 F525
G1 X135.700 Y132.200 E4.6165
G1 X135.700 Y91.800 E5.9602
G1 X37.300 Y91.800 E9.2330
; inner perimeter
G1 X33.394 Y128.923 F3000
G92 E0
G1 X32.868 Y128.901 E0.0175 F788
G1 X32.346 Y128.967 E0.0350
G1 X31.843 Y129.122 E0.0525
G1 X31.374 Y129.358 E0.0700
G1 X30.950 Y129.671 E0.0875
G1 X30.586 Y130.051 E0.1050
G1 X30.292 Y130.487 E0.1225
G1 X30.075 Y130.967 E0.1400
G1 X29.942 Y131.476 E0.1575
G1 X29.898 Y132.000 E0.1750
G1 X29.942 Y132.524 E0.1925
G1 X30.075 Y133.033 E0.2100
G1 X30.292 Y133.513 E0.2275
G1 X30.586 Y133.949 E0.2450
G1 X30.950 Y134.329 E0.2625
G1 X31.374 Y134.642 E0.2800
G1 X31.843 Y134.878 E0.2975
G1 X32.346 Y135.033 E0.3150
G1 X32.868 Y135.099 E0.3325
G1 X33.394 Y135.077 E0.3500
G1 X33.908 Y134.966 E0.3675
G1 X34.397 Y134.770 E0.3850
G1 X34.845 Y134.494 E0.4025
G1 X35.240 Y134.146 E0.4200
G1 X35.570 Y133.737 E0.4375
G1 X35.827 Y133.278 E0.4550
G1 X36.002 Y132.782 E0.4725
G1 X36.091 Y132.263 E0.4900
G1 X36.091 Y131.737 E0.5075
G1 X36.002 Y131.218 E0.5250
G1 X35.827 Y130.722 E0.5425
G1 X35.570 Y130.263 E0.5600
G1 X35.240 Y129.853 E0.5775
G1 X34.845 Y129.506 E0.5950
G1 X34.397 Y129.230 E0.6125
