; G-Code generated by Simplify3D(R) Version 4.0.1
; Sep 30, 2018 at 8:43:17 AM
; Settings Summary
;   processName,Process1
;   applyToModels,Q-Tip_Holder_Cover
;   profileName,Anet A8-CommunauteFrancaise (modified)
;   profileVersion,2018-08-31 18:45:08
;   baseProfile,
;   printMaterial,ABS
;   printQuality,Medium
;   printExtruders,
;   extruderName,Primary Extruder
;   extruderToolheadNumber,0
;   extruderDiameter,0.4
;   extruderAutoWidth,0
;   extruderWidth,0.4
;   extrusionMultiplier,1
;   extruderUseRetract,1
;   extruderRetractionDistance,2
;   extruderExtraRestartDistance,-0.2
;   extruderRetractionZLift,0.2
;   extruderRetractionSpeed,3600
;   extruderUseCoasting,0
;   extruderCoastingDistance,0.2
;   extruderUseWipe,0
;   extruderWipeDistance,5
;   primaryExtruder,0
;   layerHeight,0.24
;   topSolidLayers,5
;   bottomSolidLayers,5
;   perimeterOutlines,4
;   printPerimetersInsideOut,1
;   startPointOption,2
;   startPointOriginX,0
;   startPointOriginY,500
;   sequentialIslands,0
;   spiralVaseMode,0
;   firstLayerHeightPercentage,100
;   firstLayerWidthPercentage,100
;   firstLayerUnderspeed,0.5
;   useRaft,0
;   raftExtruder,0
;   raftTopLayers,3
;   raftBaseLayers,2
;   raftOffset,3
;   raftSeparationDistance,0.14
;   raftTopInfill,100
;   aboveRaftSpeedMultiplier,0.3
;   useSkirt,1
;   skirtExtruder,0
;   skirtLayers,1
;   skirtOutlines,5
;   skirtOffset,0.1
;   usePrimePillar,0
;   primePillarExtruder,999
;   primePillarWidth,12
;   primePillarLocation,7
;   primePillarSpeedMultiplier,1
;   useOozeShield,0
;   oozeShieldExtruder,999
;   oozeShieldOffset,2
;   oozeShieldOutlines,1
;   oozeShieldSidewallShape,1
;   oozeShieldSidewallAngle,30
;   oozeShieldSpeedMultiplier,1
;   infillExtruder,0
;   internalInfillPattern,Rectilinear
;   externalInfillPattern,Rectilinear
;   infillPercentage,30
;   outlineOverlapPercentage,20
;   infillExtrusionWidthPercentage,100
;   minInfillLength,2
;   infillLayerInterval,1
;   internalInfillAngles,90,0
;   overlapInternalInfillAngles,0
;   externalInfillAngles,90,0
;   generateSupport,1
;   supportExtruder,0
;   supportInfillPercentage,30
;   supportExtraInflation,0
;   supportBaseLayers,0
;   denseSupportExtruder,0
;   denseSupportLayers,0
;   denseSupportInfillPercentage,60
;   supportLayerInterval,1
;   supportHorizontalPartOffset,0.3
;   supportUpperSeparationLayers,1
;   supportLowerSeparationLayers,1
;   supportType,0
;   supportGridSpacing,3
;   maxOverhangAngle,55
;   supportAngles,0
;   temperatureName,Primary Extruder,Heated Bed
;   temperatureNumber,0,0
;   temperatureSetpointCount,1,1
;   temperatureSetpointLayers,1,1
;   temperatureSetpointTemperatures,230,90
;   temperatureStabilizeAtStartup,1,1
;   temperatureHeatedBed,0,1
;   temperatureRelayBetweenLayers,0,0
;   temperatureRelayBetweenLoops,0,0
;   fanLayers,1
;   fanSpeeds,0
;   blipFanToFullPower,0
;   adjustSpeedForCooling,1
;   minSpeedLayerTime,15
;   minCoolingSpeedSlowdown,20
;   increaseFanForCooling,0
;   minFanLayerTime,45
;   maxCoolingFanSpeed,100
;   increaseFanForBridging,0
;   bridgingFanSpeed,100
;   use5D,1
;   relativeEdistances,0
;   allowEaxisZeroing,1
;   independentExtruderAxes,0
;   includeM10123,0
;   stickySupport,1
;   applyToolheadOffsets,0
;   gcodeXoffset,0
;   gcodeYoffset,0
;   gcodeZoffset,0
;   overrideMachineDefinition,1
;   machineTypeOverride,0
;   strokeXoverride,220
;   strokeYoverride,220
;   strokeZoverride,240
;   originOffsetXoverride,0
;   originOffsetYoverride,0
;   originOffsetZoverride,0
;   homeXdirOverride,-1
;   homeYdirOverride,-1
;   homeZdirOverride,-1
;   flipXoverride,1
;   flipYoverride,-1
;   flipZoverride,1
;   toolheadOffsets,0,0|0,0|0,0|0,0|0,0|0,0
;   overrideFirmwareConfiguration,1
;   firmwareTypeOverride,RepRap (Marlin/Repetier/Sprinter)
;   GPXconfigOverride,r2
;   baudRateOverride,115200
;   overridePrinterModels,1
;   printerModelsOverride
;   startingGcode,G28 ; home all axes,;G29,G1 X0 Y10 Z0.2 F3000 ; get ready to prime,G92 E0 ; reset extrusion distance,G1 X90 E20 Z-0.60 F600 ; prime nozzle,M117 Impression en cours  !!
;   layerChangeGcode,
;   retractionGcode,
;   toolChangeGcode,
;   endingGcode,M104 S0 ; turn off extruder,M140 S0 ; turn off bed,G1 X0 Y200 F1000 ; prepare for part removal,M84 ; disable motors,M117 c'est fini !!
;   exportFileFormat,gcode
;   celebration,0
;   celebrationSong,Star Wars
;   postProcessing,|;gcode:||; Use Simplify3D Gcode comments to display info for each layer||;{REPLACE "; layer" "M117 Layer"} ; Replace Simplify3D layer comments with display commands|;{REPLACE " Z = " " Z="} ; Delete spaces for more display space||; For filament change at the beginning of a particular layer:||; {REPLACE "\nM117 Layer <#>, Z=" "\nM600\nM117 Layer <#>, Z="}||; Forward toolpath file to Octoprint when saved:|;curl -k -H "X-Api-Key:95CF4E9979984CF1ACDD88DF2F202262" -F "select=true" -F "print=true" -F "file=@[output_filepath]" "http://192.168.1.126/api/files/local"
;   defaultSpeed,3600
;   outlineUnderspeed,0.5
;   solidInfillUnderspeed,0.8
;   supportUnderspeed,0.8
;   rapidXYspeed,4800
;   rapidZspeed,1002
;   minBridgingArea,50
;   bridgingExtraInflation,0
;   bridgingExtrusionMultiplier,1
;   bridgingSpeedMultiplier,1
;   useFixedBridgingAngle,0
;   fixedBridgingAngle,0
;   applyBridgingToPerimeters,0
;   filamentDiameters,1.75|1.75|1.75|1.75|1.75|1.75
;   filamentPricesPerKg,46|46|46|46|46|46
;   filamentDensities,1.25|1.25|1.25|1.25|1.25|1.25
;   useMinPrintHeight,0
;   minPrintHeight,0
;   useMaxPrintHeight,0
;   maxPrintHeight,0
;   useDiaphragm,0
;   diaphragmLayerInterval,20
;   robustSlicing,1
;   mergeAllIntoSolid,0
;   onlyRetractWhenCrossingOutline,1
;   retractBetweenLayers,1
;   useRetractionMinTravel,0
;   retractionMinTravel,3
;   retractWhileWiping,0
;   onlyWipeOutlines,1
;   avoidCrossingOutline,0
;   maxMovementDetourFactor,3
;   toolChangeRetractionDistance,12
;   toolChangeExtraRestartDistance,-0.5
;   toolChangeRetractionSpeed,600
;   externalThinWallType,0
;   internalThinWallType,2
;   thinWallAllowedOverlapPercentage,10
;   singleExtrusionMinLength,1
;   singleExtrusionMinPrintingWidthPercentage,50
;   singleExtrusionMaxPrintingWidthPercentage,200
;   singleExtrusionEndpointExtension,0.2
;   horizontalSizeCompensation,0
G90
M82
G28 ; home all axes
M106 S0
M140 S90
M190 S90
M104 S230 T0
M109 S230 T0
;G29
G1 X0 Y10 Z0.2 F3000 ; get ready to prime
G92 E0 ; reset extrusion distance
G1 X90 E20 Z-0.60 F600 ; prime nozzle
M117 Impression en cours  !!
G92 E0
G1 E-2.0000 F3600
G1 Z0.440 F1002
; process Process1
; layer 1, Z = 0.240
T0
; tool H0.240 W0.400
; skirt
G1 X78.719 Y81.154 F4800
G1 Z0.240 F1002
G1 E-0.2000 F1080
G92 E0
G1 X79.381 Y80.880 E0.0286 F1800
G1 X80.880 Y80.880 E0.0884
G1 X80.880 Y79.381 E0.1483
G1 X81.154 Y78.719 E0.1769
G1 X81.719 Y78.154 E0.2087
G1 X82.381 Y77.880 E0.2373
G1 X83.880 Y77.880 E0.2972
G1 X83.880 Y76.381 E0.3570
G1 X84.154 Y75.719 E0.3856
G1 X84.719 Y75.154 E0.4175
G1 X85.381 Y74.880 E0.4461
G1 X89.880 Y74.880 E0.6256
G1 X89.880 Y73.381 E0.6855
G1 X90.154 Y72.719 E0.7141
G1 X90.719 Y72.154 E0.7460
G1 X91.381 Y71.880 E0.7745
G1 X95.880 Y71.880 E0.9541
G1 X95.880 Y70.381 E1.0140
G1 X96.154 Y69.719 E1.0426
G1 X96.719 Y69.154 E1.0744
G1 X97.381 Y68.880 E1.1030
G1 X122.619 Y68.880 E2.1104
G1 X123.281 Y69.154 E2.1389
G1 X123.846 Y69.719 E2.1708
G1 X124.120 Y70.381 E2.1994
G1 X124.120 Y71.880 E2.2593
G1 X128.619 Y71.880 E2.4388
G1 X129.281 Y72.154 E2.4674
G1 X129.846 Y72.719 E2.4993
G1 X130.120 Y73.381 E2.5279
G1 X130.120 Y74.880 E2.5877
G1 X134.619 Y74.880 E2.7673
G1 X135.281 Y75.154 E2.7959
G1 X135.846 Y75.719 E2.8278
G1 X136.120 Y76.381 E2.8564
G1 X136.120 Y77.880 E2.9162
G1 X137.619 Y77.880 E2.9761
G1 X138.281 Y78.154 E3.0046
G1 X138.846 Y78.719 E3.0365
G1 X139.120 Y79.381 E3.0651
G1 X139.120 Y80.880 E3.1250
G1 X140.619 Y80.880 E3.1848
G1 X141.281 Y81.154 E3.2134
G1 X141.846 Y81.719 E3.2453
G1 X142.120 Y82.381 E3.2738
G1 X142.120 Y83.880 E3.3337
G1 X143.619 Y83.880 E3.3935
G1 X144.281 Y84.154 E3.4221
G1 X144.846 Y84.719 E3.4540
G1 X145.120 Y85.381 E3.4826
G1 X145.120 Y89.880 E3.6622
G1 X146.619 Y89.880 E3.7220
G1 X147.281 Y90.154 E3.7506
G1 X147.846 Y90.719 E3.7825
G1 X148.120 Y91.381 E3.8111
G1 X148.120 Y95.880 E3.9907
G1 X149.619 Y95.880 E4.0505
G1 X150.281 Y96.154 E4.0791
G1 X150.846 Y96.719 E4.1110
G1 X151.120 Y97.381 E4.1395
G1 X151.120 Y122.619 E5.1469
G1 X150.846 Y123.281 E5.1755
G1 X150.281 Y123.846 E5.2074
G1 X149.619 Y124.120 E5.2359
G1 X148.120 Y124.120 E5.2958
G1 X148.120 Y128.620 E5.4754
G1 X147.846 Y129.281 E5.5040
G1 X147.281 Y129.846 E5.5358
G1 X146.619 Y130.120 E5.5644
G1 X145.120 Y130.120 E5.6243
G1 X145.120 Y134.620 E5.8038
G1 X144.846 Y135.281 E5.8324
G1 X144.281 Y135.846 E5.8643
G1 X143.619 Y136.120 E5.8929
G1 X142.120 Y136.120 E5.9527
G1 X142.120 Y137.620 E6.0126
G1 X141.846 Y138.281 E6.0412
G1 X141.281 Y138.846 E6.0731
G1 X140.619 Y139.120 E6.1016
G1 X139.120 Y139.120 E6.1615
G1 X139.120 Y140.620 E6.2213
G1 X138.846 Y141.281 E6.2499
G1 X138.281 Y141.846 E6.2818
G1 X137.619 Y142.120 E6.3104
G1 X136.120 Y142.120 E6.3702
G1 X136.120 Y143.620 E6.4301
G1 X135.846 Y144.281 E6.4587
G1 X135.281 Y144.846 E6.4905
G1 X134.619 Y145.120 E6.5191
G1 X130.120 Y145.120 E6.6987
G1 X130.120 Y146.620 E6.7585
G1 X129.846 Y147.281 E6.7871
G1 X129.281 Y147.846 E6.8190
G1 X128.619 Y148.120 E6.8476
G1 X124.120 Y148.120 E7.0272
G1 X124.120 Y149.620 E7.0870
G1 X123.846 Y150.281 E7.1156
G1 X123.281 Y150.846 E7.1475
G1 X122.619 Y151.120 E7.1761
G1 X97.381 Y151.120 E8.1834
G1 X96.719 Y150.846 E8.2120
G1 X96.154 Y150.281 E8.2439
G1 X95.880 Y149.620 E8.2725
G1 X95.880 Y148.120 E8.3323
G1 X91.381 Y148.120 E8.5119
G1 X90.719 Y147.846 E8.5405
G1 X90.154 Y147.281 E8.5723
G1 X89.880 Y146.620 E8.6009
G1 X89.880 Y145.120 E8.6608
G1 X85.381 Y145.120 E8.8404
G1 X84.719 Y144.846 E8.8689
G1 X84.154 Y144.281 E8.9008
G1 X83.880 Y143.620 E8.9294
G1 X83.880 Y142.120 E8.9893
G1 X82.381 Y142.120 E9.0491
G1 X81.719 Y141.846 E9.0777
G1 X81.154 Y141.281 E9.1096
G1 X80.880 Y140.620 E9.1382
G1 X80.880 Y139.120 E9.1980
G1 X79.381 Y139.120 E9.2578
G1 X78.719 Y138.846 E9.2864
G1 X78.154 Y138.281 E9.3183
G1 X77.880 Y137.620 E9.3469
G1 X77.880 Y136.120 E9.4067
G1 X76.381 Y136.120 E9.4666
G1 X75.719 Y135.846 E9.4952
G1 X75.154 Y135.281 E9.5270
G1 X74.880 Y134.620 E9.5556
G1 X74.880 Y130.120 E9.7352
G1 X73.381 Y130.120 E9.7951
G1 X72.719 Y129.846 E9.8236
G1 X72.154 Y129.281 E9.8555
G1 X71.880 Y128.620 E9.8841
G1 X71.880 Y124.120 E10.0637
G1 X70.381 Y124.120 E10.1235
G1 X69.719 Y123.846 E10.1521
G1 X69.154 Y123.281 E10.1840
G1 X68.880 Y122.619 E10.2126
G1 X68.880 Y97.381 E11.2199
G1 X69.154 Y96.719 E11.2485
G1 X69.719 Y96.154 E11.2804
G1 X70.381 Y95.880 E11.3090
G1 X71.880 Y95.880 E11.3688
G1 X71.880 Y91.381 E11.5484
G1 X72.154 Y90.719 E11.5770
G1 X72.719 Y90.154 E11.6089
G1 X73.381 Y89.880 E11.6375
G1 X74.880 Y89.880 E11.6973
G1 X74.880 Y85.381 E11.8769
G1 X75.154 Y84.719 E11.9055
G1 X75.719 Y84.154 E11.9374
G1 X76.381 Y83.880 E11.9659
G1 X77.880 Y83.880 E12.0258
G1 X77.880 Y82.381 E12.0856
G1 X78.154 Y81.719 E12.1142
G1 X78.719 Y81.154 E12.1461
G1 X78.946 Y81.493 F4800
G92 E0
G1 X79.460 Y81.280 E0.0222 F1800
G1 X81.280 Y81.280 E0.0949
G1 X81.280 Y79.460 E0.1675
G1 X81.493 Y78.946 E0.1897
G1 X81.946 Y78.493 E0.2153
G1 X82.460 Y78.280 E0.2375
G1 X84.280 Y78.280 E0.3101
G1 X84.280 Y76.460 E0.3828
G1 X84.493 Y75.946 E0.4050
G1 X84.946 Y75.493 E0.4305
G1 X85.460 Y75.280 E0.4528
G1 X90.280 Y75.280 E0.6451
G1 X90.280 Y73.460 E0.7178
G1 X90.493 Y72.946 E0.7400
G1 X90.946 Y72.493 E0.7655
G1 X91.460 Y72.280 E0.7878
G1 X96.280 Y72.280 E0.9801
G1 X96.280 Y70.460 E1.0528
G1 X96.493 Y69.946 E1.0750
G1 X96.946 Y69.493 E1.1005
G1 X97.460 Y69.280 E1.1228
G1 X122.540 Y69.280 E2.1238
G1 X123.054 Y69.493 E2.1460
G1 X123.507 Y69.946 E2.1715
G1 X123.720 Y70.460 E2.1938
G1 X123.720 Y72.280 E2.2664
G1 X128.540 Y72.280 E2.4588
G1 X129.054 Y72.493 E2.4810
G1 X129.507 Y72.946 E2.5065
G1 X129.720 Y73.460 E2.5288
G1 X129.720 Y75.280 E2.6014
G1 X134.540 Y75.280 E2.7938
G1 X135.054 Y75.493 E2.8160
G1 X135.507 Y75.946 E2.8415
G1 X135.720 Y76.460 E2.8638
G1 X135.720 Y78.280 E2.9364
G1 X137.540 Y78.280 E3.0090
G1 X138.054 Y78.493 E3.0313
G1 X138.507 Y78.946 E3.0568
G1 X138.720 Y79.460 E3.0790
G1 X138.720 Y81.280 E3.1517
G1 X140.540 Y81.280 E3.2243
G1 X141.054 Y81.493 E3.2465
G1 X141.507 Y81.946 E3.2721
G1 X141.720 Y82.460 E3.2943
G1 X141.720 Y84.280 E3.3669
G1 X143.540 Y84.280 E3.4396
G1 X144.054 Y84.493 E3.4618
G1 X144.507 Y84.946 E3.4873
G1 X144.720 Y85.460 E3.5096
G1 X144.720 Y90.280 E3.7019
G1 X146.540 Y90.280 E3.7746
G1 X147.054 Y90.493 E3.7968
G1 X147.507 Y90.946 E3.8223
G1 X147.720 Y91.460 E3.8446
G1 X147.720 Y96.280 E4.0369
G1 X149.540 Y96.280 E4.1096
G1 X150.054 Y96.493 E4.1318
G1 X150.507 Y96.946 E4.1573
G1 X150.720 Y97.460 E4.1796
G1 X150.720 Y122.540 E5.1806
G1 X150.507 Y123.054 E5.2028
G1 X150.054 Y123.507 E5.2283
G1 X149.540 Y123.720 E5.2505
G1 X147.720 Y123.720 E5.3232
G1 X147.720 Y128.540 E5.5156
G1 X147.507 Y129.055 E5.5378
G1 X147.054 Y129.507 E5.5633
G1 X146.540 Y129.720 E5.5855
G1 X144.720 Y129.720 E5.6582
G1 X144.720 Y134.540 E5.8506
G1 X144.507 Y135.055 E5.8728
G1 X144.054 Y135.507 E5.8983
G1 X143.540 Y135.720 E5.9206
G1 X141.720 Y135.720 E5.9932
G1 X141.720 Y137.540 E6.0658
G1 X141.507 Y138.055 E6.0881
G1 X141.054 Y138.507 E6.1136
G1 X140.540 Y138.720 E6.1358
G1 X138.720 Y138.720 E6.2085
G1 X138.720 Y140.540 E6.2811
G1 X138.507 Y141.055 E6.3033
G1 X138.054 Y141.507 E6.3289
G1 X137.540 Y141.720 E6.3511
G1 X135.720 Y141.720 E6.4237
G1 X135.720 Y143.540 E6.4964
G1 X135.507 Y144.055 E6.5186
G1 X135.054 Y144.507 E6.5441
G1 X134.540 Y144.720 E6.5664
G1 X129.720 Y144.720 E6.7587
G1 X129.720 Y146.540 E6.8314
G1 X129.507 Y147.055 E6.8536
G1 X129.054 Y147.507 E6.8791
G1 X128.540 Y147.720 E6.9014
G1 X123.720 Y147.720 E7.0937
G1 X123.720 Y149.540 E7.1664
G1 X123.507 Y150.055 E7.1886
G1 X123.054 Y150.507 E7.2141
G1 X122.540 Y150.720 E7.2364
G1 X97.460 Y150.720 E8.2373
G1 X96.946 Y150.507 E8.2596
G1 X96.493 Y150.055 E8.2851
G1 X96.280 Y149.540 E8.3073
G1 X96.280 Y147.720 E8.3800
G1 X91.460 Y147.720 E8.5723
G1 X90.946 Y147.507 E8.5946
G1 X90.493 Y147.055 E8.6201
G1 X90.280 Y146.540 E8.6423
G1 X90.280 Y144.720 E8.7150
G1 X85.460 Y144.720 E8.9073
G1 X84.946 Y144.507 E8.9296
G1 X84.493 Y144.055 E8.9551
G1 X84.280 Y143.540 E8.9773
G1 X84.280 Y141.720 E9.0500
G1 X82.460 Y141.720 E9.1226
G1 X81.946 Y141.507 E9.1448
G1 X81.493 Y141.055 E9.1704
G1 X81.280 Y140.540 E9.1926
G1 X81.280 Y138.720 E9.2652
G1 X79.460 Y138.720 E9.3379
G1 X78.946 Y138.507 E9.3601
G1 X78.493 Y138.055 E9.3856
G1 X78.280 Y137.540 E9.4079
G1 X78.280 Y135.720 E9.4805
G1 X76.460 Y135.720 E9.5531
G1 X75.946 Y135.507 E9.5754
G1 X75.493 Y135.055 E9.6009
G1 X75.280 Y134.540 E9.6231
G1 X75.280 Y129.720 E9.8155
G1 X73.460 Y129.720 E9.8882
G1 X72.946 Y129.507 E9.9104
G1 X72.493 Y129.055 E9.9359
G1 X72.280 Y128.540 E9.9581
G1 X72.280 Y123.720 E10.1505
G1 X70.460 Y123.720 E10.2232
G1 X69.946 Y123.507 E10.2454
G1 X69.493 Y123.054 E10.2709
G1 X69.280 Y122.540 E10.2932
G1 X69.280 Y97.460 E11.2941
G1 X69.493 Y96.946 E11.3164
G1 X69.946 Y96.493 E11.3419
G1 X70.460 Y96.280 E11.3641
G1 X72.280 Y96.280 E11.4368
G1 X72.280 Y91.460 E11.6291
G1 X72.493 Y90.946 E11.6514
G1 X72.946 Y90.493 E11.6769
G1 X73.460 Y90.280 E11.6991
G1 X75.280 Y90.280 E11.7718
G1 X75.280 Y85.460 E11.9641
G1 X75.493 Y84.946 E11.9864
G1 X75.946 Y84.493 E12.0119
G1 X76.460 Y84.280 E12.0341
G1 X78.280 Y84.280 E12.1068
G1 X78.280 Y82.460 E12.1794
G1 X78.493 Y81.946 E12.2016
G1 X78.946 Y81.493 E12.2272
G1 X79.172 Y81.832 F4800
G92 E0
G1 X79.540 Y81.680 E0.0159 F1800
G1 X81.680 Y81.680 E0.1013
G1 X81.680 Y79.540 E0.1867
G1 X81.832 Y79.172 E0.2026
G1 X82.172 Y78.832 E0.2218
G1 X82.540 Y78.680 E0.2377
G1 X84.680 Y78.680 E0.3231
G1 X84.680 Y76.540 E0.4085
G1 X84.832 Y76.172 E0.4244
G1 X85.172 Y75.832 E0.4436
G1 X85.540 Y75.680 E0.4595
G1 X90.680 Y75.680 E0.6646
G1 X90.680 Y73.540 E0.7500
G1 X90.832 Y73.172 E0.7659
G1 X91.172 Y72.832 E0.7851
G1 X91.540 Y72.680 E0.8010
G1 X96.680 Y72.680 E1.0062
