; G-Code generated by Simplify3D(R) Version 4.0.1
; Oct 6, 2018 at 5:06:05 PM
; Settings Summary
;   processName,Process1
;   applyToModels,Support_Freebox_revolution
;   profileName,Anet A8-CommunauteFrancaise (modified)
;   profileVersion,2018-08-31 18:45:08
;   baseProfile,
;   printMaterial,ABS
;   printQuality,Medium
;   printExtruders,
;   extruderName,Primary Extruder
;   extruderToolheadNumber,0
;   extruderDiameter,0.4
;   extruderAutoWidth,0
;   extruderWidth,0.4
;   extrusionMultiplier,1
;   extruderUseRetract,1
;   extruderRetractionDistance,2
;   extruderExtraRestartDistance,-0.2
;   extruderRetractionZLift,0.2
;   extruderRetractionSpeed,3600
;   extruderUseCoasting,0
;   extruderCoastingDistance,0.2
;   extruderUseWipe,0
;   extruderWipeDistance,5
;   primaryExtruder,0
;   layerHeight,0.2
;   topSolidLayers,5
;   bottomSolidLayers,5
;   perimeterOutlines,4
;   printPerimetersInsideOut,1
;   startPointOption,2
;   startPointOriginX,0
;   startPointOriginY,500
;   sequentialIslands,0
;   spiralVaseMode,0
;   firstLayerHeightPercentage,100
;   firstLayerWidthPercentage,100
;   firstLayerUnderspeed,0.5
;   useRaft,0
;   raftExtruder,0
;   raftTopLayers,3
;   raftBaseLayers,2
;   raftOffset,3
;   raftSeparationDistance,0.14
;   raftTopInfill,100
;   aboveRaftSpeedMultiplier,0.3
;   useSkirt,1
;   skirtExtruder,0
;   skirtLayers,1
;   skirtOutlines,1
;   skirtOffset,2
;   usePrimePillar,0
;   primePillarExtruder,999
;   primePillarWidth,12
;   primePillarLocation,7
;   primePillarSpeedMultiplier,1
;   useOozeShield,0
;   oozeShieldExtruder,999
;   oozeShieldOffset,2
;   oozeShieldOutlines,1
;   oozeShieldSidewallShape,1
;   oozeShieldSidewallAngle,30
;   oozeShieldSpeedMultiplier,1
;   infillExtruder,0
;   internalInfillPattern,Rectilinear
;   externalInfillPattern,Rectilinear
;   infillPercentage,30
;   outlineOverlapPercentage,20
;   infillExtrusionWidthPercentage,100
;   minInfillLength,2
;   infillLayerInterval,1
;   internalInfillAngles,90,0
;   overlapInternalInfillAngles,0
;   externalInfillAngles,90,0
;   generateSupport,0
;   supportExtruder,0
;   supportInfillPercentage,30
;   supportExtraInflation,0
;   supportBaseLayers,0
;   denseSupportExtruder,0
;   denseSupportLayers,0
;   denseSupportInfillPercentage,60
;   supportLayerInterval,1
;   supportHorizontalPartOffset,0.3
;   supportUpperSeparationLayers,1
;   supportLowerSeparationLayers,1
;   supportType,0
;   supportGridSpacing,3
;   maxOverhangAngle,55
;   supportAngles,0
;   temperatureName,Primary Extruder,Heated Bed
;   temperatureNumber,0,0
;   temperatureSetpointCount,1,1
;   temperatureSetpointLayers,1,1
;   temperatureSetpointTemperatures,230,90
;   temperatureStabilizeAtStartup,1,1
;   temperatureHeatedBed,0,1
;   temperatureRelayBetweenLayers,0,0
;   temperatureRelayBetweenLoops,0,0
;   fanLayers,1
;   fanSpeeds,0
;   blipFanToFullPower,0
;   adjustSpeedForCooling,1
;   minSpeedLayerTime,15
;   minCoolingSpeedSlowdown,20
;   increaseFanForCooling,0
;   minFanLayerTime,45
;   maxCoolingFanSpeed,100
;   increaseFanForBridging,0
;   bridgingFanSpeed,100
;   use5D,1
;   relativeEdistances,0
;   allowEaxisZeroing,1
;   independentExtruderAxes,0
;   includeM10123,0
;   stickySupport,1
;   applyToolheadOffsets,0
;   gcodeXoffset,0
;   gcodeYoffset,0
;   gcodeZoffset,0
;   overrideMachineDefinition,1
;   machineTypeOverride,0
;   strokeXoverride,220
;   strokeYoverride,220
;   strokeZoverride,240
;   originOffsetXoverride,0
;   originOffsetYoverride,0
;   originOffsetZoverride,0
;   homeXdirOverride,-1
;   homeYdirOverride,-1
;   homeZdirOverride,-1
;   flipXoverride,1
;   flipYoverride,-1
;   flipZoverride,1
;   toolheadOffsets,0,0|0,0|0,0|0,0|0,0|0,0
;   overrideFirmwareConfiguration,1
;   firmwareTypeOverride,RepRap (Marlin/Repetier/Sprinter)
;   GPXconfigOverride,r2
;   baudRateOverride,115200
;   overridePrinterModels,1
;   printerModelsOverride
;   startingGcode,G28 ; home all axes,;G29,G1 X0 Y10 Z0.2 F3000 ; get ready to prime,G92 E0 ; reset extrusion distance,G1 X90 E20 Z-0.60 F600 ; prime nozzle,M117 Impression en cours  !!
;   layerChangeGcode,
;   retractionGcode,
;   toolChangeGcode,
;   endingGcode,M104 S0 ; turn off extruder,M140 S0 ; turn off bed,G1 X0 Y200 F1000 ; prepare for part removal,M84 ; disable motors,M117 c'est fini !!
;   exportFileFormat,gcode
;   celebration,0
;   celebrationSong,Star Wars
;   postProcessing,|;gcode:||; Use Simplify3D Gcode comments to display info for each layer||;{REPLACE "; layer" "M117 Layer"} ; Replace Simplify3D layer comments with display commands|;{REPLACE " Z = " " Z="} ; Delete spaces for more display space||; For filament change at the beginning of a particular layer:||; {REPLACE "\nM117 Layer <#>, Z=" "\nM600\nM117 Layer <#>, Z="}||; Forward toolpath file to Octoprint when saved:|;curl -k -H "X-Api-Key:95CF4E9979984CF1ACDD88DF2F202262" -F "select=true" -F "print=true" -F "file=@[output_filepath]" "http://192.168.1.126/api/files/local"
;   defaultSpeed,2400
;   outlineUnderspeed,0.5
;   solidInfillUnderspeed,0.8
;   supportUnderspeed,0.8
;   rapidXYspeed,3000
;   rapidZspeed,1002
;   minBridgingArea,50
;   bridgingExtraInflation,0
;   bridgingExtrusionMultiplier,1
;   bridgingSpeedMultiplier,1
;   useFixedBridgingAngle,0
;   fixedBridgingAngle,0
;   applyBridgingToPerimeters,0
;   filamentDiameters,1.75|1.75|1.75|1.75|1.75|1.75
;   filamentPricesPerKg,46|46|46|46|46|46
;   filamentDensities,1.25|1.25|1.25|1.25|1.25|1.25
;   useMinPrintHeight,0
;   minPrintHeight,0
;   useMaxPrintHeight,0
;   maxPrintHeight,0
;   useDiaphragm,0
;   diaphragmLayerInterval,20
;   robustSlicing,1
;   mergeAllIntoSolid,0
;   onlyRetractWhenCrossingOutline,1
;   retractBetweenLayers,1
;   useRetractionMinTravel,0
;   retractionMinTravel,3
;   retractWhileWiping,0
;   onlyWipeOutlines,1
;   avoidCrossingOutline,0
;   maxMovementDetourFactor,3
;   toolChangeRetractionDistance,12
;   toolChangeExtraRestartDistance,-0.5
;   toolChangeRetractionSpeed,600
;   externalThinWallType,0
;   internalThinWallType,2
;   thinWallAllowedOverlapPercentage,10
;   singleExtrusionMinLength,1
;   singleExtrusionMinPrintingWidthPercentage,50
;   singleExtrusionMaxPrintingWidthPercentage,200
;   singleExtrusionEndpointExtension,0.2
;   horizontalSizeCompensation,0
G90
M82
M106 S0
M140 S90
M190 S90
M104 S230 T0
M109 S230 T0
G28 ; home all axes
;G29
G1 X0 Y10 Z0.2 F3000 ; get ready to prime
G92 E0 ; reset extrusion distance
G1 X90 E20 Z-0.60 F600 ; prime nozzle
M117 Impression en cours  !!
G92 E0
G1 E-2.0000 F3600
G1 Z0.400 F1002
; process Process1
; layer 1, Z = 0.200
T0
; tool H0.200 W0.400
; skirt
G1 X96.558 Y97.830 F3000
G1 Z0.200 F1002
G1 E-0.2000 F1080
G92 E0
G1 X96.632 Y97.800 E0.0026 F1200
G1 X123.368 Y97.800 E0.8919
G1 X123.442 Y97.830 E0.8946
G1 X124.670 Y99.058 E0.9523
G1 X124.700 Y99.132 E0.9550
G1 X124.700 Y120.868 E1.6779
G1 X124.670 Y120.942 E1.6806
G1 X123.442 Y122.170 E1.7383
G1 X123.368 Y122.200 E1.7410
G1 X96.632 Y122.200 E2.6302
G1 X96.558 Y122.170 E2.6329
G1 X95.330 Y120.942 E2.6906
G1 X95.300 Y120.868 E2.6933
G1 X95.300 Y99.132 E3.4162
G1 X95.330 Y99.058 E3.4189
G1 X96.558 Y97.830 E3.4766
G92 E0
G1 E-2.0000 F3600
G1 Z0.400 F1002
; inner perimeter
G1 X98.900 Y101.400 F3000
G1 Z0.200 F1002
G1 E-0.2000 F3600
G92 E0
G1 X121.100 Y101.400 E0.7384 F900
G1 X121.100 Y118.600 E1.3105
G1 X98.900 Y118.600 E2.0488
G1 X98.900 Y101.400 E2.6209
G1 X98.500 Y101.000 F3000
G92 E0
G1 X121.500 Y101.000 E0.7650 F900
G1 X121.500 Y119.000 E1.3637
G1 X98.500 Y119.000 E2.1286
G1 X98.500 Y101.000 E2.7273
G1 X98.100 Y100.600 F3000
G92 E0
G1 X121.900 Y100.600 E0.7916 F900
G1 X121.900 Y119.400 E1.4169
G1 X98.100 Y119.400 E2.2085
G1 X98.100 Y100.600 E2.8338
; outer perimeter
G1 X97.700 Y100.200 F3000
G92 E0
G1 X122.300 Y100.200 E0.8182 F600
G1 X122.300 Y119.800 E1.4701
G1 X97.700 Y119.800 E2.2883
G1 X97.700 Y100.200 E2.9402
; solid layer
G1 X99.600 Y118.280 F3000
G92 E0
G1 X99.600 Y101.720 E0.5508 F960
G1 X100.000 Y101.720 E0.5641
G1 X100.000 Y118.280 E1.1149
G1 X100.400 Y118.280 E1.1282
G1 X100.400 Y101.720 E1.6790
G1 X100.800 Y101.720 E1.6923
G1 X100.800 Y118.280 E2.2431
G1 X101.200 Y118.280 E2.2564
G1 X101.200 Y101.720 E2.8072
G1 X101.600 Y101.720 E2.8205
G1 X101.600 Y118.280 E3.3713
G1 X102.000 Y118.280 E3.3846
G1 X102.000 Y101.720 E3.9353
G1 X102.400 Y101.720 E3.9487
G1 X102.400 Y118.280 E4.4994
G1 X102.800 Y118.280 E4.5127
G1 X102.800 Y101.720 E5.0635
G1 X103.200 Y101.720 E5.0768
G1 X103.200 Y118.280 E5.6276
G1 X103.600 Y118.280 E5.6409
G1 X103.600 Y101.720 E6.1917
G1 X104.000 Y101.720 E6.2050
G1 X104.000 Y118.280 E6.7558
G1 X104.400 Y118.280 E6.7691
G1 X104.400 Y101.720 E7.3199
G1 X104.800 Y101.720 E7.3332
G1 X104.800 Y118.280 E7.8840
G1 X105.200 Y118.280 E7.8973
G1 X105.200 Y101.720 E8.4481
G1 X105.600 Y101.720 E8.4614
G1 X105.600 Y118.280 E9.0122
G1 X106.000 Y118.280 E9.0255
G1 X106.000 Y101.720 E9.5763
G1 X106.400 Y101.720 E9.5896
G1 X106.400 Y118.280 E10.1404
G1 X106.800 Y118.280 E10.1537
G1 X106.800 Y101.720 E10.7045
G1 X107.200 Y101.720 E10.7178
G1 X107.200 Y118.280 E11.2686
G1 X107.600 Y118.280 E11.2819
G1 X107.600 Y101.720 E11.8326
G1 X108.000 Y101.720 E11.8459
G1 X108.000 Y118.280 E12.3967
G1 X108.400 Y118.280 E12.4100
G1 X108.400 Y101.720 E12.9608
G1 X108.800 Y101.720 E12.9741
G1 X108.800 Y118.280 E13.5249
G1 X109.200 Y118.280 E13.5382
G1 X109.200 Y101.720 E14.0890
G1 X109.600 Y101.720 E14.1023
G1 X109.600 Y118.280 E14.6531
G1 X110.000 Y118.280 E14.6664
G1 X110.000 Y101.720 E15.2172
G1 X110.400 Y101.720 E15.2305
G1 X110.400 Y118.280 E15.7813
G1 X110.800 Y118.280 E15.7946
G1 X110.800 Y101.720 E16.3454
G1 X111.200 Y101.720 E16.3587
G1 X111.200 Y118.280 E16.9095
G1 X111.600 Y118.280 E16.9228
G1 X111.600 Y101.720 E17.4736
G1 X112.000 Y101.720 E17.4869
G1 X112.000 Y118.280 E18.0377
G1 X112.400 Y118.280 E18.0510
G1 X112.400 Y101.720 E18.6018
G1 X112.800 Y101.720 E18.6151
G1 X112.800 Y118.280 E19.1659
G1 X113.200 Y118.280 E19.1792
G1 X113.200 Y101.720 E19.7299
G1 X113.600 Y101.720 E19.7432
G1 X113.600 Y118.280 E20.2940
G1 X114.000 Y118.280 E20.3073
G1 X114.000 Y101.720 E20.8581
G1 X114.400 Y101.720 E20.8714
G1 X114.400 Y118.280 E21.4222
G1 X114.800 Y118.280 E21.4355
G1 X114.800 Y101.720 E21.9863
G1 X115.200 Y101.720 E21.9996
G1 X115.200 Y118.280 E22.5504
G1 X115.600 Y118.280 E22.5637
G1 X115.600 Y101.720 E23.1145
G1 X116.000 Y101.720 E23.1278
G1 X116.000 Y118.280 E23.6786
G1 X116.400 Y118.280 E23.6919
G1 X116.400 Y101.720 E24.2427
G1 X116.800 Y101.720 E24.2560
G1 X116.800 Y118.280 E24.8068
G1 X117.200 Y118.280 E24.8201
G1 X117.200 Y101.720 E25.3709
G1 X117.600 Y101.720 E25.3842
G1 X117.600 Y118.280 E25.9350
G1 X118.000 Y118.280 E25.9483
G1 X118.000 Y101.720 E26.4991
G1 X118.400 Y101.720 E26.5124
G1 X118.400 Y118.280 E27.0631
G1 X118.800 Y118.280 E27.0765
G1 X118.800 Y101.720 E27.6272
G1 X119.200 Y101.720 E27.6405
G1 X119.200 Y118.280 E28.1913
G1 X119.600 Y118.280 E28.2046
G1 X119.600 Y101.720 E28.7554
G1 X120.000 Y101.720 E28.7687
G1 X120.000 Y118.280 E29.3195
G1 X120.400 Y118.280 E29.3328
G1 X120.400 Y101.720 E29.8836
G92 E0
G1 E-2.0000 F3600
G1 Z0.600 F1002
; layer 2, Z = 0.400
; inner perimeter
G1 X121.100 Y101.400 F3000
G1 Z0.400 F1002
G1 E-0.2000 F3600
G92 E0
G1 X121.100 Y118.600 E0.5721 F1800
G1 X98.900 Y118.600 E1.3104
G1 X98.900 Y101.400 E1.8825
G1 X121.100 Y101.400 E2.6209
G1 X121.500 Y101.000 F3000
G92 E0
G1 X121.500 Y119.000 E0.5987 F1800
G1 X98.500 Y119.000 E1.3637
G1 X98.500 Y101.000 E1.9623
G1 X121.500 Y101.000 E2.7273
G1 X121.900 Y100.600 F3000
G92 E0
G1 X121.900 Y119.400 E0.6253 F1800
G1 X98.100 Y119.400 E1.4169
G1 X98.100 Y100.600 E2.0422
G1 X121.900 Y100.600 E2.8338
; outer perimeter
G1 X122.300 Y100.200 F3000
G92 E0
G1 X122.300 Y119.800 E0.6519 F1200
G1 X97.700 Y119.800 E1.4701
G1 X97.700 Y100.200 E2.1220
G1 X122.300 Y100.200 E2.9402
; solid layer
G1 X120.780 Y118.000 F3000
G92 E0
G1 X99.220 Y118.000 E0.7171 F1920
G1 X99.220 Y117.600 E0.7304
G1 X120.780 Y117.600 E1.4475
G1 X120.780 Y117.200 E1.4608
G1 X99.220 Y117.200 E2.1779
G1 X99.220 Y116.800 E2.1912
G1 X120.780 Y116.800 E2.9083
G1 X120.780 Y116.400 E2.9216
G1 X99.220 Y116.400 E3.6387
G1 X99.220 Y116.000 E3.6520
G1 X120.780 Y116.000 E4.3690
G1 X120.780 Y115.600 E4.3824
G1 X99.220 Y115.600 E5.0994
G1 X99.220 Y115.200 E5.1127
G1 X120.780 Y115.200 E5.8298
G1 X120.780 Y114.800 E5.8431
G1 X99.220 Y114.800 E6.5602
G1 X99.220 Y114.400 E6.5735
G1 X120.780 Y114.400 E7.2906
G1 X120.780 Y114.000 E7.3039
G1 X99.220 Y114.000 E8.0210
G1 X99.220 Y113.600 E8.0343
G1 X120.780 Y113.600 E8.7514
G1 X120.780 Y113.200 E8.7647
G1 X99.220 Y113.200 E9.4818
G1 X99.220 Y112.800 E9.4951
G1 X120.780 Y112.800 E10.2122
G1 X120.780 Y112.400 E10.2255
G1 X99.220 Y112.400 E10.9426
G1 X99.220 Y112.000 E10.9559
G1 X120.780 Y112.000 E11.6730
G1 X120.780 Y111.600 E11.6863
G1 X99.220 Y111.600 E12.4034
G1 X99.220 Y111.200 E12.4167
G1 X120.780 Y111.200 E13.1338
G1 X120.780 Y110.800 E13.1471
G1 X99.220 Y110.800 E13.8642
G1 X99.220 Y110.400 E13.8775
G1 X120.780 Y110.400 E14.5945
G1 X120.780 Y110.000 E14.6078
G1 X99.220 Y110.000 E15.3249
G1 X99.220 Y109.600 E15.3382
G1 X120.780 Y109.600 E16.0553
G1 X120.780 Y109.200 E16.0686
G1 X99.220 Y109.200 E16.7857
G1 X99.220 Y108.800 E16.7990
G1 X120.780 Y108.800 E17.5161
G1 X120.780 Y108.400 E17.5294
G1 X99.220 Y108.400 E18.2465
G1 X99.220 Y108.000 E18.2598
G1 X120.780 Y108.000 E18.9769
G1 X120.780 Y107.600 E18.9902
G1 X99.220 Y107.600 E19.7073
G1 X99.220 Y107.200 E19.7206
G1 X120.780 Y107.200 E20.4377
G1 X120.780 Y106.800 E20.4510
G1 X99.220 Y106.800 E21.1681
G1 X99.220 Y106.400 E21.1814
G1 X120.780 Y106.400 E21.8985
G1 X120.780 Y106.000 E21.9118
G1 X99.220 Y106.000 E22.6289
G1 X99.220 Y105.600 E22.6422
G1 X120.780 Y105.600 E23.3593
G1 X120.780 Y105.200 E23.3726
G1 X99.220 Y105.200 E24.0897
G1 X99.220 Y104.800 E24.1030
G1 X120.780 Y104.800 E24.8200
G1 X120.780 Y104.400 E24.8334
G1 X99.220 Y104.400 E25.5504
G1 X99.220 Y104.000 E25.5637
G1 X120.780 Y104.000 E26.2808
G1 X120.780 Y103.600 E26.2941
G1 X99.220 Y103.600 E27.0112
G1 X99.220 Y103.200 E27.0245
G1 X120.780 Y103.200 E27.7416
G1 X120.780 Y102.800 E27.7549
G1 X99.220 Y102.800 E28.4720
G1 X99.220 Y102.400 E28.4853
G1 X120.780 Y102.400 E29.2024
G1 X120.780 Y102.000 E29.2157
G1 X99.220 Y102.000 E29.9328
G92 E0
G1 E-2.0000 F3600
G1 Z0.800 F1002
; layer 3, Z = 0.600
; inner perimeter
G1 X98.900 Y101.400 F3000
G1 Z0.600 F1002
G1 E-0.2000 F3600
G92 E0
G1 X121.100 Y101.400 E0.7384 F1800
G1 X121.100 Y118.600 E1.3105
G1 X98.900 Y118.600 E2.0488
G1 X98.900 Y101.400 E2.6209
G1 X98.500 Y101.000 F3000
G92 E0
G1 X121.500 Y101.000 E0.7650 F1800
G1 X121.500 Y119.000 E1.3637
G1 X98.500 Y119.000 E2.1286
G1 X98.500 Y101.000 E2.7273
G1 X98.100 Y100.600 F3000
G92 E0
G1 X121.900 Y100.600 E0.7916 F1800
G1 X121.900 Y119.400 E1.4169
G1 X98.100 Y119.400 E2.2085
G1 X98.100 Y100.600 E2.8338
; outer perimeter
G1 X97.700 Y100.200 F3000
G92 E0
G1 X122.300 Y100.200 E0.8182 F1200
G1 X122.300 Y119.800 E1.4701
G1 X97.700 Y119.800 E2.2883
G1 X97.700 Y100.200 E2.9402
; solid layer
G1 X99.600 Y118.280 F3000
G92 E0
G1 X99.600 Y101.720 E0.5508 F1920
G1 X100.000 Y101.720 E0.5641
G1 X100.000 Y118.280 E1.1149
G1 X100.400 Y118.280 E1.1282
G1 X100.400 Y101.720 E1.6790
G1 X100.800 Y101.720 E1.6923
G1 X100.800 Y118.280 E2.2431
G1 X101.200 Y118.280 E2.2564
G1 X101.200 Y101.720 E2.8072
G1 X101.600 Y101.720 E2.8205
G1 X101.600 Y118.280 E3.3713
G1 X102.000 Y118.280 E3.3846
G1 X102.000 Y101.720 E3.9353
G1 X102.400 Y101.720 E3.9487
G1 X102.400 Y118.280 E4.4994
G1 X102.800 Y118.280 E4.5127
G1 X102.800 Y101.720 E5.0635
G1 X103.200 Y101.720 E5.0768
G1 X103.200 Y118.280 E5.6276
G1 X103.600 Y118.280 E5.6409
G1 X103.600 Y101.720 E6.1917
G1 X104.000 Y101.720 E6.2050
G1 X104.000 Y118.280 E6.7558
G1 X104.400 Y118.280 E6.7691
G1 X104.400 Y101.720 E7.3199
G1 X104.800 Y101.720 E7.3332
G1 X104.800 Y118.280 E7.8840
G1 X105.200 Y118.280 E7.8973
G1 X105.200 Y101.720 E8.4481
G1 X105.600 Y101.720 E8.4614
G1 X105.600 Y118.280 E9.0122
G1 X106.000 Y118.280 E9.0255
G1 X106.000 Y101.720 E9.5763
G1 X106.400 Y101.720 E9.5896
G1 X106.400 Y118.280 E10.1404
